;1001
;Printer name: Creality Ender 3 Pro
;TIME:23034
;Print time: 6h:23m:54s
;Extruder 1 material used: 19363mm
;Extruder 1 material name: 
;Extruder 1 filament diameter: 1.75mm
;Extruder 1 nozzle diameter: 0.4mm
;Extruder 1 offset x: 0mm
;Extruder 1 offset y: 0mm
;Extruder 1 offset z: 0mm
;Extruder 1 max temp: 200
;Bed temp: 70
;Layer count: 853
;Width: 220mm
;Depth: 220mm
;Height: 250mm
;Center x: 110mm
;Center y: 110mm
;Center z: 0mm
;Count of bodies: 3
;Fusion version: 2.0.20460
G21
;--------------------------------
;Selected Profile: PLA Bowden Tube
;--------------------------------
;Selected Printer: Creality, Ender 3 Pro
;--------------------------------
T0
M140 S70
M104 S200 T0
M105
M190 S70
M105
M109 S200 T0
G0 F7200
G90
M83
;Reset multiplier
M220 S100
M221 S100
G28
G1 Z10 F236
G92 E0
G0 X10 Y10 Z10 F7200
G92 E0
;--------------------------------
;Part 1
;LAYER_COUNT:853
;LAYER:1
M107
;rapid-leaky
G0 X20 Y20.5 Z0.2 F7200
;bead-prime
G1 X120 F720 E8.315
G1 F2700 E-7
;rapid-dry
G0 X77.146 Y91.598 F7200
G1 F2700 E7
;bead-skirt/brim
G1 Y127.398 F960 E1.191
G1 X50.049 E0.901
G1 X50.05 Y91.598 E1.191
G1 X77.146 E0.901
;rapid-leaky
G0 X76.746 Y91.998 F7200
;bead-skirt/brim
G1 Y126.998 F960 E1.164
G1 X50.449 E0.875
G1 X50.45 Y91.998 E1.164
G1 X76.746 E0.874
;rapid-leaky
G0 X76.346 Y92.398 F7200
;bead-skirt/brim
G1 Y126.598 F960 E1.138
G1 X50.849 E0.848
G1 X50.85 Y92.398 E1.137
G1 X76.346 E0.848
;rapid-leaky
G0 X75.946 Y92.798 F7200
;bead-skirt/brim
G1 Y126.198 F960 E1.111
G1 X51.249 E0.822
G1 X51.25 Y92.798 E1.111
G1 X75.946 E0.821
;rapid-leaky
G0 X75.546 Y93.198 F7200
;bead-skirt/brim
G1 Y125.798 F960 E1.084
G1 X51.649 E0.795
G1 X51.65 Y93.198 E1.084
G1 X75.546 E0.795
;rapid-leaky
G0 X75.146 Y93.598 F7200
;bead-skirt/brim
G1 Y125.398 F960 E1.058
G1 X52.049 E0.768
G1 X52.05 Y93.598 E1.058
G1 X75.146 E0.768
;rapid-leaky
G0 X74.746 Y93.998 F7200
;bead-skirt/brim
G1 Y124.998 F960 E1.031
G1 X52.449 E0.742
G1 X52.45 Y93.998 E1.031
G1 X74.746 E0.741
;rapid-leaky
G0 X74.346 Y94.398 F7200
;bead-skirt/brim
G1 Y124.598 F960 E1.005
G1 X52.849 E0.715
G1 X52.85 Y94.398 E1.004
G1 X74.346 E0.715
;rapid-leaky
G0 X73.946 Y94.798 F7200
;bead-skirt/brim
G1 Y124.198 F960 E0.978
G1 X53.249 E0.688
G1 X53.25 Y94.798 E0.978
G1 X73.946 E0.689
;rapid-leaky
G0 X76.187 Y91.198 F7200
;bead-skirt/brim
G1 X49.65 F960 E0.882
G1 X49.649 Y127.798 E1.217
G1 X77.546 E0.928
;rapid-leaky
G0 F7200
;bead-skirt/brim
G1 Y91.691 F960 E1.201
;rapid-leaky
G0 X130.052 Y120.6 F7200
;bead-skirt/brim
G1 X157.148 F960 E0.901
G1 Y128.4 E0.26
G1 X130.052 E0.901
G1 Y120.6 E0.26
;rapid-leaky
G0 X130.452 Y121 F7200
;bead-skirt/brim
G1 X156.748 F960 E0.874
G1 Y128 E0.233
G1 X130.452 E0.875
G1 Y121 E0.232
;rapid-leaky
G0 X130.852 Y121.4 F7200
;bead-skirt/brim
G1 X156.348 F960 E0.848
G1 Y127.6 E0.207
G1 X130.852 E0.848
G1 Y121.4 E0.206
;rapid-leaky
G0 X131.252 Y121.8 F7200
;bead-skirt/brim
G1 X155.948 F960 E0.821
G1 Y127.2 E0.18
G1 X131.252 E0.821
G1 Y121.8 E0.18
;rapid-leaky
G0 X131.652 Y122.2 F7200
;bead-skirt/brim
G1 X155.548 F960 E0.795
G1 Y126.8 E0.153
G1 X131.652 E0.794
G1 Y122.2 E0.153
;rapid-leaky
G0 X132.052 Y122.6 F7200
;bead-skirt/brim
G1 X155.148 F960 E0.769
G1 Y126.4 E0.126
G1 X132.052 E0.768
G1 Y122.6 E0.127
;rapid-leaky
G0 X132.452 Y123 F7200
;bead-skirt/brim
G1 X154.748 F960 E0.741
G1 Y126 E0.1
G1 X132.452 E0.741
G1 Y123 E0.1
;rapid-leaky
G0 X132.852 Y123.4 F7200
;bead-skirt/brim
G1 X154.348 F960 E0.715
G1 Y125.6 E0.073
G1 X132.852 E0.715
G1 Y123.4 E0.073
;rapid-leaky
G0 X133.252 Y123.8 F7200
;bead-skirt/brim
G1 X153.948 F960 E0.689
G1 Y125.2 E0.046
G1 X133.252 E0.689
G1 Y123.8 E0.046
;rapid-leaky
G0 X156.189 Y120.2 F7200
;bead-skirt/brim
G1 X129.652 F960 E0.883
G1 Y128.8 E0.286
G1 X157.548 E0.928
;rapid-leaky
G0 F7200
;bead-skirt/brim
G1 Y120.693 F960 E0.269
G1 F2700 E-7
;rapid-dry
G0 X133.652 Y124.8 F7200
G1 F2700 E7
;bead-perimeter_outer
G1 Y124.2 F720 E0.02
G1 X153.548 E0.662
G1 Y124.8 E0.02
G1 X133.652 E0.662
G1 F2700 E-7
;rapid-dry
G0 X58.4 Y107.707 F7200
G1 F2700 E7
;bead-perimeter_outer
G1 X68.8 Y107.708 F720 E0.346
G1 Y97.308 E0.346
G1 X58.4 E0.346
G1 Y107.707 E0.345
;rapid-leaky
G0 X58.04 Y108.067 F7200
;bead-perimeter_inner
G1 X69.16 Y108.068 F960 E0.37
G1 Y96.948 E0.37
G1 X58.04 E0.37
G1 Y108.067 E0.37
G1 F2700 E-7
;rapid-dry
G0 X53.65 Y95.198 F7200
G1 F2700 E7
;bead-perimeter_outer
G1 X73.546 F720 E0.662
G1 Y123.798 E0.951
G1 X53.649 E0.662
G1 X53.65 Y95.198 E0.951
;rapid-leaky
G0 X54.01 Y95.558 F7200
;bead-perimeter_inner
G1 X73.186 F960 E0.638
G1 Y123.438 E0.927
G1 X54.009 E0.638
G1 X54.01 Y95.558 E0.927
;rapid-leaky
G0 X54.377 Y95.878 F7200
;bead-solid_infill
G1 X54.33 Y95.925 F720 E0.002
G1 Y96.49 E0.019
G1 X54.942 Y95.878 E0.029
G1 X55.508 E0.019
G1 X54.33 Y97.056 E0.055
G1 Y97.622 E0.019
G1 X56.074 Y95.878 E0.082
G1 X56.639 E0.019
G1 X54.33 Y98.187 E0.108
G1 Y98.753 E0.019
G1 X57.205 Y95.878 E0.135
G1 X57.771 E0.019
G1 X54.33 Y99.319 E0.162
G1 Y99.885 E0.019
G1 X58.336 Y95.878 E0.188
G1 X58.902 E0.019
G1 X58.152 Y96.628 E0.035
G1 X58.718 E0.019
G1 X59.468 Y95.878 E0.036
G1 X60.033 E0.018
G1 X59.283 Y96.628 E0.036
G1 X59.849 E0.018
G1 X60.599 Y95.878 E0.036
G1 X61.165 E0.019
G1 X60.415 Y96.628 E0.035
G1 X60.98 E0.019
G1 X61.73 Y95.878 E0.035
G1 X62.296 E0.019
G1 X61.546 Y96.628 E0.035
G1 X62.112 E0.019
G1 X62.862 Y95.878 E0.035
G1 X63.428 E0.019
G1 X62.678 Y96.628 E0.035
G1 X63.243 E0.019
G1 X63.993 Y95.878 E0.035
G1 X64.559 E0.019
G1 X63.809 Y96.628 E0.035
G1 X64.375 E0.019
G1 X65.125 Y95.878 E0.035
G1 X65.69 E0.019
G1 X64.94 Y96.628 E0.036
G1 X65.506 E0.018
G1 X66.256 Y95.878 E0.036
G1 X66.822 E0.018
G1 X66.072 Y96.628 E0.036
G1 X66.637 E0.019
G1 X67.387 Y95.878 E0.035
G1 X67.953 E0.019
G1 X67.203 Y96.628 E0.035
G1 X67.769 E0.019
G1 X68.519 Y95.878 E0.035
G1 X69.084 E0.019
G1 X68.334 Y96.628 E0.035
G1 X68.9 E0.019
G1 X69.65 Y95.878 E0.035
G1 X70.216 E0.019
G1 X69.466 Y96.628 E0.035
G1 X69.48 E0.001
G1 Y97.179 E0.018
G1 X70.781 Y95.878 E0.061
G1 X71.347 E0.019
G1 X69.48 Y97.745 E0.088
G1 Y98.311 E0.019
G1 X71.913 Y95.878 E0.114
G1 X72.479 E0.019
G1 X69.48 Y98.877 E0.141
G1 Y99.442 E0.019
G1 X72.866 Y96.056 E0.159
G1 Y96.622 E0.019
G1 X69.48 Y100.008 E0.159
G1 Y100.574 E0.019
G1 X72.866 Y97.188 E0.159
G1 Y97.753 E0.019
G1 X69.48 Y101.139 E0.159
G1 Y101.705 E0.019
G1 X72.866 Y98.319 E0.159
G1 Y98.885 E0.019
G1 X69.48 Y102.271 E0.16
G1 Y102.836 E0.018
G1 X72.866 Y99.45 E0.16
G1 Y100.016 E0.018
G1 X69.48 Y103.402 E0.16
G1 Y103.968 E0.019
G1 X72.866 Y100.582 E0.159
G1 Y101.147 E0.019
G1 X69.48 Y104.533 E0.159
G1 Y105.099 E0.019
G1 X72.866 Y101.713 E0.159
G1 Y102.279 E0.019
G1 X69.48 Y105.665 E0.159
G1 Y106.23 E0.019
G1 X72.866 Y102.844 E0.159
G1 Y103.41 E0.019
G1 X69.48 Y106.796 E0.159
G1 Y107.362 E0.019
G1 X72.866 Y103.976 E0.159
G1 Y104.541 E0.019
G1 X69.48 Y107.927 E0.159
G1 Y108.388 E0.016
G1 X69.019 E0.015
G1 X54.329 Y123.078 E0.691
G1 Y123.118 E0.001
G1 X54.855 E0.018
G1 X72.866 Y105.107 E0.847
G1 Y105.673 E0.019
G1 X55.421 Y123.118 E0.82
G1 X55.987 E0.019
G1 X72.866 Y106.239 E0.794
G1 Y106.804 E0.019
G1 X56.552 Y123.118 E0.767
G1 X57.118 E0.019
G1 X72.866 Y107.37 E0.741
G1 Y107.936 E0.019
G1 X57.684 Y123.118 E0.714
G1 X58.249 E0.019
G1 X72.866 Y108.501 E0.687
G1 Y109.067 E0.019
G1 X58.815 Y123.118 E0.661
G1 X59.381 E0.019
G1 X72.866 Y109.633 E0.634
G1 Y110.198 E0.019
G1 X59.946 Y123.118 E0.607
G1 X60.512 E0.019
G1 X72.866 Y110.764 E0.581
G1 Y111.33 E0.019
G1 X61.078 Y123.118 E0.555
G1 X61.643 E0.019
G1 X72.866 Y111.895 E0.527
G1 Y112.461 E0.019
G1 X62.209 Y123.118 E0.501
G1 X62.775 E0.019
G1 X72.866 Y113.027 E0.475
G1 Y113.592 E0.019
G1 X63.34 Y123.118 E0.448
G1 X63.906 E0.019
G1 X72.866 Y114.158 E0.421
G1 Y114.724 E0.019
G1 X64.472 Y123.118 E0.395
G1 X65.038 E0.019
G1 X72.866 Y115.29 E0.368
G1 Y115.855 E0.019
G1 X65.603 Y123.118 E0.341
G1 X66.169 E0.019
G1 X72.866 Y116.421 E0.315
G1 Y116.987 E0.019
G1 X66.735 Y123.118 E0.288
G1 X67.3 E0.019
G1 X72.866 Y117.552 E0.262
G1 Y118.118 E0.019
G1 X67.866 Y123.118 E0.235
G1 X68.432 E0.019
G1 X72.866 Y118.684 E0.208
G1 Y119.249 E0.019
G1 X68.997 Y123.118 E0.182
G1 X69.563 E0.019
G1 X72.866 Y119.815 E0.155
G1 Y120.381 E0.019
G1 X70.129 Y123.118 E0.129
G1 X70.694 E0.019
G1 X72.866 Y120.946 E0.102
G1 Y121.512 E0.019
G1 X71.26 Y123.118 E0.075
G1 X71.826 E0.019
G1 X72.866 Y122.078 E0.049
G1 Y122.643 E0.019
G1 X72.391 Y123.118 E0.022
G1 F2700 E-7
;rapid-dry
G0 X54.329 Y122.513 F7200
G1 F2700 E7
;bead-solid_infill
G1 X68.454 Y108.388 F720 E0.664
G1 X67.888 E0.019
G1 X54.329 Y121.947 E0.638
G1 Y121.381 E0.019
G1 X67.323 Y108.388 E0.611
G1 X66.757 E0.019
G1 X54.329 Y120.816 E0.584
G1 Y120.25 E0.019
G1 X66.191 Y108.388 E0.558
G1 X65.626 E0.019
G1 X54.329 Y119.684 E0.531
G1 Y119.119 E0.019
G1 X65.06 Y108.388 E0.505
G1 X64.494 E0.019
G1 X54.329 Y118.553 E0.478
G1 Y117.987 E0.019
G1 X63.929 Y108.388 E0.451
G1 X63.363 Y108.387 E0.019
G1 X54.329 Y117.421 E0.425
G1 Y116.856 E0.019
G1 X62.798 Y108.387 E0.398
G1 X62.232 E0.019
G1 X54.329 Y116.29 E0.372
G1 Y115.724 E0.018
G1 X61.666 Y108.387 E0.345
G1 X61.101 E0.019
G1 X54.329 Y115.159 E0.319
G1 Y114.593 E0.019
G1 X60.535 Y108.387 E0.292
G1 X59.969 E0.018
G1 X54.329 Y114.027 E0.266
G1 Y113.461 E0.018
G1 X59.404 Y108.387 E0.239
G1 X58.838 E0.019
G1 X54.329 Y112.896 E0.212
G1 Y112.33 E0.019
G1 X58.272 Y108.387 E0.185
G1 X57.72 E0.019
G1 Y108.374
G1 X54.329 Y111.764 E0.16
G1 Y111.199 E0.018
G1 X57.72 Y107.808 E0.16
G1 Y107.242 E0.019
G1 X54.329 Y110.633 E0.159
G1 Y110.067 E0.019
G1 X57.72 Y106.677 E0.159
G1 Y106.111 E0.019
G1 X54.33 Y109.502 E0.16
G1 Y108.936 E0.019
G1 X57.72 Y105.545 E0.159
G1 Y104.98 E0.019
G1 X54.33 Y108.37 E0.159
G1 Y107.804 E0.019
G1 X57.72 Y104.414 E0.16
G1 Y103.848 E0.018
G1 X54.33 Y107.239 E0.16
G1 Y106.673 E0.019
G1 X57.72 Y103.283 E0.159
G1 Y102.717 E0.019
G1 X54.33 Y106.107 E0.16
G1 Y105.542 E0.018
G1 X57.72 Y102.151 E0.16
G1 Y101.586 E0.019
G1 X54.33 Y104.976 E0.159
G1 Y104.41 E0.019
G1 X57.72 Y101.02 E0.159
G1 Y100.454 E0.019
G1 X54.33 Y103.844 E0.16
G1 Y103.279 E0.018
G1 X57.72 Y99.888 E0.16
G1 Y99.323 E0.019
G1 X54.33 Y102.713 E0.159
G1 Y102.147 E0.019
G1 X57.72 Y98.757 E0.16
G1 Y98.191 E0.018
G1 X54.33 Y101.582 E0.16
G1 Y101.016 E0.019
G1 X57.72 Y97.626 E0.159
G1 Y97.06 E0.019
G1 X54.33 Y100.45 E0.159
G1 F2700 E-7
;LAYER:2
M107
;rapid-dry
G0 X53.5 Y95.198 Z0.35 F7200
G1 F2700 E7
;bead-perimeter_outer
G1 X73.696 F1800 E0.504
G1 Y123.798 E0.714
G1 X53.499 E0.503
G1 X53.5 Y95.198 E0.714
;rapid-leaky
G0 X53.86 Y95.558 F7200
;bead-perimeter_inner
G1 X73.336 F2400 E0.486
G1 Y123.438 E0.695
G1 X53.859 E0.486
G1 X53.86 Y95.558 E0.695
G1 F2700 E-7
;rapid-dry
G0 X58.4 Y107.707 F7200
G1 F2700 E7
;bead-perimeter_outer
G1 X68.8 Y107.708 F1800 E0.26
G1 Y97.308 E0.259
G1 X58.4 E0.26
G1 Y107.707 E0.259
;rapid-leaky
G0 X58.04 Y108.067 F7200
;bead-perimeter_inner
G1 X69.16 Y108.068 F2400 E0.278
G1 Y96.948 E0.277
G1 X58.04 E0.277
G1 Y108.067 E0.278
;rapid-leaky
G0 X73.016 Y122.96 F7200
;bead-solid_infill
G1 X58.443 Y108.387 F1800 E0.514
G1 X59.008 E0.014
G1 X73.016 Y122.395 E0.494
G1 Y121.829 E0.014
G1 X59.574 Y108.387 E0.474
G1 X60.14 E0.014
G1 X73.016 Y121.263 E0.455
G1 Y120.698 E0.014
G1 X60.706 Y108.387 E0.434
G1 X61.271 E0.014
G1 X73.016 Y120.132 E0.415
G1 Y119.566 E0.014
G1 X61.837 Y108.387 E0.394
G1 X62.403 E0.014
G1 X73.016 Y119.001 E0.375
G1 Y118.435 E0.014
G1 X62.968 Y108.387 E0.354
G1 X63.534 E0.014
G1 X73.016 Y117.869 E0.335
G1 Y117.304 E0.014
G1 X64.1 Y108.388 E0.314
G1 X64.666 E0.015
G1 X73.016 Y116.738 E0.294
G1 Y116.172 E0.014
G1 X65.231 Y108.388 E0.275
G1 X65.797 E0.014
G1 X73.016 Y115.607 E0.255
G1 Y115.041 E0.014
G1 X66.363 Y108.388 E0.234
G1 X66.929 E0.015
G1 X73.016 Y114.475 E0.214
G1 Y113.909 E0.014
G1 X67.494 Y108.388 E0.195
G1 X68.06 E0.014
G1 X73.016 Y113.344 E0.175
G1 Y112.778 E0.014
G1 X68.626 Y108.388 E0.155
G1 X69.192 E0.014
G1 X73.016 Y112.212 E0.135
G1 Y111.647 E0.014
G1 X69.48 Y108.111 E0.125
G1 Y107.545 E0.014
G1 X73.016 Y111.081 E0.125
G1 Y110.515 E0.014
G1 X69.48 Y106.979 E0.125
G1 Y106.414 E0.014
G1 X73.016 Y109.95 E0.125
G1 Y109.384 E0.014
G1 X69.48 Y105.848 E0.124
G1 Y105.282 E0.014
G1 X73.016 Y108.818 E0.125
G1 Y108.253 E0.014
G1 X69.48 Y104.717 E0.125
G1 Y104.151 E0.014
G1 X73.016 Y107.687 E0.125
G1 Y107.121 E0.014
G1 X69.48 Y103.585 E0.125
G1 Y103.02 E0.014
G1 X73.016 Y106.556 E0.125
G1 Y105.99 E0.014
G1 X69.48 Y102.454 E0.124
G1 Y101.888 E0.015
G1 X73.016 Y105.424 E0.124
G1 Y104.858 E0.014
G1 X69.48 Y101.323 E0.125
G1 Y100.757 E0.014
G1 X73.016 Y104.293 E0.125
G1 Y103.727 E0.014
G1 X69.48 Y100.191 E0.125
G1 Y99.625 E0.014
G1 X73.016 Y103.161 E0.125
G1 Y102.596 E0.014
G1 X69.48 Y99.06 E0.125
G1 Y98.494 E0.014
G1 X73.016 Y102.03 E0.124
G1 Y101.464 E0.015
G1 X69.48 Y97.928 E0.124
G1 Y97.363 E0.014
G1 X73.016 Y100.899 E0.125
G1 Y100.333 E0.014
G1 X69.48 Y96.797 E0.125
G1 Y96.628 E0.004
G1 X69.311 E0.004
G1 X68.561 Y95.878 E0.027
G1 X67.995 E0.014
G1 X68.745 Y96.628 E0.026
G1 X68.18 E0.015
G1 X67.43 Y95.878 E0.026
G1 X66.864 E0.014
G1 X67.614 Y96.628 E0.027
G1 X67.048 E0.014
G1 X66.298 Y95.878 E0.026
G1 X65.733 E0.014
G1 X66.483 Y96.628 E0.027
G1 X65.917 E0.014
G1 X65.167 Y95.878 E0.026
G1 X64.601 E0.014
G1 X65.351 Y96.628 E0.027
G1 X64.786 E0.014
G1 X64.036 Y95.878 E0.026
G1 X63.47 E0.015
G1 X64.22 Y96.628 E0.026
G1 X63.654 E0.014
G1 X62.904 Y95.878 E0.027
G1 X62.338 E0.014
G1 X63.088 Y96.628 E0.026
G1 X62.523 E0.014
G1 X61.773 Y95.878 E0.027
G1 X61.207 E0.014
G1 X61.957 Y96.628 E0.026
G1 X61.391 E0.014
G1 X60.641 Y95.878 E0.027
G1 X60.076 E0.014
G1 X60.826 Y96.628 E0.026
G1 X60.26 E0.015
G1 X59.51 Y95.878 E0.026
G1 X58.944 E0.014
G1 X59.694 Y96.628 E0.027
G1 X59.129 E0.014
G1 X58.379 Y95.878 E0.026
G1 X57.813 E0.014
G1 X58.563 Y96.628 E0.027
G1 X57.997 E0.014
G1 X57.247 Y95.878 E0.026
G1 X56.682 E0.014
G1 X57.72 Y96.916 E0.037
G1 Y97.482 E0.014
G1 X56.116 Y95.878 E0.057
G1 X55.55 E0.014
G1 X57.72 Y98.048 E0.076
G1 Y98.613 E0.015
G1 X54.985 Y95.878 E0.096
G1 X54.419 E0.014
G1 X57.72 Y99.179 E0.117
G1 Y99.745 E0.014
G1 X54.18 Y96.205 E0.125
G1 Y96.77 E0.014
G1 X57.72 Y100.311 E0.125
G1 Y100.876 E0.014
G1 X54.18 Y97.336 E0.125
G1 Y97.902 E0.014
G1 X57.72 Y101.442 E0.125
G1 Y102.008 E0.014
G1 X54.18 Y98.467 E0.125
G1 Y99.033 E0.014
G1 X57.72 Y102.573 E0.125
G1 Y103.139 E0.014
G1 X54.18 Y99.599 E0.125
G1 Y100.164 E0.014
G1 X57.72 Y103.705 E0.125
G1 Y104.27 E0.014
G1 X54.18 Y100.73 E0.125
G1 Y101.296 E0.014
G1 X57.72 Y104.836 E0.125
G1 Y105.402 E0.014
G1 X54.18 Y101.861 E0.125
G1 Y102.427 E0.014
G1 X57.72 Y105.967 E0.125
G1 Y106.533 E0.014
G1 X54.18 Y102.993 E0.125
G1 Y103.558 E0.014
G1 X57.72 Y107.099 E0.125
G1 Y107.664 E0.014
G1 X54.18 Y104.124 E0.125
G1 Y104.69 E0.014
G1 X57.72 Y108.23 E0.125
G1 Y108.387 E0.003
G1 X57.877 E0.004
G1 X72.608 Y123.118 E0.52
G1 X72.042 E0.014
G1 X54.18 Y105.255 E0.63
G1 Y105.821 E0.014
G1 X71.477 Y123.118 E0.611
G1 X70.911 E0.014
G1 X54.18 Y106.387 E0.59
G1 Y106.952 E0.014
G1 X70.345 Y123.118 E0.57
G1 X69.779 E0.015
G1 X54.18 Y107.518 E0.55
G1 Y108.084 E0.014
G1 X69.214 Y123.118 E0.53
G1 X68.648 E0.014
G1 X54.18 Y108.649 E0.511
G1 Y109.215 E0.014
G1 X68.082 Y123.118 E0.49
G1 X67.517 E0.015
G1 X54.179 Y109.781 E0.47
G1 Y110.346 E0.014
G1 X66.951 Y123.118 E0.451
G1 X66.385 E0.014
G1 X54.179 Y110.912 E0.43
G1 Y111.478 E0.015
G1 X65.82 Y123.118 E0.41
G1 X65.254 E0.014
G1 X54.179 Y112.043 E0.391
G1 Y112.609 E0.014
G1 X64.688 Y123.118 E0.371
G1 X64.123 E0.014
G1 X54.179 Y113.175 E0.351
G1 Y113.74 E0.014
G1 X63.557 Y123.118 E0.331
G1 X62.991 E0.014
G1 X54.179 Y114.306 E0.311
G1 Y114.872 E0.014
G1 X62.426 Y123.118 E0.291
G1 X61.86 E0.014
G1 X54.179 Y115.437 E0.271
G1 Y116.003 E0.014
G1 X61.294 Y123.118 E0.251
G1 X60.729 E0.014
G1 X54.179 Y116.569 E0.231
G1 Y117.134 E0.014
G1 X60.163 Y123.118 E0.211
G1 X59.597 E0.014
G1 X54.179 Y117.7 E0.191
G1 Y118.266 E0.014
G1 X59.031 Y123.118 E0.172
G1 X58.466 E0.014
G1 X54.179 Y118.831 E0.151
G1 Y119.397 E0.014
G1 X57.9 Y123.118 E0.131
G1 X57.334 E0.014
G1 X54.179 Y119.963 E0.112
G1 Y120.528 E0.014
G1 X56.769 Y123.118 E0.091
G1 X56.203 E0.014
G1 X54.179 Y121.094 E0.072
G1 Y121.66 E0.014
G1 X55.637 Y123.118 E0.051
G1 X55.072 E0.014
G1 X54.179 Y122.225 E0.032
G1 Y122.791 E0.014
G1 X54.506 Y123.118 E0.012
G1 F2700 E-7
;rapid-dry
G0 X73.016 Y99.767 F7200
G1 F2700 E7
;bead-solid_infill
G1 X69.127 Y95.878 F1800 E0.137
G1 X69.692 E0.014
G1 X73.016 Y99.202 E0.117
G1 Y98.636 E0.014
G1 X70.258 Y95.878 E0.098
G1 X70.824 E0.014
G1 X73.016 Y98.07 E0.077
G1 Y97.505 E0.014
G1 X71.389 Y95.878 E0.057
G1 X71.955 E0.015
G1 X73.016 Y96.939 E0.037
G1 Y96.373 E0.014
G1 X72.521 Y95.878 E0.018
G1 F2700 E-7
;rapid-dry
G0 X133.502 Y124.8 F7200
G1 F2700 E7
;bead-perimeter_outer
G1 Y124.2 F1800 E0.015
G1 X153.698 E0.503
G1 Y124.8 E0.015
G1 X133.502 E0.504
G1 F2700 E-7
;LAYER:3
M107
;rapid-leaky
G0 X153.848 Z0.5 F7200
G1 F2700 E7
;bead-perimeter_outer
G1 X133.352 F1800 E0.511
G1 Y124.2 E0.015
G1 X153.848 E0.512
G1 Y124.8 E0.015
G1 F2700 E-7
;rapid-dry
G0 X73.846 Y95.198 F7200
G1 F2700 E7
;bead-perimeter_outer
G1 Y123.798 F1800 E0.713
G1 X53.349 E0.511
G1 X53.35 Y95.198 E0.714
G1 X73.846 E0.511
;rapid-leaky
G0 X73.486 Y95.558 F7200
;bead-perimeter_inner
G1 Y123.438 F2400 E0.695
G1 X53.709 E0.494
G1 X53.71 Y95.558 E0.695
G1 X73.486 E0.494
G1 F2700 E-7
;rapid-dry
G0 X68.8 Y97.308 F7200
G1 F2700 E7
;bead-perimeter_outer
G1 X58.4 F1800 E0.259
G1 Y107.707 E0.259
G1 X68.8 Y107.708 E0.26
G1 Y97.308 E0.259
;rapid-leaky
G0 X69.16 Y96.948 F7200
;bead-perimeter_inner
G1 X58.04 F2400 E0.278
G1 Y108.067 E0.277
G1 X69.16 Y108.068 E0.277
G1 Y96.948 E0.278
G1 F2700 E-7
;rapid-dry
G0 X73.166 Y104.807 F7200
G1 F2700 E7
;bead-solid_infill
G1 X54.855 Y123.118 F1800 E0.646
G1 X55.421 E0.014
G1 X73.166 Y105.373 E0.626
G1 Y105.939 E0.014
G1 X55.987 Y123.118 E0.606
G1 X56.552 E0.014
G1 X73.166 Y106.504 E0.586
G1 Y107.07 E0.014
G1 X57.118 Y123.118 E0.567
G1 X57.684 E0.014
G1 X73.166 Y107.636 E0.546
G1 Y108.201 E0.014
G1 X58.249 Y123.118 E0.526
G1 X58.815 E0.014
G1 X73.166 Y108.767 E0.507
G1 Y109.333 E0.014
G1 X59.381 Y123.118 E0.486
G1 X59.946 E0.014
G1 X73.166 Y109.898 E0.466
G1 Y110.464 E0.015
G1 X60.512 Y123.118 E0.446
G1 X61.078 E0.014
G1 X73.166 Y111.03 E0.427
G1 Y111.595 E0.014
G1 X61.643 Y123.118 E0.406
G1 X62.209 E0.014
G1 X73.166 Y112.161 E0.387
G1 Y112.727 E0.014
G1 X62.775 Y123.118 E0.366
G1 X63.34 E0.015
G1 X73.166 Y113.292 E0.346
G1 Y113.858 E0.014
G1 X63.906 Y123.118 E0.327
G1 X64.472 E0.014
G1 X73.166 Y114.424 E0.307
G1 Y114.99 E0.014
G1 X65.038 Y123.118 E0.287
G1 X65.603 E0.014
G1 X73.166 Y115.555 E0.267
G1 Y116.121 E0.014
G1 X66.169 Y123.118 E0.247
G1 X66.735 E0.014
G1 X73.166 Y116.687 E0.227
G1 Y117.252 E0.014
G1 X67.3 Y123.118 E0.207
G1 X67.866 E0.014
G1 X73.166 Y117.818 E0.187
G1 Y118.384 E0.014
G1 X68.432 Y123.118 E0.167
G1 X68.997 E0.014
G1 X73.166 Y118.949 E0.147
G1 Y119.515 E0.014
G1 X69.563 Y123.118 E0.127
G1 X70.129 E0.014
G1 X73.166 Y120.081 E0.107
G1 Y120.646 E0.015
G1 X70.694 Y123.118 E0.087
G1 X71.26 E0.014
G1 X73.166 Y121.212 E0.067
G1 Y121.778 E0.014
G1 X71.826 Y123.118 E0.047
G1 X72.391 E0.015
G1 X73.166 Y122.343 E0.027
G1 Y122.909 E0.014
G1 X72.957 Y123.118 E0.007
G1 F2700 E-7
;rapid-dry
G0 X54.03 Y100.75 F7200
G1 F2700 E7
;bead-solid_infill
G1 X57.72 Y97.06 F1800 E0.131
G1 Y97.626 E0.014
G1 X54.03 Y101.316 E0.13
G1 Y101.882 E0.014
G1 X57.72 Y98.191 E0.13
G1 Y98.757 E0.014
G1 X54.03 Y102.447 E0.13
G1 Y103.013 E0.015
G1 X57.72 Y99.323 E0.13
G1 Y99.888 E0.014
G1 X54.03 Y103.579 E0.13
G1 Y104.145 E0.014
G1 X57.72 Y100.454 E0.13
G1 Y101.02 E0.014
G1 X54.03 Y104.71 E0.131
G1 Y105.276 E0.014
G1 X57.72 Y101.586 E0.13
G1 Y102.151 E0.014
G1 X54.03 Y105.842 E0.13
G1 Y106.407 E0.014
G1 X57.72 Y102.717 E0.131
G1 Y103.283 E0.014
G1 X54.03 Y106.973 E0.13
G1 Y107.539 E0.014
G1 X57.72 Y103.848 E0.13
G1 Y104.414 E0.014
G1 X54.03 Y108.104 E0.13
G1 Y108.67 E0.015
G1 X57.72 Y104.98 E0.13
G1 Y105.545 E0.014
G1 X54.03 Y109.236 E0.13
G1 X54.029 Y109.498 E0.007
G1 Y109.802 E0.007
G1 X57.72 Y106.111 E0.13
G1 Y106.677 E0.014
G1 X54.029 Y110.367 E0.131
G1 Y110.933 E0.014
G1 X57.72 Y107.242 E0.13
G1 Y107.808 E0.014
G1 X54.029 Y111.499 E0.13
G1 Y112.064 E0.014
G1 X57.72 Y108.374 E0.131
G1 Y108.387
G1 X58.272 E0.014
G1 X54.029 Y112.63 E0.149
G1 Y113.196 E0.015
G1 X58.838 Y108.387 E0.169
G1 X59.404 E0.014
G1 X54.029 Y113.761 E0.19
G1 Y114.327 E0.014
G1 X59.969 Y108.387 E0.21
G1 X60.535 E0.014
G1 X54.029 Y114.893 E0.229
G1 Y115.459 E0.014
G1 X61.101 Y108.387 E0.25
G1 X61.666 E0.014
G1 X54.029 Y116.024 E0.269
G1 Y116.59 E0.014
G1 X62.232 Y108.387 E0.29
G1 X62.798 E0.014
G1 X54.029 Y117.156 E0.309
G1 Y117.721 E0.014
G1 X63.363 Y108.387 E0.33
G1 X63.929 Y108.388 E0.014
G1 X54.029 Y118.287 E0.349
G1 Y118.853 E0.014
G1 X64.494 Y108.388 E0.369
G1 X65.06 E0.014
G1 X54.029 Y119.419 E0.389
G1 Y119.984 E0.015
G1 X65.626 Y108.388 E0.409
G1 X66.191 E0.014
G1 X54.029 Y120.55 E0.429
G1 Y121.116 E0.014
G1 X66.757 Y108.388 E0.449
G1 X67.323 E0.014
G1 X54.029 Y121.681 E0.469
G1 Y122.247 E0.014
G1 X67.888 Y108.388 E0.489
G1 X68.454 E0.014
G1 X54.029 Y122.813 E0.509
G1 Y123.118 E0.008
G1 X54.289 E0.006
G1 X69.019 Y108.388 E0.52
G1 X69.48 E0.011
G1 Y107.927 E0.012
G1 X73.166 Y104.241 E0.13
G1 Y103.676 E0.014
G1 X69.48 Y107.362 E0.13
G1 Y106.796 E0.014
G1 X73.166 Y103.11 E0.13
G1 Y102.544 E0.014
G1 X69.48 Y106.23 E0.13
G1 Y105.665 E0.014
G1 X73.166 Y101.979 E0.13
G1 Y101.413 E0.014
G1 X69.48 Y105.099 E0.131
G1 Y104.533 E0.014
G1 X73.166 Y100.847 E0.13
G1 Y100.282 E0.014
G1 X69.48 Y103.968 E0.13
G1 Y103.402 E0.014
G1 X73.166 Y99.716 E0.13
G1 Y99.15 E0.014
G1 X69.48 Y102.836 E0.13
G1 Y102.271 E0.014
G1 X73.166 Y98.585 E0.13
G1 Y98.019 E0.014
G1 X69.48 Y101.705 E0.13
G1 Y101.139 E0.014
G1 X73.166 Y97.453 E0.131
G1 Y96.888 E0.014
G1 X69.48 Y100.574 E0.13
G1 Y100.008 E0.014
G1 X73.166 Y96.322 E0.13
G1 Y95.878 E0.011
G1 X73.044 E0.003
G1 X69.48 Y99.442 E0.126
G1 Y98.877 E0.014
G1 X72.479 Y95.878 E0.106
G1 X71.913 E0.014
G1 X69.48 Y98.311 E0.085
G1 Y97.745 E0.015
G1 X71.347 Y95.878 E0.065
G1 X70.781 E0.015
G1 X69.48 Y97.179 E0.045
G1 Y96.628 E0.014
G1 X69.466 E0.001
G1 X70.216 Y95.878 E0.026
G1 X69.65 E0.014
G1 X68.9 Y96.628 E0.027
G1 X68.334 E0.014
G1 X69.084 Y95.878 E0.026
G1 X68.519 E0.014
G1 X67.769 Y96.628 E0.027
G1 X67.203 E0.014
G1 X67.953 Y95.878 E0.026
G1 X67.387 E0.014
G1 X66.637 Y96.628 E0.027
G1 X66.072 E0.014
G1 X66.822 Y95.878 E0.026
G1 X66.256 E0.015
G1 X65.506 Y96.628 E0.026
G1 X64.94 E0.014
G1 X65.69 Y95.878 E0.027
G1 X65.125 E0.014
G1 X64.375 Y96.628 E0.026
G1 X63.809 E0.014
G1 X64.559 Y95.878 E0.027
G1 X63.993 E0.014
G1 X63.243 Y96.628 E0.026
G1 X62.678 E0.014
G1 X63.428 Y95.878 E0.027
G1 X62.862 E0.014
G1 X62.112 Y96.628 E0.026
G1 X61.546 E0.015
G1 X62.296 Y95.878 E0.026
G1 X61.73 E0.014
G1 X60.98 Y96.628 E0.027
G1 X60.415 E0.014
G1 X61.165 Y95.878 E0.026
G1 X60.599 E0.014
G1 X59.849 Y96.628 E0.027
G1 X59.283 E0.014
G1 X60.033 Y95.878 E0.026
G1 X59.468 E0.014
G1 X58.718 Y96.628 E0.027
G1 X58.152 E0.014
G1 X58.902 Y95.878 E0.026
G1 X58.336 E0.015
G1 X54.03 Y100.185 E0.151
G1 Y99.619 E0.015
G1 X57.771 Y95.878 E0.132
G1 X57.205 E0.014
G1 X54.03 Y99.053 E0.112
G1 Y98.487 E0.014
G1 X56.639 Y95.878 E0.092
G1 X56.074 E0.014
G1 X54.03 Y97.922 E0.072
G1 Y97.356 E0.014
G1 X55.508 Y95.878 E0.052
G1 X54.942 E0.014
G1 X54.03 Y96.79 E0.033
G1 Y96.225 E0.014
G1 X54.377 Y95.878 E0.012
G1 F2700 E-7
;LAYER:4
M106 S255
;rapid-leaky
G0 X53.2 Y95.198 Z0.65 F7200
G1 F2700 E7
;bead-perimeter_outer
G1 X73.996 F1800 E0.519
G1 Y123.798 E0.713
G1 X53.199 E0.519
G1 X53.2 Y95.198 E0.713
;rapid-leaky
G0 X53.56 Y95.558 F7200
;bead-perimeter_inner
G1 X73.636 F2400 E0.501
G1 Y123.438 E0.696
G1 X53.559 E0.5
G1 X53.56 Y95.558 E0.696
;rapid-leaky
G0 X58.4 Y107.707 F7200
;bead-perimeter_outer
G1 X68.8 Y107.708 F1800 E0.259
G1 Y97.308 E0.26
G1 X58.4 E0.259
G1 Y107.707 E0.26
;rapid-leaky
G0 X58.04 Y108.067 F7200
;bead-perimeter_inner
G1 X69.16 Y108.068 F2400 E0.277
G1 Y96.948 E0.277
G1 X58.04 E0.278
G1 Y108.067 E0.277
;rapid-leaky
G0 X53.879 Y120.29 F7200
;bead-sparse_infill
G1 X54.222 Y119.565 F3600 E0.02
G1 X53.992 Y118.497 E0.027
G1 X53.879 Y118.324 E0.006
G1 Y111.744 E0.164
G1 X54.222 Y111.02 E0.02
G1 X53.992 Y109.952 E0.027
G1 X53.879 Y109.779 E0.005
G1 X53.88 Y103.199 E0.164
G1 X54.222 Y102.475 E0.02
G1 X53.992 Y101.407 E0.027
G1 X53.88 Y101.235 E0.006
G1 Y95.878 E0.133
G1 X55.771 E0.047
G1 X55.682 Y96.066 E0.006
G1 X55.911 Y97.134 E0.027
G1 X56.61 Y98.202 E0.032
G1 X57.72 Y99.062 E0.035
G1 Y102.24 E0.079
G1 X57.566 Y102.475 E0.007
G1 X56.187 Y103.543 E0.043
G1 X55.682 Y104.611 E0.03
G1 X55.911 Y105.679 E0.027
G1 X56.61 Y106.748 E0.032
G1 X57.72 Y107.607 E0.035
G1 Y108.387 E0.02
G1 X58.26 E0.013
G1 X58.495 Y108.884 E0.014
G1 X58.265 Y109.952 E0.027
G1 X57.566 Y111.02 E0.032
G1 X56.187 Y112.088 E0.043
G1 X55.682 Y113.156 E0.03
G1 X55.911 Y114.225 E0.027
G1 X56.61 Y115.293 E0.032
G1 X57.989 Y116.361 E0.043
G1 X58.495 Y117.429 E0.03
G1 X58.265 Y118.497 E0.027
G1 X57.566 Y119.565 E0.032
G1 X56.187 Y120.633 E0.043
G1 X55.682 Y121.702 E0.03
G1 X55.911 Y122.77 E0.027
G1 X56.139 Y123.118 E0.011
G1 X60.109 E0.099
G1 X60.184 Y122.77 E0.008
G1 X60.883 Y121.702 E0.032
G1 X62.262 Y120.633 E0.044
G1 X62.767 Y119.565 E0.029
G1 X62.538 Y118.497 E0.028
G1 X61.839 Y117.429 E0.031
G1 X60.46 Y116.361 E0.044
G1 X59.954 Y115.293 E0.029
G1 X60.184 Y114.225 E0.028
G1 X60.883 Y113.156 E0.032
G1 X62.262 Y112.088 E0.043
G1 X62.767 Y111.02 E0.03
G1 X62.538 Y109.952 E0.027
G1 X61.839 Y108.884 E0.032
G1 X61.198 Y108.387 E0.02
G1 X66.805 Y108.388 E0.14
G1 X67.04 Y108.884 E0.013
G1 X66.81 Y109.952 E0.028
G1 X66.112 Y111.02 E0.031
G1 X64.732 Y112.088 E0.044
G1 X64.227 Y113.156 E0.029
G1 X64.457 Y114.225 E0.028
G1 X65.155 Y115.293 E0.032
G1 X66.534 Y116.361 E0.043
G1 X67.04 Y117.429 E0.03
G1 X66.81 Y118.497 E0.027
G1 X66.112 Y119.565 E0.032
G1 X64.732 Y120.633 E0.043
G1 X64.227 Y121.702 E0.03
G1 X64.457 Y122.77 E0.027
G1 X64.684 Y123.118 E0.01
G1 X68.654 E0.099
G1 X68.729 Y122.77 E0.009
G1 X69.428 Y121.702 E0.032
G1 X70.807 Y120.633 E0.044
G1 X71.312 Y119.565 E0.029
G1 X71.083 Y118.497 E0.027
G1 X70.384 Y117.429 E0.032
G1 X69.005 Y116.361 E0.044
G1 X68.5 Y115.293 E0.029
G1 X68.729 Y114.225 E0.027
G1 X69.428 Y113.156 E0.032
G1 X70.807 Y112.088 E0.044
G1 X71.312 Y111.02 E0.029
G1 X71.083 Y109.952 E0.027
G1 X70.384 Y108.884 E0.032
G1 X69.48 Y108.184 E0.029
G1 Y104.571 E0.09
G1 X70.807 Y103.543 E0.042
G1 X71.312 Y102.475 E0.029
G1 X71.083 Y101.407 E0.028
G1 X70.384 Y100.339 E0.031
G1 X69.48 Y99.639 E0.029
G1 Y96.628 E0.075
G1 X69.06 E0.01
G1 X69.428 Y96.066 E0.017
G1 X69.671 Y95.878 E0.008
G1 X72.861 E0.079
G1 X72.772 Y96.066 E0.006
G1 X73.002 Y97.134 E0.027
G1 X73.316 Y97.615 E0.014
G1 Y103.513 E0.147
G1 X73.277 Y103.543 E0.002
G1 X72.772 Y104.611 E0.029
G1 X73.002 Y105.679 E0.027
G1 X73.316 Y106.16 E0.015
G1 Y112.058 E0.147
G1 X73.277 Y112.088 E0.001
G1 X72.772 Y113.156 E0.029
G1 X73.002 Y114.225 E0.028
G1 X73.316 Y114.705 E0.014
G1 Y120.604 E0.147
G1 X73.277 Y120.633 E0.001
G1 X72.772 Y121.702 E0.03
G1 X73.002 Y122.77 E0.027
G1 X73.23 Y123.118 E0.011
G1 F2700 E-7
;rapid-dry
G0 X60.515 Y96.628 F7200
G1 F2700 E7
;bead-sparse_infill
G1 X60.883 Y96.066 F3600 E0.016
G1 X61.126 Y95.878 E0.008
G1 X64.316 E0.08
G1 X64.227 Y96.066 E0.005
G1 X64.348 Y96.628 E0.014
G1 F2700 E-7
;rapid-dry
G0 X153.998 Y124.8 F7200
G1 F2700 E7
;bead-perimeter_outer
G1 X133.202 F1800 E0.519
G1 Y124.2 E0.015
G1 X153.998 E0.519
G1 Y124.8 E0.014
G1 F2700 E-7
;LAYER:5
;rapid-dry
G0 X154.148 Y124.2 Z0.8 F7200
G1 F2700 E7
;bead-perimeter_outer
G1 Y124.8 F1800 E0.015
G1 X133.052 E0.527
G1 Y124.2 E0.015
G1 X154.148 E0.526
G1 F2700 E-7
;rapid-dry
G0 X74.146 Y95.198 F7200
G1 F2700 E7
;bead-perimeter_outer
G1 Y123.798 F1800 E0.713
G1 X53.049 E0.527
G1 X53.05 Y95.198 E0.713
G1 X74.146 E0.526
;rapid-leaky
G0 X73.786 Y95.558 F7200
;bead-perimeter_inner
G1 Y123.438 F2400 E0.696
G1 X53.409 E0.508
G1 X53.41 Y95.558 E0.696
G1 X73.786 E0.508
;rapid-leaky
G0 X68.8 Y107.708 F7200
;bead-perimeter_outer
G1 Y97.308 F1800 E0.259
G1 X58.4 E0.26
G1 Y107.707 E0.259
G1 X68.8 Y107.708 E0.259
;rapid-leaky
G0 X69.16 Y108.068 F7200
;bead-perimeter_inner
G1 Y96.948 F2400 E0.278
G1 X58.04 E0.277
G1 Y108.067 E0.278
G1 X69.16 Y108.068 E0.277
G1 F2700 E-7
;rapid-dry
G0 X64.244 Y96.628 F7200
G1 F2700 E7
;bead-sparse_infill
G1 X64.065 Y96.066 F3600 E0.015
G1 X64.127 Y95.878 E0.005
G1 X61.229 E0.072
G1 X60.942 Y96.066 E0.009
G1 X60.516 Y96.628 E0.017
G1 F2700 E-7
;rapid-dry
G0 X53.729 Y120.83 F7200
G1 F2700 E7
;bead-sparse_infill
G1 X54.03 Y120.633 F3600 E0.009
G1 X54.384 Y119.565 E0.028
G1 X54.044 Y118.497 E0.028
G1 X53.729 Y118.082 E0.013
G1 Y112.285 E0.145
G1 X54.03 Y112.088 E0.009
G1 X54.384 Y111.02 E0.028
G1 X54.044 Y109.952 E0.028
G1 X53.73 Y109.537 E0.013
G1 Y103.74 E0.144
G1 X54.03 Y103.543 E0.009
G1 X54.384 Y102.475 E0.028
G1 X54.044 Y101.407 E0.028
G1 X53.73 Y100.992 E0.013
G1 Y95.878 E0.128
G1 X55.582 E0.046
G1 X55.52 Y96.066 E0.005
G1 X55.86 Y97.134 E0.028
G1 X56.669 Y98.202 E0.033
G1 X57.72 Y98.89 E0.032
G1 Y102.194 E0.082
G1 X57.507 Y102.475 E0.009
G1 X55.874 Y103.543 E0.049
G1 X55.52 Y104.611 E0.028
G1 X55.86 Y105.679 E0.028
G1 X56.669 Y106.748 E0.033
G1 X57.72 Y107.435 E0.031
G1 Y108.387 E0.024
G1 X58.492 E0.019
G1 X58.657 Y108.884 E0.013
G1 X58.316 Y109.952 E0.028
G1 X57.507 Y111.02 E0.034
G1 X55.874 Y112.088 E0.049
G1 X55.52 Y113.156 E0.028
G1 X55.86 Y114.225 E0.028
G1 X56.669 Y115.293 E0.033
G1 X58.303 Y116.361 E0.049
G1 X58.657 Y117.429 E0.028
G1 X58.316 Y118.497 E0.028
G1 X57.507 Y119.565 E0.033
G1 X55.874 Y120.633 E0.049
G1 X55.52 Y121.702 E0.028
G1 X55.86 Y122.77 E0.028
G1 X56.124 Y123.118 E0.011
G1 X60.022 E0.097
G1 X60.133 Y122.77 E0.009
G1 X60.942 Y121.702 E0.034
G1 X62.575 Y120.633 E0.048
G1 X62.929 Y119.565 E0.028
G1 X62.589 Y118.497 E0.028
G1 X61.78 Y117.429 E0.034
G1 X60.146 Y116.361 E0.048
G1 X59.792 Y115.293 E0.028
G1 X60.133 Y114.225 E0.028
G1 X60.942 Y113.156 E0.034
G1 X62.575 Y112.088 E0.049
G1 X62.929 Y111.02 E0.028
G1 X62.589 Y109.952 E0.028
G1 X61.78 Y108.884 E0.033
G1 X61.02 Y108.387 E0.023
G1 X67.038 Y108.388 E0.15
G1 X67.202 Y108.884 E0.013
G1 X66.861 Y109.952 E0.028
G1 X66.052 Y111.02 E0.033
G1 X64.419 Y112.088 E0.049
G1 X64.065 Y113.156 E0.028
G1 X64.406 Y114.225 E0.028
G1 X65.214 Y115.293 E0.033
G1 X66.848 Y116.361 E0.049
G1 X67.202 Y117.429 E0.028
G1 X66.861 Y118.497 E0.028
G1 X66.052 Y119.565 E0.033
G1 X64.419 Y120.633 E0.049
G1 X64.065 Y121.702 E0.028
G1 X64.406 Y122.77 E0.028
G1 X64.669 Y123.118 E0.011
G1 X68.567 E0.097
G1 X68.678 Y122.77 E0.009
G1 X69.487 Y121.702 E0.034
G1 X71.12 Y120.633 E0.049
G1 X71.475 Y119.565 E0.028
G1 X71.134 Y118.497 E0.028
G1 X70.325 Y117.429 E0.033
G1 X68.692 Y116.361 E0.049
G1 X68.337 Y115.293 E0.028
G1 X68.678 Y114.225 E0.028
G1 X69.487 Y113.156 E0.033
G1 X71.12 Y112.088 E0.049
G1 X71.475 Y111.02 E0.028
G1 X71.134 Y109.952 E0.028
G1 X70.325 Y108.884 E0.033
G1 X69.48 Y108.331 E0.025
G1 Y104.62 E0.093
G1 X69.487 Y104.611
G1 X71.12 Y103.543 E0.049
G1 X71.475 Y102.475 E0.028
G1 X71.134 Y101.407 E0.028
G1 X70.325 Y100.339 E0.033
G1 X69.48 Y99.786 E0.026
G1 Y96.628 E0.078
G1 X69.061 E0.011
G1 X69.487 Y96.066 E0.017
G1 X69.775 Y95.878 E0.009
G1 X72.672 E0.072
G1 X72.61 Y96.066 E0.005
G1 X72.951 Y97.134 E0.028
G1 X73.466 Y97.815 E0.022
G1 Y103.215 E0.134
G1 X72.964 Y103.543 E0.015
G1 X72.61 Y104.611 E0.028
G1 X72.951 Y105.679 E0.028
G1 X73.466 Y106.36 E0.022
G1 Y111.76 E0.134
G1 X72.964 Y112.088 E0.015
G1 X72.61 Y113.156 E0.028
G1 X72.951 Y114.225 E0.028
G1 X73.466 Y114.905 E0.022
G1 Y120.305 E0.134
G1 X72.964 Y120.633 E0.015
G1 X72.61 Y121.702 E0.028
G1 X72.951 Y122.77 E0.028
G1 X73.214 Y123.118 E0.011
G1 F2700 E-7
;LAYER:6
;rapid-dry
G0 X58.4 Y97.308 Z0.95 F7200
G1 F2700 E7
;bead-perimeter_outer
G1 Y107.707 F1800 E0.26
G1 X68.8 Y107.708 E0.259
G1 Y97.308 E0.259
G1 X58.4 E0.26
;rapid-leaky
G0 X58.04 Y96.948 F7200
;bead-perimeter_inner
G1 Y108.067 F2400 E0.277
G1 X69.16 Y108.068 E0.278
G1 Y96.948 E0.277
G1 X58.04 E0.277
;rapid-leaky
G0 X52.9 Y95.198 F7200
;bead-perimeter_outer
G1 X74.296 F1800 E0.534
G1 Y123.798 E0.714
G1 X52.899 E0.533
G1 X52.9 Y95.198 E0.714
;rapid-leaky
G0 X53.26 Y95.558 F7200
;bead-perimeter_inner
G1 X73.936 F2400 E0.515
G1 Y123.438 E0.696
G1 X53.259 E0.516
G1 X53.26 Y95.558 E0.695
;rapid-leaky
G0 X53.58 Y100.801 F7200
;bead-sparse_infill
G1 X54.106 Y101.407 F3600 E0.02
G1 X54.571 Y102.475 E0.029
G1 X54.639 Y103.543 E0.027
G1 X53.58 Y104.061 E0.029
G1 Y109.345 E0.132
G1 X54.106 Y109.952 E0.02
G1 X54.571 Y111.02 E0.029
G1 X54.639 Y112.088 E0.027
G1 X53.579 Y112.606 E0.029
G1 Y117.89 E0.132
G1 X54.106 Y118.497 E0.02
G1 X54.571 Y119.565 E0.029
G1 X54.639 Y120.633 E0.027
G1 X53.579 Y121.151 E0.029
G1 Y123.118 E0.05
G1 X56.1 E0.062
G1 X55.797 Y122.77 E0.012
G1 X55.333 Y121.702 E0.029
G1 X55.265 Y120.633 E0.027
G1 X57.451 Y119.565 E0.06
G1 X58.379 Y118.497 E0.036
G1 X58.844 Y117.429 E0.029
G1 X58.912 Y116.361 E0.026
G1 X56.726 Y115.293 E0.061
G1 X55.797 Y114.225 E0.035
G1 X55.333 Y113.156 E0.03
G1 X55.265 Y112.088 E0.026
G1 X57.451 Y111.02 E0.061
G1 X58.379 Y109.952 E0.035
G1 X58.844 Y108.884 E0.029
G1 X58.875 Y108.387 E0.013
G1 X57.72 E0.029
G1 Y107.233 E0.028
G1 X56.726 Y106.748 E0.028
G1 X55.797 Y105.679 E0.035
G1 X55.333 Y104.611 E0.029
G1 X55.265 Y103.543 E0.027
G1 X57.451 Y102.475 E0.061
G1 X57.72 Y102.165 E0.01
G1 Y98.688 E0.087
G1 X56.726 Y98.202 E0.027
G1 X55.797 Y97.134 E0.036
G1 X55.333 Y96.066 E0.029
G1 X55.321 Y95.878 E0.004
G1 X61.383 E0.152
G1 X60.998 Y96.066 E0.01
G1 X60.51 Y96.628 E0.019
G1 X64.122 E0.09
G1 X63.878 Y96.066 E0.015
G1 X63.866 Y95.878 E0.005
G1 X69.928 E0.151
G1 X69.543 Y96.066 E0.011
G1 X69.055 Y96.628 E0.018
G1 X69.48 E0.011
G1 Y99.953 E0.083
G1 X70.269 Y100.339 E0.022
G1 X71.197 Y101.407 E0.035
G1 X71.662 Y102.475 E0.029
G1 X71.729 Y103.543 E0.027
G1 X69.543 Y104.611 E0.061
G1 X69.48 Y104.684 E0.002
G1 Y108.388 E0.092
G1 X69.254 E0.006
G1 X70.269 Y108.884 E0.028
G1 X71.197 Y109.952 E0.035
G1 X71.662 Y111.02 E0.03
G1 X71.729 Y112.088 E0.026
G1 X69.543 Y113.156 E0.061
G1 X68.615 Y114.225 E0.035
G1 X68.15 Y115.293 E0.029
G1 X68.082 Y116.361 E0.027
G1 X70.269 Y117.429 E0.061
G1 X71.197 Y118.497 E0.035
G1 X71.662 Y119.565 E0.029
G1 X71.729 Y120.633 E0.027
G1 X69.543 Y121.702 E0.06
G1 X68.615 Y122.77 E0.036
G1 X68.464 Y123.118 E0.009
G1 X64.645 E0.095
G1 X64.343 Y122.77 E0.012
G1 X63.878 Y121.702 E0.029
G1 X63.81 Y120.633 E0.027
G1 X65.996 Y119.565 E0.06
G1 X66.924 Y118.497 E0.036
G1 X67.389 Y117.429 E0.029
G1 X67.457 Y116.361 E0.026
G1 X65.271 Y115.293 E0.061
G1 X64.343 Y114.225 E0.035
G1 X63.878 Y113.156 E0.03
G1 X63.81 Y112.088 E0.026
G1 X65.996 Y111.02 E0.061
G1 X66.924 Y109.952 E0.035
G1 X67.389 Y108.884 E0.029
G1 X67.421 Y108.388 E0.013
G1 X60.707 Y108.387 E0.167
G1 X61.724 Y108.884 E0.028
G1 X62.652 Y109.952 E0.036
G1 X63.117 Y111.02 E0.029
G1 X63.184 Y112.088 E0.026
G1 X60.998 Y113.156 E0.061
G1 X60.07 Y114.225 E0.035
G1 X59.605 Y115.293 E0.029
G1 X59.537 Y116.361 E0.027
G1 X61.724 Y117.429 E0.061
G1 X62.652 Y118.497 E0.035
G1 X63.117 Y119.565 E0.029
G1 X63.184 Y120.633 E0.027
G1 X60.998 Y121.702 E0.061
G1 X60.07 Y122.77 E0.035
G1 X59.918 Y123.118 E0.009
;rapid-leaky
G0 X73.19 F7200
;bead-sparse_infill
G1 X72.888 Y122.77 F3600 E0.012
G1 X72.423 Y121.702 E0.029
G1 X72.355 Y120.633 E0.027
G1 X73.616 Y120.017 E0.035
G1 Y115.063 E0.123
G1 X72.888 Y114.225 E0.028
G1 X72.423 Y113.156 E0.029
G1 X72.355 Y112.088 E0.027
G1 X73.616 Y111.472 E0.035
G1 Y106.518 E0.123
G1 X72.888 Y105.679 E0.028
G1 X72.423 Y104.611 E0.029
G1 X72.355 Y103.543 E0.027
G1 X73.616 Y102.927 E0.035
G1 Y97.972 E0.123
G1 X72.888 Y97.134 E0.028
G1 X72.423 Y96.066 E0.029
G1 X72.411 Y95.878 E0.005
G1 F2700 E-7
;rapid-dry
G0 X154.298 Y124.8 F7200
G1 F2700 E7
;bead-perimeter_outer
G1 X132.902 F1800 E0.534
G1 Y124.2 E0.015
G1 X154.298 E0.533
G1 Y124.8 E0.015
G1 F2700 E-7
;LAYER:7
;rapid-dry
G0 X132.752 Y124.2 Z1.1 F7200
G1 F2700 E7
;bead-perimeter_outer
G1 X154.448 F1800 E0.541
G1 Y124.8 E0.015
G1 X132.752 E0.542
G1 Y124.2 E0.015
G1 F2700 E-7
;rapid-dry
G0 X74.446 Y95.198 F7200
G1 F2700 E7
;bead-perimeter_outer
G1 Y123.798 F1800 E0.713
G1 X52.749 E0.541
G1 X52.75 Y95.198 E0.714
G1 X74.446 E0.541
;rapid-leaky
G0 X74.086 Y95.558 F7200
;bead-perimeter_inner
G1 Y123.438 F2400 E0.695
G1 X53.109 E0.524
G1 X53.11 Y95.558 E0.695
G1 X74.086 E0.523
;rapid-leaky
G0 X68.8 Y97.308 F7200
;bead-perimeter_outer
G1 X58.4 F1800 E0.26
G1 Y107.707 E0.259
G1 X68.8 Y107.708 E0.26
G1 Y97.308 E0.259
;rapid-leaky
G0 X69.16 Y96.948 F7200
;bead-perimeter_inner
G1 X58.04 F2400 E0.277
G1 Y108.067 E0.278
G1 X69.16 Y108.068 E0.277
G1 Y96.948 E0.278
G1 F2700 E-7
;rapid-dry
G0 X57.72 Y107.14 F7200
G1 F2700 E7
;bead-sparse_infill
G1 X57.088 Y106.921 F3600 E0.016
G1 X56.02 Y106.085 E0.034
G1 X54.952 Y104.365 E0.051
G1 X53.884 Y104.068 E0.027
G1 X53.43 Y104.225 E0.012
G1 Y100.646 E0.09
G1 X53.884 Y101.002 E0.014
G1 X54.952 Y102.721 E0.05
G1 X56.02 Y103.018 E0.028
G1 X57.088 Y102.649 E0.028
G1 X57.72 Y102.154 E0.02
G1 X54.988 Y95.878 E0.171
G1 X56.02 Y97.539 E0.049
G1 X57.088 Y98.376 E0.034
G1 X57.72 Y98.595 E0.016
G1 Y96.628 E0.049
G1 X60.422 E0.068
G1 X61.361 Y95.892 E0.03
G1 X61.402 Y95.878 E0.001
G1 X63.533 E0.053
G1 X63.999 Y96.628 E0.022
G1 X68.967 E0.124
G1 X69.906 Y95.892 E0.029
G1 X69.947 Y95.878 E0.002
G1 X72.078 E0.053
G1 X73.11 Y97.539 E0.049
G1 X73.766 Y98.053 E0.02
G1 Y102.791 E0.118
G1 X73.11 Y103.018 E0.018
G1 X72.042 Y102.721 E0.027
G1 X70.974 Y101.002 E0.051
G1 X69.906 Y100.165 E0.034
G1 X69.48 Y100.018 E0.011
G1 Y104.771 E0.119
G1 X69.906 Y104.437 E0.013
G1 X70.974 Y104.068 E0.028
G1 X72.042 Y104.365 E0.028
G1 X73.11 Y106.085 E0.05
G1 X73.766 Y106.598 E0.021
G1 Y111.337 E0.118
G1 X73.11 Y111.563 E0.018
G1 X72.042 Y111.266 E0.027
G1 X70.974 Y109.547 E0.051
G1 X69.906 Y108.71 E0.034
G1 X68.975 Y108.388 E0.024
G1 X68.668 E0.008
G1 X67.77 Y108.638 E0.023
G1 X66.702 Y110.357 E0.051
G1 X65.633 Y111.194 E0.034
G1 X64.565 Y111.563 E0.028
G1 X63.497 Y111.266 E0.027
G1 X62.429 Y109.547 E0.051
G1 X61.361 Y108.71 E0.034
G1 X60.427 Y108.387 E0.024
G1 X60.125 E0.008
G1 X59.225 Y108.638 E0.023
G1 X58.156 Y110.357 E0.051
G1 X57.088 Y111.194 E0.034
G1 X56.02 Y111.563 E0.028
G1 X54.952 Y111.266 E0.027
G1 X53.884 Y109.547 E0.051
G1 X53.43 Y109.191 E0.014
G1 X53.429 Y112.77 E0.09
G1 X53.884 Y112.613 E0.012
G1 X54.952 Y112.911 E0.027
G1 X56.02 Y114.63 E0.051
G1 X57.088 Y115.467 E0.034
G1 X58.156 Y115.836 E0.028
G1 X59.225 Y115.539 E0.027
G1 X60.293 Y113.819 E0.051
G1 X61.361 Y112.983 E0.034
G1 X62.429 Y112.613 E0.028
G1 X63.497 Y112.911 E0.028
G1 X64.565 Y114.63 E0.05
G1 X65.633 Y115.467 E0.034
G1 X66.702 Y115.836 E0.028
G1 X67.77 Y115.539 E0.028
G1 X68.838 Y113.819 E0.05
G1 X69.906 Y112.983 E0.034
G1 X70.974 Y112.613 E0.028
G1 X72.042 Y112.911 E0.028
G1 X73.11 Y114.63 E0.051
G1 X73.766 Y115.143 E0.02
G1 Y119.882 E0.118
G1 X73.11 Y120.109 E0.018
G1 X72.042 Y119.811 E0.027
G1 X70.974 Y118.092 E0.051
G1 X69.906 Y117.255 E0.034
G1 X68.838 Y116.886 E0.028
G1 X67.77 Y117.183 E0.028
G1 X66.702 Y118.902 E0.05
G1 X65.633 Y119.739 E0.034
G1 X64.565 Y120.109 E0.028
G1 X63.497 Y119.811 E0.028
G1 X62.429 Y118.092 E0.05
G1 X61.361 Y117.255 E0.034
G1 X60.293 Y116.886 E0.028
G1 X59.225 Y117.183 E0.028
G1 X58.156 Y118.902 E0.051
G1 X57.088 Y119.739 E0.033
G1 X56.02 Y120.109 E0.029
G1 X54.952 Y119.811 E0.027
G1 X53.884 Y118.092 E0.051
G1 X53.429 Y117.736 E0.014
G1 Y121.316 E0.089
G1 X53.884 Y121.158 E0.012
G1 X54.952 Y121.456 E0.028
G1 X55.985 Y123.118 E0.049
G1 X59.825 E0.096
G1 X60.293 Y122.364 E0.022
G1 X61.361 Y121.528 E0.034
G1 X62.429 Y121.158 E0.028
G1 X63.497 Y121.456 E0.027
G1 X64.53 Y123.118 E0.049
G1 X68.37 E0.096
G1 X68.838 Y122.364 E0.022
G1 X69.906 Y121.528 E0.034
G1 X70.974 Y121.158 E0.028
G1 X72.042 Y121.456 E0.028
G1 X73.075 Y123.118 E0.049
G1 F2700 E-7
;LAYER:8
;rapid-leaky
G0 X68.8 Y97.308 Z1.25 F7200
G1 F2700 E7
;bead-perimeter_outer
G1 X58.4 F1800 E0.259
G1 Y107.707 E0.26
G1 X68.8 Y107.708 E0.259
G1 Y97.308 E0.259
;rapid-leaky
G0 X69.16 Y96.948 F7200
;bead-perimeter_inner
G1 X58.04 F2400 E0.278
G1 Y108.067 E0.277
G1 X69.16 Y108.068 E0.278
G1 Y96.948 E0.277
;rapid-leaky
G0 X74.596 Y95.198 F7200
;bead-perimeter_outer
G1 Y123.798 F1800 E0.713
G1 X52.599 E0.549
G1 X52.6 Y95.198 E0.714
G1 X74.596 E0.548
;rapid-leaky
G0 X74.236 Y95.558 F7200
;bead-perimeter_inner
G1 Y123.438 F2400 E0.696
G1 X52.959 E0.53
G1 X52.96 Y95.558 E0.696
G1 X74.236 E0.531
;rapid-leaky
G0 X71.394 Y95.878 F7200
;bead-sparse_infill
G1 X72.042 Y96.167 F3600 E0.017
G1 X73.11 Y97.598 E0.045
G1 X73.916 Y98.144 E0.024
G1 Y102.658 E0.113
G1 X73.11 Y102.85 E0.02
G1 X72.042 Y102.374 E0.03
G1 X70.974 Y100.943 E0.044
G1 X69.906 Y100.219 E0.032
G1 X69.48 Y100.117 E0.011
G1 Y96.628 E0.087
G1 X68.901 E0.015
G1 X69.906 Y95.946 E0.03
G1 X70.191 Y95.878 E0.007
G1 X62.849 E0.184
G1 X63.497 Y96.167 E0.017
G1 X63.841 Y96.628 E0.015
G1 X60.356 E0.087
G1 X61.361 Y95.946 E0.03
G1 X61.646 Y95.878 E0.007
G1 X54.304 E0.183
G1 X54.952 Y96.167 E0.018
G1 X56.02 Y97.598 E0.045
G1 X57.088 Y98.322 E0.032
G1 X57.72 Y98.474 E0.016
G1 Y102.166 E0.092
G1 X57.088 Y102.595 E0.019
G1 X56.02 Y102.85 E0.027
G1 X54.952 Y102.374 E0.03
G1 X53.884 Y100.943 E0.044
G1 X53.28 Y100.534 E0.018
G1 Y104.38 E0.096
G1 X53.884 Y104.236 E0.016
G1 X54.952 Y104.713 E0.029
G1 X56.02 Y106.143 E0.045
G1 X57.088 Y106.868 E0.032
G1 X57.72 Y107.019 E0.016
G1 Y108.387 E0.034
G1 X69.48 Y108.388 E0.293
G1 Y104.78 E0.09
G1 X69.906 Y104.491 E0.013
G1 X70.974 Y104.236 E0.028
G1 X72.042 Y104.713 E0.029
G1 X73.11 Y106.143 E0.044
G1 X73.916 Y106.689 E0.025
G1 Y111.203 E0.112
G1 X73.11 Y111.396 E0.021
G1 X72.042 Y110.919 E0.029
G1 X70.974 Y109.488 E0.045
G1 X69.906 Y108.764 E0.032
G1 X68.838 Y108.508 E0.027
G1 X67.77 Y108.985 E0.029
G1 X66.702 Y110.416 E0.045
G1 X65.633 Y111.14 E0.032
G1 X64.565 Y111.396 E0.028
G1 X63.497 Y110.919 E0.029
G1 X62.429 Y109.488 E0.044
G1 X61.361 Y108.764 E0.032
G1 X60.293 Y108.508 E0.028
G1 X59.225 Y108.985 E0.029
G1 X58.156 Y110.416 E0.045
G1 X57.088 Y111.14 E0.032
G1 X56.02 Y111.396 E0.027
G1 X54.952 Y110.919 E0.029
G1 X53.884 Y109.488 E0.045
G1 X53.28 Y109.078 E0.018
G1 X53.279 Y112.926 E0.096
G1 X53.884 Y112.781 E0.016
G1 X54.952 Y113.258 E0.029
G1 X56.02 Y114.688 E0.044
G1 X57.088 Y115.413 E0.032
G1 X58.156 Y115.668 E0.028
G1 X59.225 Y115.191 E0.029
G1 X60.293 Y113.761 E0.045
G1 X61.361 Y113.036 E0.032
G1 X62.429 Y112.781 E0.027
G1 X63.497 Y113.258 E0.029
G1 X64.565 Y114.688 E0.045
G1 X65.633 Y115.413 E0.032
G1 X66.702 Y115.668 E0.027
G1 X67.77 Y115.191 E0.03
G1 X68.838 Y113.761 E0.044
G1 X69.906 Y113.036 E0.032
G1 X70.974 Y112.781 E0.028
G1 X72.042 Y113.258 E0.029
G1 X73.11 Y114.688 E0.044
G1 X73.916 Y115.235 E0.025
G1 Y119.748 E0.112
G1 X73.11 Y119.941 E0.021
G1 X72.042 Y119.464 E0.029
G1 X70.974 Y118.033 E0.045
G1 X69.906 Y117.309 E0.032
G1 X68.838 Y117.053 E0.027
G1 X67.77 Y117.53 E0.029
G1 X66.702 Y118.961 E0.045
G1 X65.633 Y119.685 E0.032
G1 X64.565 Y119.941 E0.028
G1 X63.497 Y119.464 E0.029
G1 X62.429 Y118.033 E0.044
G1 X61.361 Y117.309 E0.033
G1 X60.293 Y117.053 E0.027
G1 X59.225 Y117.53 E0.029
G1 X58.156 Y118.961 E0.045
G1 X57.088 Y119.685 E0.032
G1 X56.02 Y119.941 E0.027
G1 X54.952 Y119.464 E0.029
G1 X53.884 Y118.033 E0.045
G1 X53.279 Y117.623 E0.018
G1 Y121.471 E0.096
G1 X53.884 Y121.326 E0.016
G1 X54.952 Y121.803 E0.029
G1 X55.934 Y123.118 E0.041
G1 X59.686 E0.093
G1 X60.293 Y122.306 E0.026
G1 X61.361 Y121.582 E0.032
G1 X62.429 Y121.326 E0.027
G1 X63.497 Y121.803 E0.029
G1 X64.479 Y123.118 E0.041
G1 X68.232 E0.094
G1 X68.838 Y122.306 E0.025
G1 X69.906 Y121.582 E0.032
G1 X70.974 Y121.326 E0.028
G1 X72.042 Y121.803 E0.029
G1 X73.024 Y123.118 E0.041
G1 F2700 E-7
;rapid-dry
G0 X132.602 Y124.8 F7200
G1 F2700 E7
;bead-perimeter_outer
G1 Y124.2 F1800 E0.015
G1 X154.598 E0.549
G1 Y124.8 E0.015
G1 X132.602 E0.548
G1 F2700 E-7
;LAYER:9
;rapid-leaky
G0 X132.452 Z1.4 F7200
G1 F2700 E7
;bead-perimeter_outer
G1 Y124.2 F1800 E0.015
G1 X154.748 E0.556
G1 Y124.8 E0.015
G1 X132.452 E0.557
G1 F2700 E-7
;rapid-dry
G0 X74.746 Y95.198 F7200
G1 F2700 E7
;bead-perimeter_outer
G1 Y123.798 F1800 E0.713
G1 X52.449 E0.556
G1 X52.45 Y95.198 E0.714
G1 X74.746 E0.556
;rapid-leaky
G0 X74.386 Y95.558 F7200
;bead-perimeter_inner
G1 Y123.438 F2400 E0.695
G1 X52.809 E0.539
G1 X52.81 Y95.558 E0.695
G1 X74.386 E0.538
;rapid-leaky
G0 X68.8 Y107.708 F7200
;bead-perimeter_outer
G1 Y97.308 F1800 E0.26
G1 X58.4 E0.259
G1 Y107.707 E0.259
G1 X68.8 Y107.708 E0.26
;rapid-leaky
G0 X69.16 Y108.068 F7200
;bead-perimeter_inner
G1 Y96.948 F2400 E0.277
G1 X58.04 E0.278
G1 Y108.067 E0.277
G1 X69.16 Y108.068 E0.277
G1 F2700 E-7
;rapid-dry
G0 X57.72 Y106.915 F7200
G1 F2700 E7
;bead-sparse_infill
G1 X57.088 Y106.825 F3600 E0.016
G1 X56.02 Y106.205 E0.031
G1 X54.952 Y104.959 E0.041
G1 X53.884 Y104.382 E0.03
G1 X53.13 Y104.489 E0.019
G1 Y100.444 E0.101
G1 X53.884 Y100.882 E0.022
G1 X54.952 Y102.127 E0.041
G1 X56.02 Y102.704 E0.03
G1 X57.088 Y102.552 E0.027
G1 X57.72 Y102.185 E0.018
G1 X53.13 Y95.944 E0.194
G1 X53.596 Y95.878 E0.011
G1 X53.96 E0.009
G1 X54.952 Y96.414 E0.029
G1 X56.02 Y97.659 E0.041
G1 X57.088 Y98.28 E0.03
G1 X57.72 Y98.369 E0.016
G1 Y96.628 E0.044
G1 X60.276 E0.063
G1 X60.293 Y96.609 E0.001
G1 X61.361 Y95.989 E0.031
G1 X62.141 Y95.878 E0.02
G1 X62.505 E0.009
G1 X63.497 Y96.414 E0.028
G1 X63.681 Y96.628 E0.007
G1 X68.822 E0.128
G1 X68.838 Y96.609 E0.001
G1 X69.906 Y95.989 E0.03
G1 X70.686 Y95.878 E0.02
G1 X71.05 E0.009
G1 X72.042 Y96.414 E0.028
G1 X73.11 Y97.659 E0.041
G1 X74.066 Y98.214 E0.028
G1 Y102.568 E0.108
G1 X73.11 Y102.704 E0.024
G1 X72.042 Y102.127 E0.031
G1 X70.974 Y100.882 E0.041
G1 X69.906 Y100.262 E0.031
G1 X69.48 Y100.201 E0.01
G1 Y104.781 E0.115
G1 X69.906 Y104.534 E0.012
G1 X70.974 Y104.382 E0.027
G1 X72.042 Y104.959 E0.03
G1 X73.11 Y106.205 E0.041
G1 X74.066 Y106.759 E0.027
G1 Y111.113 E0.109
G1 X73.11 Y111.249 E0.024
G1 X72.042 Y110.672 E0.03
G1 X70.974 Y109.427 E0.041
G1 X69.906 Y108.807 E0.031
G1 X68.838 Y108.655 E0.027
G1 X67.77 Y109.232 E0.03
G1 X66.702 Y110.477 E0.041
G1 X65.633 Y111.097 E0.031
G1 X64.565 Y111.249 E0.027
G1 X63.497 Y110.672 E0.03
G1 X62.429 Y109.427 E0.041
G1 X61.361 Y108.807 E0.031
G1 X60.293 Y108.655 E0.027
G1 X59.225 Y109.232 E0.03
G1 X58.156 Y110.477 E0.041
G1 X57.088 Y111.097 E0.031
G1 X56.02 Y111.249 E0.027
G1 X54.952 Y110.672 E0.03
G1 X53.884 Y109.427 E0.041
G1 X53.13 Y108.989 E0.022
G1 X53.129 Y113.035 E0.101
G1 X53.884 Y112.927 E0.019
G1 X54.952 Y113.504 E0.03
G1 X56.02 Y114.75 E0.041
G1 X57.088 Y115.37 E0.031
G1 X58.156 Y115.522 E0.027
G1 X59.225 Y114.945 E0.03
G1 X60.293 Y113.699 E0.041
G1 X61.361 Y113.079 E0.031
G1 X62.429 Y112.927 E0.027
G1 X63.497 Y113.504 E0.03
G1 X64.565 Y114.75 E0.041
G1 X65.633 Y115.37 E0.031
G1 X66.702 Y115.522 E0.027
G1 X67.77 Y114.945 E0.03
G1 X68.838 Y113.699 E0.041
G1 X69.906 Y113.079 E0.031
G1 X70.974 Y112.927 E0.027
G1 X72.042 Y113.504 E0.03
G1 X73.11 Y114.75 E0.041
G1 X74.066 Y115.305 E0.027
G1 Y119.658 E0.109
G1 X73.11 Y119.794 E0.024
G1 X72.042 Y119.217 E0.03
G1 X70.974 Y117.972 E0.041
G1 X69.906 Y117.352 E0.031
G1 X68.838 Y117.2 E0.027
G1 X67.77 Y117.777 E0.03
G1 X66.702 Y119.022 E0.041
G1 X65.633 Y119.642 E0.031
G1 X64.565 Y119.794 E0.027
G1 X63.497 Y119.217 E0.03
G1 X62.429 Y117.972 E0.041
G1 X61.361 Y117.352 E0.031
G1 X60.293 Y117.2 E0.027
G1 X59.225 Y117.777 E0.03
G1 X58.156 Y119.022 E0.041
G1 X57.088 Y119.642 E0.031
G1 X56.02 Y119.794 E0.027
G1 X54.952 Y119.217 E0.03
G1 X53.884 Y117.972 E0.041
G1 X53.129 Y117.534 E0.022
G1 Y121.58 E0.101
G1 X53.884 Y121.472 E0.019
G1 X54.952 Y122.049 E0.03
G1 X55.868 Y123.118 E0.035
G1 X59.544 E0.092
G1 X60.293 Y122.245 E0.028
G1 X61.361 Y121.624 E0.031
G1 X62.429 Y121.472 E0.027
G1 X63.497 Y122.049 E0.03
G1 X64.414 Y123.118 E0.036
G1 X68.089 E0.091
G1 X68.838 Y122.245 E0.029
G1 X69.906 Y121.624 E0.031
G1 X70.974 Y121.472 E0.027
G1 X72.042 Y122.049 E0.03
G1 X72.959 Y123.118 E0.035
G1 F2700 E-7
;LAYER:10
;rapid-dry
G0 X68.8 Y97.308 Z1.55 F7200
G1 F2700 E7
;bead-perimeter_outer
G1 X58.4 F1800 E0.26
G1 Y107.707 E0.259
G1 X68.8 Y107.708 E0.259
G1 Y97.308 E0.26
;rapid-leaky
G0 X69.16 Y96.948 F7200
;bead-perimeter_inner
G1 X58.04 F2400 E0.277
G1 Y108.067 E0.278
G1 X69.16 Y108.068 E0.277
G1 Y96.948 E0.277
;rapid-leaky
G0 X74.896 Y95.198 F7200
;bead-perimeter_outer
G1 Y123.798 F1800 E0.714
G1 X52.299 E0.563
G1 X52.3 Y95.198 E0.714
G1 X74.896 E0.564
;rapid-leaky
G0 X74.536 Y95.558 F7200
;bead-perimeter_inner
G1 Y123.438 F2400 E0.695
G1 X52.659 E0.546
G1 X52.66 Y95.558 E0.695
G1 X74.536 E0.546
;rapid-leaky
G0 X52.98 Y96.013 F7200
;bead-sparse_infill
G1 X53.884 Y95.966 F3600 E0.022
G1 X54.952 Y96.614 E0.032
G1 X56.02 Y97.725 E0.038
G1 X57.088 Y98.247 E0.03
G1 X57.72 Y98.28 E0.016
G1 Y96.628 E0.041
G1 X60.212 E0.062
G1 X60.293 Y96.544 E0.003
G1 X61.361 Y96.022 E0.029
G1 X62.429 Y95.966 E0.027
G1 X63.497 Y96.614 E0.031
G1 X63.511 Y96.628 E0.001
G1 X68.757 E0.131
G1 X68.838 Y96.544 E0.003
G1 X69.906 Y96.022 E0.029
G1 X70.974 Y95.966 E0.027
G1 X72.042 Y96.614 E0.031
G1 X73.11 Y97.725 E0.039
G1 X74.179 Y98.247 E0.029
G1 X74.216 Y98.249 E0.001
G1 Y102.501 E0.106
G1 X74.179 Y102.519 E0.001
G1 X73.11 Y102.575 E0.027
G1 X72.042 Y101.928 E0.031
G1 X70.974 Y100.816 E0.039
G1 X69.906 Y100.294 E0.029
G1 X69.48 Y100.272 E0.011
G1 Y104.775 E0.112
G1 X69.906 Y104.567 E0.012
G1 X70.974 Y104.511 E0.027
G1 X72.042 Y105.159 E0.031
G1 X73.11 Y106.27 E0.038
G1 X74.179 Y106.792 E0.03
G1 X74.216 Y106.794 E0.001
G1 Y111.046 E0.106
G1 X74.179 Y111.065 E0.001
G1 X73.11 Y111.12 E0.027
G1 X72.042 Y110.473 E0.031
G1 X70.974 Y109.362 E0.038
G1 X69.906 Y108.839 E0.03
G1 X68.838 Y108.784 E0.027
G1 X67.77 Y109.431 E0.031
G1 X66.702 Y110.542 E0.038
G1 X65.633 Y111.065 E0.03
G1 X64.565 Y111.12 E0.027
G1 X63.497 Y110.473 E0.031
G1 X62.429 Y109.362 E0.038
G1 X61.361 Y108.839 E0.03
G1 X60.293 Y108.784 E0.026
G1 X59.225 Y109.431 E0.032
G1 X58.156 Y110.542 E0.038
G1 X57.088 Y111.065 E0.03
G1 X56.02 Y111.12 E0.026
G1 X54.952 Y110.473 E0.032
G1 X53.884 Y109.362 E0.038
G1 X52.98 Y108.92 E0.025
G1 X52.979 Y113.103 E0.105
G1 X53.884 Y113.056 E0.022
G1 X54.952 Y113.704 E0.031
G1 X56.02 Y114.815 E0.039
G1 X56.395 Y114.998 E0.01
G1 X58.808 E0.06
G1 X59.225 Y114.745 E0.012
G1 X60.293 Y113.634 E0.039
G1 X61.361 Y113.112 E0.03
G1 X62.429 Y113.056 E0.026
G1 X63.497 Y113.704 E0.031
G1 X64.565 Y114.815 E0.039
G1 X64.94 Y114.998 E0.01
G1 X67.353 E0.06
G1 X67.77 Y114.745 E0.013
G1 X68.838 Y113.634 E0.038
G1 X69.906 Y113.112 E0.03
G1 X70.974 Y113.056 E0.026
G1 X72.042 Y113.704 E0.032
G1 X73.11 Y114.815 E0.038
G1 X73.485 Y114.998 E0.01
G1 X73.868 E0.01
G1 Y115.185 E0.005
G1 X74.179 Y115.337 E0.008
G1 X74.216 Y115.339 E0.001
G1 Y119.591 E0.106
G1 X74.179 Y119.61 E0.001
G1 X73.868 Y119.626 E0.008
G1 F2700 E-7
;rapid-dry
G0 X73.373 Y115.398 F7200
G1 F2700 E7
;bead-solid_infill
G1 X73.468 Y115.493 F1800 E0.003
G1 Y116.059 E0.015
G1 X72.807 Y115.398 E0.023
G1 X72.242 E0.014
G1 X73.468 Y116.624 E0.043
G1 Y117.19 E0.014
G1 X71.676 Y115.398 E0.064
G1 X71.11 E0.014
G1 X73.468 Y117.755 E0.083
G1 Y118.321 E0.014
G1 X70.545 Y115.398 E0.103
G1 X69.979 E0.014
G1 X73.468 Y118.887 E0.123
G1 Y119.452 E0.014
G1 X69.413 Y115.398 E0.143
G1 X68.848 E0.014
G1 X73.468 Y120.018 E0.163
G1 X73.467 Y120.583 E0.015
G1 X68.282 Y115.398 E0.182
G1 X67.716 E0.015
G1 X73.467 Y121.149 E0.202
G1 Y121.715 E0.015
G1 X67.151 Y115.398 E0.222
G1 X66.585 E0.015
G1 X73.467 Y122.28 E0.242
G1 Y122.846 E0.014
G1 X66.019 Y115.398 E0.263
G1 X65.454 E0.014
G1 X73.174 Y123.118 E0.273
G1 X72.608 E0.014
G1 X64.888 Y115.398 E0.272
G1 X64.322 E0.014
G1 X72.042 Y123.118 E0.273
G1 X71.477 E0.014
G1 X63.757 Y115.398 E0.272
G1 X63.191 E0.014
G1 X70.911 Y123.118 E0.272
G1 X70.345 E0.015
G1 X62.625 Y115.398 E0.272
G1 X62.059 E0.014
G1 X69.779 Y123.118 E0.272
G1 X69.214 E0.014
G1 X61.494 Y115.398 E0.273
G1 X60.928 E0.014
G1 X68.648 Y123.118 E0.272
G1 X68.082 E0.014
G1 X60.362 Y115.398 E0.273
G1 X59.797 E0.014
G1 X67.517 Y123.118 E0.272
G1 X66.951 E0.014
G1 X59.231 Y115.398 E0.273
G1 X58.665 E0.014
G1 X66.385 Y123.118 E0.272
G1 X65.82 E0.014
G1 X58.1 Y115.398 E0.273
G1 X57.534 E0.014
G1 X65.254 Y123.118 E0.272
G1 X64.688 E0.014
G1 X56.968 Y115.398 E0.272
G1 X56.403 E0.015
G1 X64.123 Y123.118 E0.272
G1 X63.557 E0.014
G1 X55.837 Y115.398 E0.272
G1 X55.271 E0.014
G1 X62.991 Y123.118 E0.273
G1 X62.426 E0.014
G1 X54.706 Y115.398 E0.272
G1 X54.14 E0.014
G1 X61.86 Y123.118 E0.273
G1 X61.294 E0.014
G1 X53.73 Y115.554 E0.267
G1 Y116.12 E0.014
G1 X60.729 Y123.118 E0.247
G1 X60.163 E0.014
G1 X53.73 Y116.685 E0.227
G1 Y117.251 E0.014
G1 X59.597 Y123.118 E0.207
G1 X59.031 E0.014
G1 X53.73 Y117.816 E0.187
G1 Y118.382 E0.014
G1 X58.466 Y123.118 E0.167
G1 X57.9 E0.014
G1 X53.73 Y118.948 E0.147
G1 Y119.513 E0.014
G1 X57.334 Y123.118 E0.128
G1 X56.769 E0.014
G1 X53.73 Y120.079 E0.107
G1 X53.729 Y120.644 E0.014
G1 X56.203 Y123.118 E0.087
G1 X55.637 E0.014
G1 X53.729 Y121.21 E0.068
G1 Y121.776 E0.014
G1 X55.072 Y123.118 E0.047
G1 X54.506 E0.014
G1 X53.729 Y122.341 E0.028
G1 Y122.907 E0.014
G1 X53.94 Y123.118 E0.007
G1 F2700 E-7
;rapid-dry
G0 X53.329 Y121.63 F7200
G1 F2700 E7
;bead-sparse_infill
G1 X52.979 Y121.649 F3600 E0.009
G1 Y117.465 E0.104
G1 X53.33 Y117.636 E0.01
G1 F2700 E-7
;rapid-dry
G0 X57.72 Y106.825 F7200
G1 F2700 E7
;bead-sparse_infill
G1 X57.088 Y106.792 F3600 E0.016
G1 X56.02 Y106.27 E0.03
G1 X54.952 Y105.159 E0.038
G1 X53.884 Y104.511 E0.031
G1 X52.98 Y104.558 E0.023
G1 Y100.375 E0.104
G1 X53.884 Y100.816 E0.025
G1 X54.952 Y101.928 E0.039
G1 X56.02 Y102.575 E0.031
G1 X57.088 Y102.519 E0.027
G1 X57.72 Y102.211 E0.017
G1 F2700 E-7
;rapid-dry
G0 X154.898 Y124.8 F7200
G1 F2700 E7
;bead-perimeter_outer
G1 X132.302 F1800 E0.564
G1 Y124.2 E0.015
G1 X154.898 E0.563
G1 Y124.8 E0.015
G1 F2700 E-7
;LAYER:11
;rapid-dry
G0 X155.048 Y124.2 Z1.7 F7200
G1 F2700 E7
;bead-perimeter_outer
G1 Y124.8 F1800 E0.015
G1 X132.152 E0.571
G1 Y124.2 E0.015
G1 X155.048 E0.572
G1 F2700 E-7
;rapid-dry
G0 X75.046 Y95.198 F7200
G1 F2700 E7
;bead-perimeter_outer
G1 Y123.798 F1800 E0.713
G1 X52.149 E0.571
G1 X52.15 Y95.198 E0.714
G1 X75.046 E0.571
;rapid-leaky
G0 X74.686 Y95.558 F7200
;bead-perimeter_inner
G1 Y123.438 F2400 E0.695
G1 X52.509 E0.553
G1 X52.51 Y95.558 E0.696
G1 X74.686 E0.553
;rapid-leaky
G0 X68.8 Y107.708 F7200
;bead-perimeter_outer
G1 Y97.308 F1800 E0.259
G1 X58.4 E0.26
G1 Y107.707 E0.259
G1 X68.8 Y107.708 E0.26
;rapid-leaky
G0 X69.16 Y108.068 F7200
;bead-perimeter_inner
G1 Y96.948 F2400 E0.277
G1 X58.04 E0.278
G1 Y108.067 E0.277
G1 X69.16 Y108.068 E0.277
G1 F2700 E-7
;rapid-dry
G0 X57.72 Y106.748 F7200
G1 F2700 E7
;bead-sparse_infill
G1 X57.088 Y106.769 F3600 E0.016
G1 X56.02 Y106.34 E0.029
G1 X54.952 Y105.332 E0.036
G1 X53.884 Y104.626 E0.032
G1 X52.83 Y104.591 E0.027
G1 Y100.323 E0.106
G1 X53.884 Y100.747 E0.028
G1 X54.952 Y101.754 E0.037
G1 X56.02 Y102.461 E0.032
G1 X57.088 Y102.496 E0.027
G1 X57.72 Y102.242 E0.017
G1 X52.83 Y96.046 E0.197
G1 X53.884 Y96.081 E0.026
G1 X54.952 Y96.787 E0.032
G1 X56.02 Y97.794 E0.036
G1 X57.088 Y98.223 E0.029
G1 X57.72 Y98.203 E0.016
G1 Y96.628 E0.039
G1 X60.13 E0.06
G1 X60.293 Y96.474 E0.006
G1 X61.361 Y96.045 E0.029
G1 X62.429 Y96.081 E0.026
G1 X63.256 Y96.628 E0.025
G1 X68.675 E0.135
G1 X68.838 Y96.474 E0.006
G1 X69.906 Y96.045 E0.028
G1 X70.974 Y96.081 E0.027
G1 X72.042 Y96.787 E0.032
G1 X73.11 Y97.794 E0.037
G1 X74.179 Y98.223 E0.028
G1 X74.366 Y98.217 E0.005
G1 Y102.421 E0.105
G1 X74.179 Y102.496 E0.005
G1 X73.11 Y102.461 E0.027
G1 X72.042 Y101.754 E0.032
G1 X70.974 Y100.747 E0.036
G1 X69.906 Y100.318 E0.029
G1 X69.48 Y100.332 E0.011
G1 Y104.761 E0.11
G1 X69.906 Y104.59 E0.012
G1 X70.974 Y104.626 E0.026
G1 X72.042 Y105.332 E0.032
G1 X73.11 Y106.34 E0.037
G1 X74.179 Y106.769 E0.028
G1 X74.366 Y106.762 E0.005
G1 Y110.966 E0.105
G1 X74.179 Y111.041 E0.005
G1 X73.11 Y111.006 E0.027
G1 X72.042 Y110.299 E0.032
G1 X70.974 Y109.292 E0.036
G1 X69.906 Y108.863 E0.029
G1 X68.838 Y108.898 E0.027
G1 X67.77 Y109.605 E0.032
G1 X66.702 Y110.612 E0.036
G1 X65.633 Y111.041 E0.029
G1 X64.565 Y111.006 E0.027
G1 X63.497 Y110.299 E0.032
G1 X62.429 Y109.292 E0.036
G1 X61.361 Y108.863 E0.029
G1 X60.293 Y108.898 E0.027
G1 X59.225 Y109.605 E0.031
G1 X58.156 Y110.612 E0.037
G1 X57.088 Y111.041 E0.029
G1 X56.02 Y111.006 E0.026
G1 X54.952 Y110.299 E0.032
G1 X53.884 Y109.292 E0.037
G1 X52.83 Y108.868 E0.028
G1 X52.829 Y113.136 E0.107
G1 X53.884 Y113.171 E0.026
G1 X54.952 Y113.877 E0.032
G1 X56.02 Y114.885 E0.037
G1 X56.302 Y114.998 E0.007
G1 X58.58 E0.057
G1 X59.225 Y114.572 E0.019
G1 X60.293 Y113.564 E0.037
G1 X61.361 Y113.135 E0.029
G1 X62.429 Y113.171 E0.026
G1 X63.497 Y113.877 E0.032
G1 X64.565 Y114.885 E0.037
G1 X64.847 Y114.998 E0.008
G1 X67.125 E0.056
G1 X67.77 Y114.572 E0.02
G1 X68.838 Y113.564 E0.036
G1 X69.906 Y113.135 E0.029
G1 X70.974 Y113.171 E0.027
G1 X72.042 Y113.877 E0.032
G1 X73.11 Y114.885 E0.036
G1 X73.393 Y114.998 E0.008
G1 X73.868 E0.012
G1 Y115.189 E0.004
G1 X74.179 Y115.314 E0.009
G1 X74.366 Y115.307 E0.004
G1 Y119.511 E0.105
G1 X74.179 Y119.586 E0.005
G1 X73.868 Y119.576 E0.008
G1 F2700 E-7
;rapid-dry
G0 X72.957 Y123.118 F7200
G1 F2700 E7
;bead-solid_infill
G1 X73.467 Y122.608 F1800 E0.018
G1 Y122.042 E0.014
G1 X72.391 Y123.118 E0.038
G1 X71.826 E0.014
G1 X73.467 Y121.476 E0.058
G1 Y120.911 E0.014
G1 X71.26 Y123.118 E0.078
G1 X70.694 E0.014
G1 X73.467 Y120.345 E0.098
G1 X73.468 Y119.779 E0.014
G1 X70.129 Y123.118 E0.118
G1 X69.563 E0.014
G1 X73.468 Y119.213 E0.138
G1 Y118.648 E0.014
G1 X68.997 Y123.118 E0.158
G1 X68.432 E0.014
G1 X73.468 Y118.082 E0.177
G1 Y117.516 E0.015
G1 X67.866 Y123.118 E0.197
G1 X67.3 E0.014
G1 X73.468 Y116.95 E0.218
G1 Y116.385 E0.014
G1 X66.735 Y123.118 E0.238
G1 X66.169 E0.014
G1 X73.468 Y115.819 E0.257
G1 Y115.398 E0.011
G1 X73.323 E0.003
G1 X65.603 Y123.118 E0.273
G1 X65.038 E0.014
G1 X72.758 Y115.398 E0.272
G1 X72.192 E0.014
G1 X64.472 Y123.118 E0.273
G1 X63.906 E0.014
G1 X71.626 Y115.398 E0.272
G1 X71.06 E0.014
G1 X63.34 Y123.118 E0.272
G1 X62.775 E0.015
G1 X70.495 Y115.398 E0.272
G1 X69.929 E0.014
G1 X62.209 Y123.118 E0.272
G1 X61.643 E0.014
G1 X69.363 Y115.398 E0.273
G1 X68.798 E0.014
G1 X61.078 Y123.118 E0.272
G1 X60.512 E0.014
G1 X68.232 Y115.398 E0.273
G1 X67.666 E0.014
G1 X59.946 Y123.118 E0.272
G1 X59.381 E0.014
G1 X67.101 Y115.398 E0.273
G1 X66.535 E0.014
G1 X58.815 Y123.118 E0.272
G1 X58.249 E0.014
G1 X65.969 Y115.398 E0.273
G1 X65.404 E0.014
G1 X57.684 Y123.118 E0.272
G1 X57.118 E0.014
G1 X64.838 Y115.398 E0.272
G1 X64.272 E0.015
G1 X56.552 Y123.118 E0.272
G1 X55.987 E0.014
G1 X63.707 Y115.398 E0.272
G1 X63.141 E0.014
G1 X55.421 Y123.118 E0.273
G1 X54.855 E0.014
G1 X62.575 Y115.398 E0.272
G1 X62.009 E0.014
G1 X54.289 Y123.118 E0.273
G1 X53.729 E0.014
G1 Y123.113
G1 X61.444 Y115.398 E0.272
G1 X60.878 E0.014
G1 X53.729 Y122.547 E0.252
G1 Y121.981 E0.014
G1 X60.312 Y115.398 E0.233
G1 X59.747 E0.014
G1 X53.729 Y121.415 E0.212
G1 Y120.85 E0.014
G1 X59.181 Y115.398 E0.192
G1 X58.615 E0.015
G1 X53.729 Y120.284 E0.172
G1 X53.73 Y119.718 E0.014
G1 X58.05 Y115.398 E0.152
G1 X57.484 E0.015
G1 X53.73 Y119.152 E0.132
G1 Y118.587 E0.014
G1 X56.918 Y115.398 E0.113
G1 X56.353 E0.014
G1 X53.73 Y118.021 E0.092
G1 Y117.455 E0.014
G1 X55.787 Y115.398 E0.073
G1 X55.221 E0.014
G1 X53.73 Y116.889 E0.053
G1 Y116.324 E0.014
G1 X54.656 Y115.398 E0.032
G1 X54.09 E0.015
G1 X53.73 Y115.758 E0.012
;rapid-leaky
G0 X53.33 Y117.614 F7200
;bead-sparse_infill
G1 X52.829 Y117.413 F3600 E0.014
G1 Y121.681 E0.106
G1 X53.329 Y121.698 E0.013
G1 F2700 E-7
;LAYER:12
;rapid-dry
G0 X68.8 Y107.708 Z1.85 F7200
G1 F2700 E7
;bead-perimeter_outer
G1 Y97.308 F1800 E0.259
G1 X58.4 E0.259
G1 Y107.707 E0.26
G1 X68.8 Y107.708 E0.259
;rapid-leaky
G0 X69.16 Y108.068 F7200
;bead-perimeter_inner
G1 Y96.948 F2400 E0.278
G1 X58.04 E0.277
G1 Y108.067 E0.277
G1 X69.16 Y108.068 E0.278
;rapid-leaky
G0 X75.196 Y95.198 F7200
;bead-perimeter_outer
G1 Y123.798 F1800 E0.713
G1 X51.999 E0.579
G1 X52 Y95.198 E0.713
G1 X75.196 E0.579
;rapid-leaky
G0 X74.836 Y95.558 F7200
;bead-perimeter_inner
G1 Y123.438 F2400 E0.695
G1 X52.359 E0.561
G1 X52.36 Y95.558 E0.696
G1 X74.836 E0.56
;rapid-leaky
G0 X52.68 Y96.103 F7200
;bead-sparse_infill
G1 X52.816 Y96.06 F3600 E0.004
G1 X53.884 Y96.183 E0.027
G1 X54.952 Y96.946 E0.032
G1 X56.02 Y97.869 E0.036
G1 X57.088 Y98.209 E0.028
G1 X57.72 Y98.136 E0.015
G1 Y96.628 E0.038
G1 X60.028 E0.058
G1 X60.293 Y96.399 E0.008
G1 X61.361 Y96.06 E0.028
G1 X62.429 Y96.183 E0.027
G1 X63.052 Y96.628 E0.019
G1 X68.573 E0.138
G1 X68.838 Y96.399 E0.009
G1 X69.906 Y96.06 E0.028
G1 X70.974 Y96.183 E0.026
G1 X72.042 Y96.946 E0.033
G1 X73.11 Y97.869 E0.035
G1 X74.179 Y98.209 E0.028
G1 X74.516 Y98.17 E0.009
G1 Y102.374 E0.105
G1 X74.179 Y102.481 E0.009
G1 X73.11 Y102.358 E0.026
G1 X72.042 Y101.595 E0.033
G1 X70.974 Y100.672 E0.035
G1 X69.906 Y100.332 E0.028
G1 X69.48 Y100.382 E0.011
G1 Y104.74 E0.109
G1 X69.906 Y104.605 E0.011
G1 X70.974 Y104.728 E0.027
G1 X72.042 Y105.491 E0.032
G1 X73.11 Y106.415 E0.036
G1 X74.179 Y106.754 E0.028
G1 X74.516 Y106.715 E0.008
G1 Y110.919 E0.105
G1 X74.179 Y111.027 E0.009
G1 X73.11 Y110.903 E0.027
G1 X72.042 Y110.14 E0.032
G1 X70.974 Y109.217 E0.036
G1 X69.906 Y108.877 E0.028
G1 X68.838 Y109.001 E0.026
G1 X67.77 Y109.764 E0.033
G1 X66.702 Y110.687 E0.035
G1 X65.633 Y111.027 E0.028
G1 X64.565 Y110.903 E0.027
G1 X63.497 Y110.14 E0.033
G1 X62.429 Y109.217 E0.035
G1 X61.361 Y108.877 E0.028
G1 X60.293 Y109.001 E0.027
G1 X59.225 Y109.764 E0.033
G1 X58.156 Y110.687 E0.035
G1 X57.088 Y111.027 E0.028
G1 X56.02 Y110.903 E0.027
G1 X54.952 Y110.14 E0.032
G1 X53.884 Y109.217 E0.036
G1 X52.816 Y108.877 E0.028
G1 X52.68 Y108.893 E0.003
G1 Y104.648 E0.106
G1 X52.816 Y104.605 E0.003
G1 X53.884 Y104.728 E0.027
G1 X54.952 Y105.491 E0.033
G1 X56.02 Y106.415 E0.035
G1 X57.088 Y106.754 E0.028
G1 X57.72 Y106.681 E0.016
G1 Y102.281 E0.11
G1 X57.088 Y102.481 E0.016
G1 X56.02 Y102.358 E0.027
G1 X54.952 Y101.595 E0.033
G1 X53.884 Y100.672 E0.035
G1 X52.816 Y100.332 E0.028
G1 X52.68 Y100.348 E0.003
;rapid-leaky
G0 X53.329 Y121.755 F7200
;bead-sparse_infill
G1 X52.816 Y121.695 F3600 E0.013
G1 X52.679 Y121.739 E0.004
G1 Y117.438 E0.107
G1 X52.816 Y117.423 E0.004
G1 X53.33 Y117.586 E0.013
G1 X52.679 Y113.193 E0.111
G1 X52.816 Y113.15 E0.003
G1 X53.884 Y113.273 E0.027
G1 X54.952 Y114.036 E0.033
G1 X56.02 Y114.96 E0.035
G1 X56.141 Y114.998 E0.003
G1 X58.405 E0.057
G1 X59.225 Y114.413 E0.025
G1 X60.293 Y113.489 E0.035
G1 X61.361 Y113.15 E0.028
G1 X62.429 Y113.273 E0.027
G1 X63.497 Y114.036 E0.033
G1 X64.565 Y114.96 E0.035
G1 X64.686 Y114.998 E0.003
G1 X66.95 E0.057
G1 X67.77 Y114.413 E0.025
G1 X68.838 Y113.489 E0.035
G1 X69.906 Y113.15 E0.028
G1 X70.974 Y113.273 E0.027
G1 X72.042 Y114.036 E0.032
G1 X73.11 Y114.96 E0.036
G1 X73.231 Y114.998 E0.003
G1 X73.868 E0.016
G1 Y115.2 E0.005
G1 X74.179 Y115.299 E0.008
G1 X74.516 Y115.26 E0.008
G1 Y119.464 E0.105
G1 X74.179 Y119.572 E0.009
G1 X73.868 Y119.536 E0.008
G1 F2700 E-7
;rapid-dry
G0 X53.94 Y123.118 F7200
G1 F2700 E7
;bead-solid_infill
G1 X53.729 Y122.907 F1800 E0.007
G1 Y122.341 E0.014
G1 X54.506 Y123.118 E0.028
G1 X55.072 E0.014
G1 X53.729 Y121.776 E0.047
G1 Y121.21 E0.014
G1 X55.637 Y123.118 E0.068
G1 X56.203 E0.014
G1 X53.729 Y120.644 E0.087
G1 X53.73 Y120.079 E0.014
G1 X56.769 Y123.118 E0.107
G1 X57.334 E0.015
G1 X53.73 Y119.513 E0.127
G1 Y118.948 E0.014
G1 X57.9 Y123.118 E0.147
G1 X58.466 E0.014
G1 X53.73 Y118.382 E0.167
G1 Y117.816 E0.014
G1 X59.031 Y123.118 E0.187
G1 X59.597 E0.014
G1 X53.73 Y117.251 E0.207
G1 Y116.685 E0.014
G1 X60.163 Y123.118 E0.227
G1 X60.729 E0.014
G1 X53.73 Y116.12 E0.247
G1 Y115.554 E0.015
G1 X61.294 Y123.118 E0.266
G1 X61.86 E0.014
G1 X54.14 Y115.398 E0.273
G1 X54.706 E0.014
G1 X62.426 Y123.118 E0.272
G1 X62.991 E0.014
G1 X55.271 Y115.398 E0.273
G1 X55.837 E0.014
G1 X63.557 Y123.118 E0.272
G1 X64.123 E0.014
G1 X56.403 Y115.398 E0.273
G1 X56.968 E0.014
G1 X64.688 Y123.118 E0.272
G1 X65.254 E0.014
G1 X57.534 Y115.398 E0.273
G1 X58.1 E0.014
G1 X65.82 Y123.118 E0.272
G1 X66.385 E0.014
G1 X58.665 Y115.398 E0.272
G1 X59.231 E0.015
G1 X66.951 Y123.118 E0.272
G1 X67.517 E0.014
G1 X59.797 Y115.398 E0.272
G1 X60.362 E0.014
G1 X68.082 Y123.118 E0.273
G1 X68.648 E0.014
G1 X60.928 Y115.398 E0.272
G1 X61.494 E0.014
G1 X69.214 Y123.118 E0.273
G1 X69.779 E0.014
G1 X62.059 Y115.398 E0.272
G1 X62.625 E0.014
G1 X70.345 Y123.118 E0.273
G1 X70.911 E0.014
G1 X63.191 Y115.398 E0.272
G1 X63.757 E0.014
G1 X71.477 Y123.118 E0.273
G1 X72.042 E0.014
G1 X64.322 Y115.398 E0.272
G1 X64.888 E0.014
G1 X72.608 Y123.118 E0.272
G1 X73.174 E0.015
G1 X65.454 Y115.398 E0.272
G1 X66.019 E0.014
G1 X73.467 Y122.846 E0.263
G1 Y122.28 E0.014
G1 X66.585 Y115.398 E0.243
G1 X67.151 E0.014
G1 X73.467 Y121.715 E0.223
G1 Y121.149 E0.014
G1 X67.716 Y115.398 E0.203
G1 X68.282 E0.014
G1 X73.467 Y120.583 E0.183
G1 X73.468 Y120.018 E0.014
G1 X68.848 Y115.398 E0.163
G1 X69.413 E0.014
G1 X73.468 Y119.452 E0.143
G1 Y118.887 E0.014
G1 X69.979 Y115.398 E0.123
G1 X70.545 E0.014
G1 X73.468 Y118.321 E0.103
G1 Y117.755 E0.014
G1 X71.11 Y115.398 E0.084
G1 X71.676 E0.014
G1 X73.468 Y117.19 E0.063
G1 Y116.624 E0.014
G1 X72.242 Y115.398 E0.043
G1 X72.807 E0.014
G1 X73.468 Y116.059 E0.024
G1 Y115.493 E0.014
G1 X73.373 Y115.398 E0.003
G1 F2700 E-7
;rapid-dry
G0 X132.002 Y124.8 F7200
G1 F2700 E7
;bead-perimeter_outer
G1 Y124.2 F1800 E0.015
G1 X155.198 E0.579
G1 Y124.8 E0.015
G1 X132.002 E0.578
G1 F2700 E-7
;LAYER:13
;rapid-leaky
G0 X155.348 Z2 F7200
G1 F2700 E7
;bead-perimeter_outer
G1 X131.852 F1800 E0.586
G1 Y124.2 E0.015
G1 X155.348 E0.586
G1 Y124.8 E0.015
G1 F2700 E-7
;rapid-dry
G0 X58.4 Y97.308 F7200
G1 F2700 E7
;bead-perimeter_outer
G1 Y107.707 F1800 E0.26
G1 X68.8 Y107.708 E0.259
G1 Y97.308 E0.26
G1 X58.4 E0.259
;rapid-leaky
G0 X58.04 Y96.948 F7200
;bead-perimeter_inner
G1 Y108.067 F2400 E0.277
G1 X69.16 Y108.068 E0.278
G1 Y96.948 E0.277
G1 X58.04 E0.278
;rapid-leaky
G0 X51.85 Y95.198 F7200
;bead-perimeter_outer
G1 X75.346 F1800 E0.586
G1 Y123.798 E0.713
G1 X51.849 E0.586
G1 X51.85 Y95.198 E0.714
;rapid-leaky
G0 X52.21 Y95.558 F7200
;bead-perimeter_inner
G1 X74.986 F2400 E0.568
G1 Y123.438 E0.695
G1 X52.209 E0.569
G1 X52.21 Y95.558 E0.695
;rapid-leaky
G0 X52.53 Y96.133 F7200
;bead-sparse_infill
G1 X52.816 Y96.066 F3600 E0.007
G1 X53.884 Y96.276 E0.028
G1 X54.952 Y97.098 E0.033
G1 X56.02 Y97.951 E0.034
G1 X57.088 Y98.203 E0.028
G1 X57.72 Y98.078 E0.016
G1 Y96.628 E0.036
G1 X59.904 E0.054
G1 X60.293 Y96.318 E0.013
G1 X61.361 Y96.066 E0.027
G1 X62.429 Y96.276 E0.027
G1 X62.886 Y96.628 E0.015
G1 X68.449 E0.138
G1 X68.838 Y96.318 E0.013
G1 X69.906 Y96.066 E0.027
G1 X70.974 Y96.276 E0.027
G1 X72.042 Y97.098 E0.034
G1 X73.11 Y97.951 E0.034
G1 X74.179 Y98.203 E0.027
G1 X74.666 Y98.107 E0.013
G1 Y102.36 E0.106
G1 X74.179 Y102.475 E0.012
G1 X73.11 Y102.265 E0.028
G1 X72.042 Y101.443 E0.033
G1 X70.974 Y100.591 E0.034
G1 X69.906 Y100.338 E0.028
G1 X69.48 Y100.422 E0.011
G1 Y104.712 E0.107
G1 X69.906 Y104.611 E0.01
G1 X70.974 Y104.821 E0.028
G1 X72.042 Y105.643 E0.033
G1 X73.11 Y106.496 E0.034
G1 X74.179 Y106.748 E0.028
G1 X74.666 Y106.652 E0.012
G1 Y110.905 E0.106
G1 X74.179 Y111.02 E0.013
G1 X73.11 Y110.81 E0.027
G1 X72.042 Y109.988 E0.033
G1 X70.974 Y109.136 E0.035
G1 X69.906 Y108.884 E0.027
G1 X68.838 Y109.094 E0.027
G1 X67.77 Y109.916 E0.034
G1 X66.702 Y110.768 E0.034
G1 X65.633 Y111.02 E0.027
G1 X64.565 Y110.81 E0.027
G1 X63.497 Y109.988 E0.034
G1 X62.429 Y109.136 E0.034
G1 X61.361 Y108.884 E0.027
G1 X60.293 Y109.094 E0.028
G1 X59.225 Y109.916 E0.033
G1 X58.156 Y110.768 E0.034
G1 X57.088 Y111.02 E0.028
G1 X56.02 Y110.81 E0.027
G1 X54.952 Y109.988 E0.033
G1 X53.884 Y109.136 E0.034
G1 X52.816 Y108.884 E0.028
G1 X52.53 Y108.94 E0.007
G1 Y104.679 E0.106
G1 X52.816 Y104.611 E0.008
G1 X53.884 Y104.821 E0.027
G1 X54.952 Y105.643 E0.034
G1 X56.02 Y106.496 E0.034
G1 X57.088 Y106.748 E0.027
G1 X57.72 Y106.624 E0.016
G1 Y102.326 E0.107
G1 X57.088 Y102.475 E0.016
G1 X56.02 Y102.265 E0.028
G1 X54.952 Y101.443 E0.033
G1 X53.884 Y100.591 E0.034
G1 X52.816 Y100.338 E0.028
G1 X52.53 Y100.395 E0.007
G1 X52.529 Y113.224 E0.32
G1 X52.816 Y113.156 E0.007
G1 X53.884 Y113.366 E0.028
G1 X54.952 Y114.188 E0.033
G1 X55.966 Y114.998 E0.033
G1 X58.267 E0.057
G1 X59.225 Y114.261 E0.03
G1 X60.293 Y113.408 E0.034
G1 X61.361 Y113.156 E0.028
G1 X62.429 Y113.366 E0.027
G1 X63.497 Y114.188 E0.033
G1 X64.512 Y114.998 E0.033
G1 X66.812 E0.057
G1 X67.77 Y114.261 E0.03
G1 X68.838 Y113.408 E0.034
G1 X69.906 Y113.156 E0.028
G1 X70.974 Y113.366 E0.027
G1 X72.042 Y114.188 E0.033
G1 X73.057 Y114.998 E0.033
G1 X73.868 E0.02
G1 Y115.22 E0.006
G1 X74.179 Y115.293 E0.008
G1 X74.666 Y115.197 E0.012
G1 Y119.45 E0.106
G1 X74.179 Y119.565 E0.013
G1 X73.868 Y119.504 E0.007
G1 F2700 E-7
;rapid-dry
G0 X72.957 Y123.118 F7200
G1 F2700 E7
;bead-solid_infill
G1 X73.467 Y122.608 F1800 E0.018
G1 Y122.042 E0.015
G1 X72.391 Y123.118 E0.038
G1 X71.826 E0.014
G1 X73.467 Y121.476 E0.058
G1 Y120.911 E0.014
G1 X71.26 Y123.118 E0.078
G1 X70.694 E0.014
G1 X73.467 Y120.345 E0.097
G1 X73.468 Y119.779 E0.015
G1 X70.129 Y123.118 E0.117
G1 X69.563 E0.014
G1 X73.468 Y119.213 E0.138
G1 Y118.648 E0.014
G1 X68.997 Y123.118 E0.158
G1 X68.432 E0.014
G1 X73.468 Y118.082 E0.178
G1 Y117.516 E0.014
G1 X67.866 Y123.118 E0.198
G1 X67.3 E0.014
G1 X73.468 Y116.95 E0.217
G1 Y116.385 E0.014
G1 X66.735 Y123.118 E0.238
G1 X66.169 E0.014
G1 X73.468 Y115.819 E0.257
G1 Y115.398 E0.011
G1 X73.323 E0.004
G1 X65.603 Y123.118 E0.272
G1 X65.038 E0.014
G1 X72.758 Y115.398 E0.272
G1 X72.192 E0.015
G1 X64.472 Y123.118 E0.272
G1 X63.906 E0.014
G1 X71.626 Y115.398 E0.272
G1 X71.06 E0.014
G1 X63.34 Y123.118 E0.273
G1 X62.775 E0.014
G1 X70.495 Y115.398 E0.272
G1 X69.929 E0.014
G1 X62.209 Y123.118 E0.273
G1 X61.643 E0.014
G1 X69.363 Y115.398 E0.272
G1 X68.798 E0.014
G1 X61.078 Y123.118 E0.273
G1 X60.512 E0.014
G1 X68.232 Y115.398 E0.272
G1 X67.666 E0.014
G1 X59.946 Y123.118 E0.272
G1 X59.381 E0.015
G1 X67.101 Y115.398 E0.272
G1 X66.535 E0.014
G1 X58.815 Y123.118 E0.272
G1 X58.249 E0.015
G1 X65.969 Y115.398 E0.272
G1 X65.404 E0.014
G1 X57.684 Y123.118 E0.272
G1 X57.118 E0.014
G1 X64.838 Y115.398 E0.273
G1 X64.272 E0.014
G1 X56.552 Y123.118 E0.272
G1 X55.987 E0.014
G1 X63.707 Y115.398 E0.273
G1 X63.141 E0.014
G1 X55.421 Y123.118 E0.272
G1 X54.855 E0.014
G1 X62.575 Y115.398 E0.273
G1 X62.009 E0.014
G1 X54.289 Y123.118 E0.272
G1 X53.729 E0.014
G1 Y123.113
G1 X61.444 Y115.398 E0.272
G1 X60.878 E0.014
G1 X53.729 Y122.547 E0.253
G1 Y121.981 E0.014
G1 X60.312 Y115.398 E0.232
G1 X59.747 E0.014
G1 X53.729 Y121.415 E0.212
G1 Y120.85 E0.014
G1 X59.181 Y115.398 E0.193
G1 X58.615 E0.014
G1 X53.729 Y120.284 E0.172
G1 X53.73 Y119.718 E0.014
G1 X58.05 Y115.398 E0.153
G1 X57.484 E0.014
G1 X53.73 Y119.152 E0.132
G1 Y118.587 E0.014
G1 X56.918 Y115.398 E0.113
G1 X56.353 E0.014
G1 X53.73 Y118.021 E0.093
G1 Y117.455 E0.014
G1 X55.787 Y115.398 E0.072
G1 X55.221 E0.014
G1 X53.73 Y116.889 E0.053
G1 Y116.324 E0.014
G1 X54.656 Y115.398 E0.033
G1 X54.09 E0.014
G1 X53.73 Y115.758 E0.013
;rapid-leaky
G0 X53.33 Y117.55 F7200
;bead-sparse_infill
G1 X52.816 Y117.429 F3600 E0.013
G1 X52.529 Y117.485 E0.007
G1 Y121.769 E0.107
G1 X52.816 Y121.701 E0.007
G1 X53.329 Y121.802 E0.013
G1 F2700 E-7
;LAYER:14
;rapid-leaky
G0 X54.13 Y115.798 Z2.15 F7200
G1 F2700 E7
;bead-perimeter_outer
G1 X54.129 Y123.798 F1800 E0.2
G1 X51.699 E0.06
G1 X51.7 Y95.198 E0.714
G1 X75.496 E0.593
G1 Y123.798 E0.714
G1 X73.067 E0.061
G1 X73.068 Y115.798 E0.199
G1 X54.13 E0.472
;rapid-leaky
G0 X53.77 Y115.438 F7200
;bead-perimeter_inner
G1 X53.769 Y123.438 F2400 E0.2
G1 X52.059 E0.043
G1 X52.06 Y95.558 E0.695
G1 X75.136 E0.576
G1 Y123.438 E0.695
G1 X73.427 E0.043
G1 X73.428 Y115.438 E0.199
G1 X53.77 E0.491
;rapid-leaky
G0 X58.4 Y107.707 F7200
;bead-perimeter_outer
G1 X68.8 Y107.708 F1800 E0.259
G1 Y97.308 E0.26
G1 X58.4 E0.259
G1 Y107.707 E0.26
;rapid-leaky
G0 X58.04 Y108.067 F7200
;bead-perimeter_inner
G1 X69.16 Y108.068 F2400 E0.277
G1 Y96.948 E0.277
G1 X58.04 E0.278
G1 Y108.067 E0.277
;rapid-leaky
G0 X57.72 Y106.574 F7200
;bead-sparse_infill
G1 X57.088 Y106.75 F3600 E0.016
G1 X56.02 Y106.584 E0.027
G1 X54.952 Y105.794 E0.034
G1 X53.884 Y104.906 E0.034
G1 X52.816 Y104.609 E0.028
G1 X52.38 Y104.676 E0.011
G1 Y100.458 E0.105
G1 X52.816 Y100.336 E0.011
G1 X53.884 Y100.502 E0.027
G1 X54.952 Y101.293 E0.033
G1 X56.02 Y102.18 E0.035
G1 X57.088 Y102.477 E0.028
G1 X57.72 Y102.38 E0.016
G1 X52.38 Y96.131 E0.205
G1 X52.816 Y96.064 E0.011
G1 X53.884 Y96.361 E0.027
G1 X54.952 Y97.248 E0.035
G1 X56.02 Y98.039 E0.033
G1 X57.088 Y98.205 E0.027
G1 X57.72 Y98.029 E0.017
G1 Y96.628 E0.034
G1 X59.754 E0.051
G1 X60.293 Y96.229 E0.017
G1 X61.361 Y96.064 E0.027
G1 X62.429 Y96.361 E0.028
G1 X62.751 Y96.628 E0.01
G1 X68.299 E0.138
G1 X68.838 Y96.229 E0.017
G1 X69.906 Y96.064 E0.027
G1 X70.974 Y96.361 E0.028
G1 X72.042 Y97.248 E0.034
G1 X73.11 Y98.039 E0.034
G1 X74.179 Y98.205 E0.027
G1 X74.816 Y98.028 E0.016
G1 Y102.379 E0.109
G1 X74.179 Y102.477 E0.016
G1 X73.11 Y102.18 E0.027
G1 X72.042 Y101.293 E0.035
G1 X70.974 Y100.502 E0.033
G1 X69.906 Y100.336 E0.027
G1 X69.48 Y100.455 E0.011
G1 Y104.675 E0.105
G1 X69.906 Y104.609 E0.011
G1 X70.974 Y104.906 E0.028
G1 X72.042 Y105.794 E0.034
G1 X73.11 Y106.584 E0.034
G1 X74.179 Y106.75 E0.027
G1 X74.816 Y106.573 E0.016
G1 Y110.924 E0.109
G1 X74.179 Y111.023 E0.016
G1 X73.11 Y110.726 E0.027
G1 X72.042 Y109.838 E0.035
G1 X70.974 Y109.047 E0.033
G1 X69.906 Y108.881 E0.027
G1 X68.838 Y109.178 E0.028
G1 X67.77 Y110.066 E0.034
G1 X66.702 Y110.857 E0.034
G1 X65.633 Y111.023 E0.026
G1 X64.565 Y110.726 E0.028
G1 X63.497 Y109.838 E0.035
G1 X62.429 Y109.047 E0.033
G1 X61.361 Y108.881 E0.027
G1 X60.293 Y109.178 E0.028
G1 X59.225 Y110.066 E0.034
G1 X58.156 Y110.857 E0.033
G1 X57.088 Y111.023 E0.027
G1 X56.02 Y110.726 E0.028
G1 X54.952 Y109.838 E0.035
G1 X53.884 Y109.047 E0.033
G1 X52.816 Y108.881 E0.027
G1 X52.38 Y109.003 E0.011
G1 X52.379 Y113.222 E0.105
G1 X52.816 Y113.154 E0.011
G1 X53.884 Y113.451 E0.028
G1 X54.952 Y114.339 E0.035
G1 X56.004 Y115.118 E0.032
G1 X57.725 E0.043
G1 X58.156 Y114.998 E0.011
G1 X59.225 Y114.11 E0.035
G1 X60.293 Y113.319 E0.033
G1 X61.361 Y113.154 E0.027
G1 X62.429 Y113.451 E0.028
G1 X63.497 Y114.339 E0.034
G1 X64.55 Y115.118 E0.033
G1 X66.27 E0.043
G1 X66.702 Y114.998 E0.011
G1 X67.77 Y114.11 E0.035
G1 X68.838 Y113.319 E0.033
G1 X69.906 Y113.154 E0.027
G1 X70.974 Y113.451 E0.028
G1 X72.042 Y114.339 E0.034
G1 X73.095 Y115.118 E0.033
G1 X73.748 E0.016
G1 Y115.228 E0.003
G1 X74.179 Y115.295 E0.011
G1 X74.816 Y115.118 E0.016
G1 Y119.469 E0.109
G1 X74.179 Y119.568 E0.016
G1 X73.748 Y119.448 E0.011
G1 F2700 E-7
;rapid-dry
G0 X53.45 Y117.525 F7200
G1 F2700 E7
;bead-sparse_infill
G1 X52.816 Y117.427 F3600 E0.016
G1 X52.379 Y117.548 E0.011
G1 Y121.767 E0.106
G1 X52.816 Y121.699 E0.011
G1 X53.449 Y121.875 E0.016
G1 F2700 E-7
;rapid-dry
G0 X155.498 Y124.8 F7200
G1 F2700 E7
;bead-perimeter_outer
G1 X131.702 F1800 E0.594
G1 Y124.2 E0.015
G1 X155.498 E0.593
G1 Y124.8 E0.015
G1 F2700 E-7
;LAYER:15
;rapid-leaky
G0 X155.648 Z2.3 F7200
G1 F2700 E7
;bead-perimeter_outer
G1 X131.552 F1800 E0.601
G1 Y124.2 E0.015
G1 X155.648 E0.601
G1 Y124.8 E0.015
G1 F2700 E-7
;rapid-dry
G0 X58.4 Y107.707 F7200
G1 F2700 E7
;bead-perimeter_outer
G1 X68.8 Y107.708 F1800 E0.26
G1 Y97.308 E0.259
G1 X58.4 E0.26
G1 Y107.707 E0.259
;rapid-leaky
G0 X58.04 Y108.067 F7200
;bead-perimeter_inner
G1 X69.16 Y108.068 F2400 E0.277
G1 Y96.948 E0.278
G1 X58.04 E0.277
G1 Y108.067 E0.278
;rapid-leaky
G0 X53.98 Y115.798 F7200
;bead-perimeter_outer
G1 X53.979 Y123.798 F1800 E0.199
G1 X51.549 E0.061
G1 X51.55 Y95.198 E0.713
G1 X75.646 E0.601
G1 Y123.798 E0.714
G1 X73.217 E0.06
G1 X73.218 Y115.798 E0.2
G1 X53.98 E0.48
;rapid-leaky
G0 X53.62 Y115.438 F7200
;bead-perimeter_inner
G1 X53.619 Y123.438 F2400 E0.199
G1 X51.909 E0.043
G1 X51.91 Y95.558 E0.695
G1 X75.286 E0.583
G1 Y123.438 E0.696
G1 X73.577 E0.043
G1 X73.578 Y115.438 E0.199
G1 X53.62 E0.498
;rapid-leaky
G0 X53.299 Y121.863 F7200
;bead-sparse_infill
G1 X52.816 Y121.689 F3600 E0.013
G1 X52.229 Y121.732 E0.014
G1 Y117.628 E0.103
G1 X52.816 Y117.416 E0.015
G1 X53.3 Y117.452 E0.013
;rapid-leaky
G0 X57.72 Y106.533 F7200
;bead-sparse_infill
G1 X57.088 Y106.76 F3600 E0.016
G1 X56.02 Y106.682 E0.027
G1 X54.952 Y105.948 E0.032
G1 X53.884 Y104.984 E0.036
G1 X52.816 Y104.598 E0.029
G1 X52.23 Y104.641 E0.014
G1 Y100.537 E0.103
G1 X52.816 Y100.326 E0.015
G1 X53.884 Y100.404 E0.027
G1 X54.952 Y101.138 E0.032
G1 X56.02 Y102.103 E0.036
G1 X57.088 Y102.488 E0.028
G1 X57.72 Y102.442 E0.016
G1 X52.23 Y96.096 E0.21
G1 X52.816 Y96.053 E0.014
G1 X53.884 Y96.439 E0.028
G1 X54.952 Y97.403 E0.036
G1 X56.02 Y98.137 E0.033
G1 X57.088 Y98.215 E0.026
G1 X57.72 Y97.987 E0.017
G1 Y96.628 E0.034
G1 X59.57 E0.046
G1 X60.293 Y96.132 E0.022
G1 X61.361 Y96.053 E0.027
G1 X62.429 Y96.439 E0.028
G1 X62.639 Y96.628 E0.007
G1 X68.115 E0.137
G1 X68.838 Y96.132 E0.022
G1 X69.906 Y96.053 E0.026
G1 X70.974 Y96.439 E0.029
G1 X72.042 Y97.403 E0.036
G1 X73.11 Y98.137 E0.032
G1 X74.179 Y98.215 E0.027
G1 X74.966 Y97.931 E0.021
G1 Y102.43 E0.112
G1 X74.179 Y102.488 E0.019
G1 X73.11 Y102.103 E0.029
G1 X72.042 Y101.138 E0.036
G1 X70.974 Y100.404 E0.032
G1 X69.906 Y100.326 E0.027
G1 X69.48 Y100.48 E0.011
G1 Y104.63 E0.104
G1 X69.906 Y104.598 E0.01
G1 X70.974 Y104.984 E0.029
G1 X72.042 Y105.948 E0.035
G1 X73.11 Y106.682 E0.033
G1 X74.179 Y106.76 E0.026
G1 X74.966 Y106.476 E0.021
G1 Y110.975 E0.113
G1 X74.179 Y111.033 E0.019
G1 X73.11 Y110.648 E0.029
G1 X72.042 Y109.683 E0.036
G1 X70.974 Y108.949 E0.032
G1 X69.906 Y108.871 E0.027
G1 X68.838 Y109.256 E0.028
G1 X67.77 Y110.221 E0.036
G1 X66.702 Y110.955 E0.032
G1 X65.633 Y111.033 E0.027
G1 X64.565 Y110.648 E0.028
G1 X63.497 Y109.683 E0.036
G1 X62.429 Y108.949 E0.032
G1 X61.361 Y108.871 E0.027
G1 X60.293 Y109.256 E0.028
G1 X59.225 Y110.221 E0.036
G1 X58.156 Y110.955 E0.033
G1 X57.088 Y111.033 E0.026
G1 X56.02 Y110.648 E0.029
G1 X54.952 Y109.683 E0.036
G1 X53.884 Y108.949 E0.032
G1 X52.816 Y108.871 E0.027
G1 X52.23 Y109.082 E0.015
G1 X52.229 Y113.186 E0.103
G1 X52.816 Y113.144 E0.014
G1 X53.884 Y113.529 E0.029
G1 X54.952 Y114.493 E0.035
G1 X55.861 Y115.118 E0.028
G1 X57.608 E0.044
G1 X58.156 Y114.92 E0.014
G1 X59.225 Y113.956 E0.036
G1 X60.293 Y113.222 E0.032
G1 X61.361 Y113.144 E0.027
G1 X62.429 Y113.529 E0.028
G1 X63.497 Y114.493 E0.036
G1 X64.406 Y115.118 E0.028
G1 X66.153 E0.043
G1 X66.702 Y114.92 E0.015
G1 X67.77 Y113.956 E0.036
G1 X68.838 Y113.222 E0.032
G1 X69.906 Y113.144 E0.027
G1 X70.974 Y113.529 E0.028
G1 X72.042 Y114.493 E0.036
G1 X72.951 Y115.118 E0.028
G1 X73.898 E0.023
G1 Y115.285 E0.004
G1 X74.179 Y115.306 E0.007
G1 X74.966 Y115.021 E0.021
G1 Y119.52 E0.112
G1 X74.179 Y119.578 E0.02
G1 X73.898 Y119.477 E0.008
G1 F2700 E-7
;LAYER:16
;rapid-dry
G0 X68.8 Y97.308 Z2.45 F7200
G1 F2700 E7
;bead-perimeter_outer
G1 X58.4 F1800 E0.259
G1 Y107.707 E0.259
G1 X68.8 Y107.708 E0.26
G1 Y97.308 E0.259
;rapid-leaky
G0 X69.16 Y96.948 F7200
;bead-perimeter_inner
G1 X58.04 F2400 E0.278
G1 Y108.067 E0.277
G1 X69.16 Y108.068 E0.277
G1 Y96.948 E0.278
;rapid-leaky
G0 X75.796 Y95.198 F7200
;bead-perimeter_outer
G1 Y123.798 F1800 E0.713
G1 X73.367 E0.061
G1 X73.368 Y115.798 E0.199
G1 X53.83 E0.488
G1 X53.829 Y123.798 E0.199
G1 X51.399 E0.061
G1 X51.4 Y95.198 E0.713
G1 X75.796 E0.609
;rapid-leaky
G0 X75.436 Y95.558 F7200
;bead-perimeter_inner
G1 Y123.438 F2400 E0.695
G1 X73.727 E0.043
G1 X73.728 Y115.438 E0.2
G1 X53.47 E0.505
G1 X53.469 Y123.438 E0.2
G1 X51.759 E0.042
G1 X51.76 Y95.558 E0.696
G1 X75.436 E0.59
;rapid-leaky
G0 X74.048 Y119.539 F7200
;bead-sparse_infill
G1 X74.179 Y119.597 F3600 E0.004
G1 X75.116 Y119.607 E0.023
G1 Y114.906 E0.118
G1 X74.179 Y115.325 E0.025
G1 X74.048 Y115.326 E0.003
G1 Y115.118 E0.006
G1 X72.767 E0.032
G1 X72.042 Y114.659 E0.021
G1 X70.974 Y113.601 E0.037
G1 X69.906 Y113.124 E0.03
G1 X68.838 Y113.113 E0.026
G1 X67.77 Y113.79 E0.032
G1 X66.702 Y114.848 E0.037
G1 X66.097 Y115.118 E0.017
G1 X64.222 E0.047
G1 X63.497 Y114.659 E0.021
G1 X62.429 Y113.601 E0.037
G1 X61.361 Y113.124 E0.03
G1 X60.293 Y113.113 E0.026
G1 X59.225 Y113.79 E0.032
G1 X58.156 Y114.848 E0.037
G1 X57.551 Y115.118 E0.017
G1 X55.676 E0.047
G1 X54.952 Y114.659 E0.021
G1 X53.884 Y113.601 E0.038
G1 X52.816 Y113.124 E0.029
G1 X52.079 Y113.117 E0.018
G1 X52.08 Y109.18 E0.098
G1 X52.816 Y108.852 E0.02
G1 X53.884 Y108.841 E0.027
G1 X54.952 Y109.518 E0.032
G1 X56.02 Y110.576 E0.037
G1 X57.088 Y111.052 E0.029
G1 X58.156 Y111.063 E0.027
G1 X59.225 Y110.386 E0.031
G1 X60.293 Y109.328 E0.038
G1 X61.361 Y108.852 E0.029
G1 X62.429 Y108.841 E0.027
G1 X63.497 Y109.518 E0.031
G1 X64.565 Y110.576 E0.038
G1 X65.633 Y111.052 E0.029
G1 X66.702 Y111.063 E0.027
G1 X67.77 Y110.386 E0.031
G1 X68.838 Y109.328 E0.038
G1 X69.906 Y108.852 E0.029
G1 X70.974 Y108.841 E0.027
G1 X72.042 Y109.518 E0.031
G1 X73.11 Y110.576 E0.038
G1 X74.179 Y111.052 E0.029
G1 X75.116 Y111.062 E0.023
G1 Y106.361 E0.117
G1 X74.179 Y106.78 E0.026
G1 X73.11 Y106.791 E0.027
G1 X72.042 Y106.114 E0.031
G1 X70.974 Y105.056 E0.038
G1 X69.906 Y104.579 E0.029
G1 X69.48 Y104.575 E0.01
G1 Y100.497 E0.102
G1 X69.906 Y100.307 E0.012
G1 X70.974 Y100.296 E0.026
G1 X72.042 Y100.973 E0.032
G1 X73.11 Y102.03 E0.038
G1 X74.179 Y102.507 E0.029
G1 X75.116 Y102.517 E0.023
G1 Y97.816 E0.117
G1 X74.179 Y98.234 E0.026
G1 X73.11 Y98.246 E0.027
G1 X72.042 Y97.569 E0.031
G1 X70.974 Y96.511 E0.038
G1 X69.906 Y96.034 E0.029
G1 X68.838 Y96.023 E0.026
G1 X67.883 Y96.628 E0.029
G1 X62.547 E0.133
G1 X62.429 Y96.511 E0.004
G1 X61.361 Y96.034 E0.029
G1 X60.293 Y96.023 E0.027
G1 X59.338 Y96.628 E0.028
G1 X57.72 E0.04
G1 Y97.953 E0.033
G1 X57.088 Y98.234 E0.018
G1 X56.02 Y98.246 E0.026
G1 X54.952 Y97.569 E0.032
G1 X53.884 Y96.511 E0.037
G1 X52.816 Y96.034 E0.029
G1 X52.08 Y96.026 E0.019
;rapid-leaky
G0 X53.149 Y121.818 F7200
;bead-sparse_infill
G1 X52.816 Y121.67 F3600 E0.009
G1 X52.079 Y121.662 E0.018
G1 Y117.726 E0.099
G1 X52.816 Y117.397 E0.02
G1 X53.15 Y117.394 E0.008
;rapid-leaky
G0 X57.72 Y106.498 F7200
;bead-sparse_infill
G1 X57.088 Y106.78 F3600 E0.017
G1 X56.02 Y106.791 E0.027
G1 X54.952 Y106.114 E0.031
G1 X53.884 Y105.056 E0.038
G1 X52.816 Y104.579 E0.029
G1 X52.08 Y104.572 E0.018
G1 Y100.635 E0.099
G1 X52.816 Y100.307 E0.02
G1 X53.884 Y100.296 E0.026
G1 X54.952 Y100.973 E0.032
G1 X56.02 Y102.03 E0.037
G1 X57.088 Y102.507 E0.03
G1 X57.72 Y102.514 E0.015
G1 F2700 E-7
;rapid-dry
G0 X155.798 Y124.2 F7200
G1 F2700 E7
;bead-perimeter_outer
G1 Y124.8 F1800 E0.015
G1 X131.402 E0.609
G1 Y124.2 E0.015
G1 X155.798 E0.608
G1 F2700 E-7
;LAYER:17
;rapid-dry
G0 X134.646 Z2.6 F7200
G1 F2700 E7
;bead-perimeter_outer
G1 Y123.2 F1800 E0.025
G1 X134.794 E0.004
G1 Y116.2 E0.175
G1 X152.406 E0.439
G1 Y123.2 E0.175
G1 X152.554 E0.003
G1 Y124.2 E0.025
G1 X155.948 E0.085
G1 Y124.8 E0.015
G1 X131.252 E0.616
G1 Y124.2 E0.015
G1 X134.646 E0.085
G1 F2700 E-7
;rapid-dry
G0 X135.006 Y124.44 F7200
G1 F2700 E7
;bead-perimeter_inner
G1 Y123.56 F2400 E0.022
G1 X135.154 E0.003
G1 Y116.56 E0.175
G1 X152.046 E0.421
G1 Y123.56 E0.175
G1 X152.194 E0.004
G1 Y124.44 E0.021
G1 X135.006 E0.429
G1 F2700 E-7
;rapid-dry
G0 X152.674 Y124.294 F7200
G1 F2700 E7
;bead-solid_infill
G1 X152.168 Y124.8 F1800 E0.018
G1 X151.602 E0.014
G1 X152.554 Y123.848 E0.034
G1 Y123.283 E0.014
G1 X151.037 Y124.8 E0.053
G1 X150.471 E0.014
G1 X152.406 Y122.865 E0.069
G1 Y122.299 E0.014
G1 X149.905 Y124.8 E0.088
G1 X149.34 E0.014
G1 X152.406 Y121.734 E0.108
G1 Y121.168 E0.014
G1 X148.774 Y124.8 E0.129
G1 X148.208 E0.014
G1 X152.406 Y120.602 E0.148
G1 Y120.037 E0.014
G1 X147.643 Y124.8 E0.168
G1 X147.077 E0.014
G1 X152.406 Y119.471 E0.188
G1 Y118.905 E0.014
G1 X146.511 Y124.8 E0.208
G1 X145.946 E0.014
G1 X152.406 Y118.34 E0.228
G1 Y117.774 E0.014
G1 X145.38 Y124.8 E0.248
G1 X144.814 E0.014
G1 X152.406 Y117.208 E0.268
G1 Y116.643 E0.014
G1 X144.249 Y124.8 E0.288
G1 X143.683 E0.014
G1 X152.283 Y116.2 E0.303
G1 X151.717 E0.015
G1 X143.117 Y124.8 E0.303
G1 X142.551 E0.014
G1 X151.151 Y116.2 E0.303
G1 X150.586 E0.015
G1 X141.986 Y124.8 E0.303
G1 X141.42 E0.014
G1 X150.02 Y116.2 E0.303
G1 X149.454 E0.015
G1 X140.854 Y124.8 E0.303
G1 X140.289 E0.014
G1 X148.889 Y116.2 E0.303
G1 X148.323 E0.015
G1 X139.723 Y124.8 E0.303
G1 X139.157 E0.014
G1 X147.757 Y116.2 E0.303
G1 X147.192 E0.015
G1 X138.592 Y124.8 E0.303
G1 X138.026 E0.014
G1 X146.626 Y116.2 E0.303
G1 X146.06 E0.015
G1 X137.46 Y124.8 E0.303
G1 X136.895 E0.014
G1 X145.495 Y116.2 E0.303
G1 X144.929 E0.015
G1 X136.329 Y124.8 E0.303
G1 X135.763 E0.014
G1 X144.363 Y116.2 E0.303
G1 X143.798 E0.015
G1 X135.198 Y124.8 E0.303
G1 X134.632 E0.014
G1 X143.232 Y116.2 E0.303
G1 X142.666 E0.015
G1 X134.526 Y124.34 E0.287
G1 Y124.2 E0.003
G1 X134.646 E0.003
G1 Y123.655 E0.014
G1 X142.1 Y116.2 E0.263
G1 X141.535 E0.014
G1 X134.794 Y122.941 E0.238
G1 Y122.375 E0.014
G1 X140.969 Y116.2 E0.218
G1 X140.403 E0.014
G1 X134.794 Y121.809 E0.198
G1 Y121.244 E0.014
G1 X139.838 Y116.2 E0.178
G1 X139.272 E0.014
G1 X134.794 Y120.678 E0.158
G1 Y120.112 E0.014
G1 X138.706 Y116.2 E0.138
G1 X138.141 E0.014
G1 X134.794 Y119.547 E0.118
G1 Y118.981 E0.014
G1 X137.575 Y116.2 E0.098
G1 X137.009 E0.014
G1 X134.794 Y118.415 E0.079
G1 Y117.85 E0.014
G1 X136.444 Y116.2 E0.058
G1 X135.878 E0.014
G1 X134.794 Y117.284 E0.038
G1 Y116.718 E0.014
G1 X135.312 Y116.2 E0.019
G1 F2700 E-7
;rapid-dry
G0 X58.4 Y97.308 F7200
G1 F2700 E7
;bead-perimeter_outer
G1 Y107.707 F1800 E0.259
G1 X68.8 Y107.708 E0.259
G1 Y97.308 E0.26
G1 X58.4 E0.259
;rapid-leaky
G0 X58.04 Y96.948 F7200
;bead-perimeter_inner
G1 Y108.067 F2400 E0.278
G1 X69.16 Y108.068 E0.277
G1 Y96.948 E0.277
G1 X58.04 E0.278
;rapid-leaky
G0 X51.25 Y95.198 F7200
;bead-perimeter_outer
G1 X75.946 F1800 E0.616
G1 Y123.798 E0.713
G1 X73.517 E0.061
G1 X73.518 Y115.798 E0.199
G1 X53.68 E0.495
G1 X53.679 Y123.798 E0.2
G1 X51.249 E0.06
G1 X51.25 Y95.198 E0.714
;rapid-leaky
G0 X51.61 Y95.558 F7200
;bead-perimeter_inner
G1 X75.586 F2400 E0.598
G1 Y123.438 E0.695
G1 X73.877 E0.043
G1 X73.878 Y115.438 E0.2
G1 X53.32 E0.513
G1 X53.319 Y123.438 E0.199
G1 X51.609 E0.043
G1 X51.61 Y95.558 E0.695
;rapid-leaky
G0 X51.93 Y95.919 F7200
;bead-sparse_infill
G1 X52.816 Y96.006 F3600 E0.022
G1 X53.884 Y96.578 E0.031
G1 X54.952 Y97.754 E0.039
G1 X56.02 Y98.367 E0.031
G1 X57.088 Y98.263 E0.027
G1 X57.72 Y97.924 E0.018
G1 Y96.628 E0.032
G1 X59.122 E0.035
G1 X59.225 Y96.515 E0.004
G1 X60.293 Y95.901 E0.03
G1 X61.361 Y96.006 E0.027
G1 X62.429 Y96.578 E0.03
G1 X62.474 Y96.628 E0.002
G1 X67.667 E0.13
G1 X67.77 Y96.515 E0.003
G1 X68.838 Y95.901 E0.031
G1 X69.906 Y96.006 E0.027
G1 X70.974 Y96.578 E0.03
G1 X72.042 Y97.754 E0.04
G1 X73.11 Y98.367 E0.031
G1 X74.179 Y98.263 E0.026
G1 X75.247 Y97.691 E0.031
G1 X75.266 Y97.669
G1 Y102.629 E0.124
G1 X75.247 Y102.64 E0.001
G1 X74.179 Y102.535 E0.026
G1 X73.11 Y101.963 E0.031
G1 X72.042 Y100.787 E0.039
G1 X70.974 Y100.174 E0.031
G1 X69.906 Y100.279 E0.027
G1 X69.48 Y100.507 E0.012
G1 Y104.509 E0.1
G1 X69.906 Y104.551 E0.01
G1 X70.974 Y105.123 E0.03
G1 X72.042 Y106.299 E0.04
G1 X73.11 Y106.912 E0.031
G1 X74.179 Y106.808 E0.027
G1 X75.247 Y106.236 E0.03
G1 X75.266 Y106.214 E0.001
G1 Y111.174 E0.123
G1 X75.247 Y111.185 E0.001
G1 X74.179 Y111.08 E0.027
G1 X73.11 Y110.508 E0.03
G1 X72.042 Y109.332 E0.039
G1 X70.974 Y108.719 E0.031
G1 X69.906 Y108.824 E0.027
G1 X68.838 Y109.396 E0.03
G1 X67.77 Y110.572 E0.04
G1 X66.702 Y111.185 E0.03
G1 X65.633 Y111.08 E0.027
G1 X64.565 Y110.508 E0.03
G1 X63.497 Y109.332 E0.04
G1 X62.429 Y108.719 E0.031
G1 X61.361 Y108.824 E0.027
G1 X60.293 Y109.396 E0.03
G1 X59.225 Y110.572 E0.039
G1 X58.156 Y111.185 E0.031
G1 X57.088 Y111.08 E0.027
G1 X56.02 Y110.508 E0.03
G1 X54.952 Y109.332 E0.04
G1 X53.884 Y108.719 E0.031
G1 X52.816 Y108.824 E0.026
G1 X51.93 Y109.298 E0.025
G1 X51.929 Y113.009 E0.093
G1 X52.816 Y113.096 E0.022
G1 X53.884 Y113.668 E0.03
G1 X54.952 Y114.844 E0.04
G1 X55.429 Y115.118 E0.014
G1 X57.527 E0.052
G1 X58.156 Y114.781 E0.018
G1 X59.225 Y113.605 E0.04
G1 X60.293 Y112.992 E0.03
G1 X61.361 Y113.096 E0.027
G1 X62.429 Y113.668 E0.03
G1 X63.497 Y114.844 E0.04
G1 X63.974 Y115.118 E0.014
G1 X66.072 E0.052
G1 X66.702 Y114.781 E0.018
G1 X67.77 Y113.605 E0.039
G1 X68.838 Y112.992 E0.031
G1 X69.906 Y113.096 E0.027
G1 X70.974 Y113.668 E0.03
G1 X72.042 Y114.844 E0.04
G1 X72.519 Y115.118 E0.013
G1 X74.198 E0.042
G1 Y115.342 E0.006
G1 X75.247 Y114.781 E0.03
G1 X75.266 Y114.76
G1 Y119.719 E0.124
G1 X75.247 Y119.73 E0.001
G1 X74.198 Y119.627 E0.026
G1 F2700 E-7
;rapid-dry
G0 X57.72 Y102.597 F7200
G1 F2700 E7
;bead-sparse_infill
G1 X57.088 Y102.535 F3600 E0.016
G1 X56.02 Y101.963 E0.03
G1 X54.952 Y100.787 E0.04
G1 X53.884 Y100.174 E0.03
G1 X52.816 Y100.279 E0.027
G1 X51.93 Y100.753 E0.025
G1 Y104.464 E0.093
G1 X52.816 Y104.551 E0.022
G1 X53.884 Y105.123 E0.03
G1 X54.952 Y106.299 E0.04
G1 X56.02 Y106.912 E0.03
G1 X57.088 Y106.808 E0.027
G1 X57.72 Y106.469 E0.018
;rapid-leaky
G0 X53 Y117.351 F7200
;bead-sparse_infill
G1 X52.816 Y117.369 F3600 E0.005
G1 X51.929 Y117.844 E0.025
G1 Y121.555 E0.092
G1 X52.816 Y121.641 E0.023
G1 X52.999 Y121.74 E0.005
G1 F2700 E-7
;LAYER:18
;rapid-leaky
G0 X53.53 Y115.798 Z2.75 F7200
G1 F2700 E7
;bead-perimeter_outer
G1 X53.529 Y123.798 F1800 E0.199
G1 X51.099 E0.061
G1 X51.1 Y95.198 E0.713
G1 X76.096 E0.624
G1 Y123.798 E0.713
G1 X73.667 E0.061
G1 X73.668 Y115.798 E0.2
G1 X53.53 E0.502
;rapid-leaky
G0 X53.17 Y115.438 F7200
;bead-perimeter_inner
G1 X53.169 Y123.438 F2400 E0.199
G1 X51.459 E0.043
G1 X51.46 Y95.558 E0.696
G1 X75.736 E0.605
G1 Y123.438 E0.696
G1 X74.027 E0.042
G1 X74.028 Y115.438 E0.2
G1 X53.17 E0.52
;rapid-leaky
G0 X58.4 Y107.707 F7200
;bead-perimeter_outer
G1 X68.8 Y107.708 F1800 E0.26
G1 Y97.308 E0.259
G1 X58.4 E0.259
G1 Y107.707 E0.26
;rapid-leaky
G0 X58.04 Y108.067 F7200
;bead-perimeter_inner
G1 X69.16 Y108.068 F2400 E0.277
G1 Y96.948 E0.278
G1 X58.04 E0.277
G1 Y108.067 E0.277
;rapid-leaky
G0 X57.72 Y106.447 F7200
;bead-sparse_infill
G1 X57.088 Y106.845 F3600 E0.019
G1 X56.02 Y107.05 E0.027
G1 X54.952 Y106.519 E0.03
G1 X53.884 Y105.186 E0.042
G1 X52.816 Y104.513 E0.032
G1 X51.78 Y104.315 E0.026
G1 Y100.894 E0.086
G1 X52.816 Y100.241 E0.03
G1 X53.884 Y100.036 E0.027
G1 X54.952 Y100.567 E0.03
G1 X56.02 Y101.9 E0.043
G1 X57.088 Y102.573 E0.031
G1 X57.72 Y102.694 E0.016
G1 X52.344 Y95.878 E0.217
G1 X52.816 Y95.968 E0.012
G1 X53.884 Y96.641 E0.031
G1 X54.952 Y97.974 E0.043
G1 X56.02 Y98.505 E0.03
G1 X57.088 Y98.3 E0.027
G1 X57.72 Y97.902 E0.018
G1 Y96.628 E0.032
G1 X58.957 E0.031
G1 X59.225 Y96.295 E0.011
G1 X60.063 Y95.878 E0.023
G1 X60.889 E0.021
G1 X61.361 Y95.968 E0.012
G1 X62.408 Y96.628 E0.03
G1 X67.502 E0.127
G1 X67.77 Y96.295 E0.011
G1 X68.608 Y95.878 E0.024
G1 X69.434 E0.02
G1 X69.906 Y95.968 E0.012
G1 X70.974 Y96.641 E0.032
G1 X72.042 Y97.974 E0.042
G1 X73.11 Y98.505 E0.03
G1 X74.179 Y98.3 E0.027
G1 X75.247 Y97.627 E0.032
G1 X75.416 Y97.416 E0.006
G1 Y102.693 E0.132
G1 X75.247 Y102.777 E0.005
G1 X74.179 Y102.573 E0.027
G1 X73.11 Y101.9 E0.031
G1 X72.042 Y100.567 E0.043
G1 X70.974 Y100.036 E0.03
G1 X69.906 Y100.241 E0.027
G1 X69.48 Y100.509 E0.012
G1 Y104.432 E0.098
G1 X69.906 Y104.513 E0.011
G1 X70.974 Y105.186 E0.031
G1 X72.042 Y106.519 E0.043
G1 X73.11 Y107.05 E0.03
G1 X74.179 Y106.845 E0.027
G1 X75.247 Y106.172 E0.031
G1 X75.416 Y105.961 E0.007
G1 Y111.238 E0.132
G1 X75.247 Y111.322 E0.005
G1 X74.179 Y111.118 E0.027
G1 X73.11 Y110.445 E0.031
G1 X72.042 Y109.112 E0.043
G1 X70.974 Y108.582 E0.03
G1 X69.906 Y108.786 E0.027
G1 X68.838 Y109.459 E0.031
G1 X67.77 Y110.792 E0.043
G1 X66.702 Y111.322 E0.03
G1 X65.633 Y111.118 E0.027
G1 X64.565 Y110.445 E0.031
G1 X63.497 Y109.112 E0.043
G1 X62.429 Y108.582 E0.03
G1 X61.361 Y108.786 E0.027
G1 X60.293 Y109.459 E0.031
G1 X59.225 Y110.792 E0.043
G1 X58.156 Y111.322 E0.029
G1 X57.088 Y111.118 E0.028
G1 X56.02 Y110.445 E0.031
G1 X54.952 Y109.112 E0.043
G1 X53.884 Y108.582 E0.029
G1 X52.816 Y108.786 E0.028
G1 X51.78 Y109.439 E0.03
G1 X51.779 Y112.86 E0.085
G1 X52.816 Y113.058 E0.027
G1 X53.884 Y113.732 E0.031
G1 X54.952 Y115.064 E0.043
G1 X55.06 Y115.118 E0.003
G1 X57.521 E0.061
G1 X58.156 Y114.718 E0.019
G1 X59.225 Y113.385 E0.043
G1 X60.293 Y112.854 E0.029
G1 X61.361 Y113.058 E0.028
G1 X62.429 Y113.732 E0.031
G1 X63.497 Y115.064 E0.043
G1 X63.605 Y115.118 E0.003
G1 X66.066 E0.061
G1 X66.702 Y114.718 E0.019
G1 X67.77 Y113.385 E0.042
G1 X68.838 Y112.854 E0.03
G1 X69.906 Y113.058 E0.027
G1 X70.974 Y113.732 E0.032
G1 X72.042 Y115.064 E0.042
G1 X72.15 Y115.118 E0.003
G1 X74.348 E0.055
G1 Y115.284 E0.004
G1 X75.247 Y114.718 E0.027
G1 X75.416 Y114.506 E0.007
G1 Y119.783 E0.131
G1 X75.247 Y119.868 E0.005
G1 X74.348 Y119.696 E0.023
G1 X74.347 Y123.118 E0.085
G1 X75.363 E0.025
G1 X75.416 Y123.051 E0.003
G1 F2700 E-7
;rapid-dry
G0 X52.849 Y121.625 F7200
G1 F2700 E7
;bead-sparse_infill
G1 X52.816 Y121.604 F3600 E0.001
G1 X51.779 Y121.405 E0.026
G1 Y117.984 E0.085
G1 X52.816 Y117.331 E0.031
G1 X52.85 Y117.325 E0.001
G1 F2700 E-7
;rapid-dry
G0 X152.406 Y116.2 F7200
G1 F2700 E7
;bead-perimeter_outer
G1 Y123.2 F1800 E0.174
G1 X152.704 E0.008
G1 Y124.2 E0.025
G1 X156.098 E0.084
G1 Y124.8 E0.015
G1 X131.102 E0.624
G1 Y124.2 E0.015
G1 X134.496 E0.084
G1 Y123.2 E0.025
G1 X134.794 E0.008
G1 Y116.2 E0.174
G1 X152.406 E0.44
;rapid-leaky
G0 X152.046 Y116.56 F7200
;bead-perimeter_inner
G1 Y123.56 F2400 E0.174
G1 X152.344 E0.008
G1 Y124.44 E0.022
G1 X134.856 E0.436
G1 Y123.56 E0.022
G1 X135.154 E0.007
G1 Y116.56 E0.175
G1 X152.046 E0.421
;rapid-leaky
G0 X151.726 Y117.383 F7200
;bead-solid_infill
G1 X151.223 Y116.88 F1800 E0.018
G1 X150.657 E0.014
G1 X151.726 Y117.949 E0.038
G1 Y118.515 E0.014
G1 X150.091 Y116.88 E0.058
G1 X149.526 E0.014
G1 X151.726 Y119.08 E0.078
G1 Y119.646 E0.014
G1 X148.96 Y116.88 E0.097
G1 X148.394 E0.014
G1 X151.726 Y120.212 E0.118
G1 Y120.777 E0.014
G1 X147.829 Y116.88 E0.137
G1 X147.263 E0.015
G1 X151.726 Y121.343 E0.157
G1 Y121.909 E0.014
G1 X146.697 Y116.88 E0.177
G1 X146.132 E0.015
G1 X151.726 Y122.474 E0.197
G1 Y123.04 E0.014
G1 X145.566 Y116.88 E0.217
G1 X145 E0.015
G1 X151.726 Y123.606 E0.237
G1 Y123.88 E0.007
G1 X152 E0.006
G1 X152.024 Y123.904 E0.001
G1 Y124.12 E0.006
G1 X151.674 E0.008
G1 X144.434 Y116.88 E0.256
G1 X143.869 E0.014
G1 X151.109 Y124.12 E0.255
G1 X150.543 E0.014
G1 X143.303 Y116.88 E0.256
G1 X142.737 E0.014
G1 X149.977 Y124.12 E0.255
G1 X149.412 E0.014
G1 X142.172 Y116.88 E0.256
G1 X141.606 E0.014
G1 X148.846 Y124.12 E0.255
G1 X148.28 E0.015
G1 X141.04 Y116.88 E0.255
G1 X140.475 E0.014
G1 X147.715 Y124.12 E0.255
G1 X147.149 E0.015
G1 X139.909 Y116.88 E0.255
G1 X139.343 E0.014
G1 X146.583 Y124.12 E0.256
G1 X146.018 E0.014
G1 X138.778 Y116.88 E0.255
G1 X138.212 E0.014
G1 X145.452 Y124.12 E0.256
G1 X144.886 E0.014
G1 X137.646 Y116.88 E0.255
G1 X137.081 E0.014
G1 X144.321 Y124.12 E0.256
G1 X143.755 E0.014
G1 X136.515 Y116.88 E0.255
G1 X135.949 E0.014
G1 X143.189 Y124.12 E0.256
G1 X142.624 E0.014
G1 X135.474 Y116.971 E0.252
G1 Y117.536 E0.014
G1 X142.058 Y124.12 E0.232
G1 X141.492 E0.014
G1 X135.474 Y118.102 E0.213
G1 Y118.668 E0.014
G1 X140.926 Y124.12 E0.192
G1 X140.361 E0.014
G1 X135.474 Y119.233 E0.173
G1 Y119.799 E0.014
G1 X139.795 Y124.12 E0.152
G1 X139.229 E0.014
G1 X135.474 Y120.365 E0.133
G1 Y120.93 E0.014
G1 X138.664 Y124.12 E0.113
G1 X138.098 E0.014
G1 X135.474 Y121.496 E0.092
G1 Y122.062 E0.014
G1 X137.532 Y124.12 E0.073
G1 X136.967 E0.014
G1 X135.474 Y122.627 E0.053
G1 Y123.193 E0.014
G1 X136.401 Y124.12 E0.032
G1 X135.835 E0.015
G1 X135.474 Y123.759 E0.012
G1 Y123.88 E0.003
G1 X135.176 E0.008
G1 Y124.026 E0.003
G1 X135.27 Y124.12 E0.004
G1 F2700 E-7
;LAYER:19
;rapid-dry
G0 X152.406 Y123.2 Z2.9 F7200
G1 F2700 E7
;bead-perimeter_outer
G1 X152.854 F1800 E0.011
G1 Y124.2 E0.025
G1 X156.248 E0.085
G1 Y124.8 E0.015
G1 X130.952 E0.631
G1 Y124.2 E0.015
G1 X134.346 E0.084
G1 Y123.2 E0.025
G1 X134.794 E0.011
G1 Y116.2 E0.175
G1 X152.406 E0.439
G1 Y123.2 E0.175
;rapid-leaky
G0 X152.494 Y123.56 F7200
;bead-perimeter_inner
G1 Y124.44 F2400 E0.022
G1 X134.706 E0.444
G1 Y123.56 E0.021
G1 X135.154 E0.012
G1 Y116.56 E0.174
G1 X152.046 E0.422
G1 Y123.56 E0.174
G1 X152.494 E0.011
;rapid-leaky
G0 X151.957 Y123.88 F7200
;bead-solid_infill
G1 X151.717 Y124.12 F1800 E0.009
G1 X151.151 E0.014
G1 X151.726 Y123.545 E0.02
G1 Y122.979 E0.014
G1 X150.585 Y124.12 E0.041
G1 X150.02 E0.014
G1 X151.726 Y122.414 E0.06
G1 Y121.848 E0.014
G1 X149.454 Y124.12 E0.08
G1 X148.888 E0.014
G1 X151.726 Y121.282 E0.1
G1 Y120.717 E0.015
G1 X148.323 Y124.12 E0.12
G1 X147.757 E0.014
G1 X151.726 Y120.151 E0.14
G1 Y119.585 E0.014
G1 X147.191 Y124.12 E0.16
G1 X146.626 E0.014
G1 X151.726 Y119.02 E0.18
G1 Y118.454 E0.014
G1 X146.06 Y124.12 E0.2
G1 X145.494 E0.014
