;FLAVOR:Marlin
;TIME:19028
;Filament used: 13.7659m
;Layer height: 0.2
;MINX:14.255
;MINY:138.73
;MINZ:0.2
;MAXX:154.847
;MAXY:214.33
;MAXZ:29
;TARGET_MACHINE.NAME:Creality Ender-3 Pro
;Generated with Cura_SteamEngine 5.8.1
M82 ;absolute extrusion mode
; Ender 3 Custom Start G-code
G92 E0 ; Reset Extruder
G28 ; Home all axes
G1 Z5.0 F3000 ; Move Z Axis up a bit during heating to not damage bed
M104 S175 ; Start heating up the nozzle most of the way
M190 S60 ; Start heating the bed, wait until target temperature reached
M109 S200 ; Finish heating the nozzle
G1 Z2.0 F3000 ; Move Z Axis up little to prevent scratching of Heat Bed
G1 X0.1 Y20 Z0.3 F5000.0 ; Move to start position
G1 X0.1 Y200.0 Z0.3 F1500.0 E15 ; Draw the first line
G1 X0.4 Y200.0 Z0.3 F5000.0 ; Move to side a little
G1 X0.4 Y20 Z0.3 F1500.0 E30 ; Draw the second line
G92 E0 ; Reset Extruder
G1 Z2.0 F3000 ; Move Z Axis up little to prevent scratching of Heat Bed
G1 X5 Y20 Z0.3 F5000.0 ; Move over to prevent blob squish
G92 E0
G92 E0
G1 F1500 E-6.5
;LAYER_COUNT:145
;LAYER:0
M107
G0 F6000 X33.247 Y138.991 Z0.2
;TYPE:SKIRT
G1 F1500 E0
G1 F1200 X34.974 Y138.769 E0.05791
G1 X145.047 Y138.73 E3.71896
G1 X147.196 Y138.961 E3.79084
G1 X147.597 Y139.077 E3.80473
G1 X149.823 Y140.27 E3.88873
G1 X153.307 Y143.754 E4.0526
G1 X154.481 Y145.945 E4.13528
G1 X154.612 Y146.34 E4.14912
G1 X154.847 Y148.53 E4.22238
G1 X154.787 Y205.386 E6.11342
G1 X154.558 Y206.965 E6.16649
G1 X153.289 Y209.324 E6.25558
G1 X149.823 Y212.79 E6.41861
G1 X147.632 Y213.964 E6.50128
G1 X147.237 Y214.095 E6.51512
G1 X145.047 Y214.33 E6.58838
G1 X47.591 Y214.27 E9.82978
G1 X46.012 Y214.041 E9.88285
G1 X43.653 Y212.772 E9.97194
G1 X15.787 Y184.906 E11.28267
G1 X14.648 Y182.781 E11.36286
G1 X14.476 Y182.282 E11.38042
G1 X14.255 Y180.306 E11.44655
G1 X14.307 Y159.274 E12.14608
G1 X14.536 Y157.695 E12.19915
G1 X15.805 Y155.336 E12.28824
G1 X30.862 Y140.279 E12.99648
G1 X33.247 Y138.991 E13.08663
G0 F6000 X33.371 Y139.379
G1 F1200 X35.025 Y139.166 E13.1421
G1 X145.047 Y139.13 E16.80144
G1 X147.153 Y139.359 E16.8719
G1 X147.443 Y139.449 E16.882
G1 X149.582 Y140.595 E16.96271
G1 X152.982 Y143.995 E17.12264
G1 X154.128 Y146.134 E17.20335
G1 X154.218 Y146.424 E17.21345
G1 X154.447 Y148.53 E17.28391
G1 X154.391 Y205.329 E19.17305
G1 X154.172 Y206.839 E19.2238
G1 X152.966 Y209.081 E19.30847
G1 X149.582 Y212.465 E19.46764
G1 X147.443 Y213.611 E19.54835
G1 X147.153 Y213.701 E19.55845
G1 X145.047 Y213.93 E19.62891
G1 X47.648 Y213.874 E22.86842
G1 X46.138 Y213.655 E22.91916
G1 X43.896 Y212.449 E23.00384
G1 X16.112 Y184.665 E24.31071
G1 X15.001 Y182.592 E24.38894
G1 X14.87 Y182.199 E24.40272
G1 X14.653 Y180.261 E24.46758
G1 X14.703 Y159.331 E25.16371
G1 X14.922 Y157.821 E25.21446
G1 X16.128 Y155.579 E25.29913
G1 X31.104 Y140.603 E26.00356
G1 X33.371 Y139.379 E26.08925
G0 F6000 X33.495 Y139.767
G1 F1200 X35.076 Y139.563 E26.14227
G1 X145.047 Y139.53 E29.79992
G1 X147.109 Y139.757 E29.86892
G1 X147.254 Y139.802 E29.87397
G1 X149.341 Y140.92 E29.95271
G1 X152.657 Y144.236 E30.10869
G1 X153.775 Y146.323 E30.18743
G1 X153.82 Y146.468 E30.19248
G1 X154.047 Y148.53 E30.26148
G1 X153.995 Y205.272 E32.14873
G1 X153.786 Y206.713 E32.19716
G1 X152.643 Y208.838 E32.27741
G1 X149.341 Y212.14 E32.43273
G1 X147.254 Y213.258 E32.51147
G1 X147.109 Y213.303 E32.51652
G1 X145.047 Y213.53 E32.58552
G1 X47.705 Y213.478 E35.82313
G1 X46.264 Y213.269 E35.87156
G1 X44.139 Y212.126 E35.95181
G1 X16.437 Y184.424 E37.25483
G1 X15.354 Y182.403 E37.33109
G1 X15.264 Y182.115 E37.34112
G1 X15.051 Y180.216 E37.40468
G1 X15.099 Y159.388 E38.09743
G1 X15.308 Y157.947 E38.14585
G1 X16.451 Y155.822 E38.22611
G1 X31.346 Y140.927 E38.92672
G1 X33.495 Y139.767 E39.00795
G0 F6000 X33.619 Y140.155
G1 F1200 X35.127 Y139.96 E39.05852
G1 X145.047 Y139.93 E42.71448
G1 X147.065 Y140.155 E42.78201
G1 X149.1 Y141.245 E42.85879
G1 X152.332 Y144.477 E43.01082
G1 X153.422 Y146.512 E43.0876
G1 X153.647 Y148.53 E43.15513
G1 X153.599 Y205.215 E45.04048
G1 X153.4 Y206.587 E45.08659
G1 X152.32 Y208.595 E45.16243
G1 X149.1 Y211.815 E45.31389
G1 X147.065 Y212.905 E45.39067
G1 X145.047 Y213.13 E45.4582
G1 X47.762 Y213.082 E48.69392
G1 X46.39 Y212.883 E48.74003
G1 X44.382 Y211.803 E48.81586
G1 X16.762 Y184.183 E50.11502
G1 X15.707 Y182.214 E50.18932
G1 X15.662 Y182.07 E50.19434
G1 X15.449 Y180.171 E50.25789
G1 X15.495 Y159.445 E50.94724
G1 X15.694 Y158.073 E50.99335
G1 X16.774 Y156.065 E51.06919
G1 X31.588 Y141.251 E51.76599
G1 X33.619 Y140.155 E51.84275
G0 F6000 X33.743 Y140.543
G1 F1200 X35.178 Y140.357 E51.89088
G1 X145.047 Y140.33 E55.54514
G1 X146.942 Y140.543 E55.60856
G1 X148.859 Y141.57 E55.6809
G1 X152.007 Y144.718 E55.82897
G1 X153.034 Y146.635 E55.9013
G1 X153.247 Y148.53 E55.96473
G1 X153.203 Y205.158 E57.84818
G1 X153.014 Y206.461 E57.89197
G1 X151.997 Y208.352 E57.96339
G1 X148.859 Y211.49 E58.11099
G1 X146.942 Y212.517 E58.18332
G1 X145.047 Y212.73 E58.24675
G1 X47.819 Y212.686 E61.48056
G1 X46.516 Y212.497 E61.52436
G1 X44.625 Y211.48 E61.59577
G1 X17.087 Y183.942 E62.89107
G1 X16.06 Y182.025 E62.96341
G1 X15.847 Y180.126 E63.02696
G1 X15.891 Y159.502 E63.71292
G1 X16.08 Y158.199 E63.75671
G1 X17.097 Y156.308 E63.82813
G1 X31.83 Y141.575 E64.52112
G1 X33.743 Y140.543 E64.59342
G0 F6000 X33.867 Y140.931
G1 F1200 X35.23 Y140.754 E64.63913
G1 X145.047 Y140.73 E68.29166
G1 X146.819 Y140.931 E68.35097
G1 X148.618 Y141.895 E68.41886
G1 X151.682 Y144.959 E68.56298
G1 X152.646 Y146.758 E68.63086
G1 X152.847 Y148.53 E68.69018
G1 X152.807 Y205.101 E70.57174
G1 X152.628 Y206.335 E70.61321
G1 X151.674 Y208.109 E70.6802
G1 X148.618 Y211.165 E70.82395
G1 X146.819 Y212.129 E70.89183
G1 X145.047 Y212.33 E70.95115
G1 X47.876 Y212.29 E74.18307
G1 X46.642 Y212.111 E74.22454
G1 X44.868 Y211.157 E74.29154
G1 X17.412 Y183.701 E75.58298
G1 X16.448 Y181.902 E75.65087
G1 X16.247 Y180.127 E75.71028
G1 X16.287 Y159.559 E76.39438
G1 X16.466 Y158.325 E76.43585
G1 X17.42 Y156.551 E76.50284
G1 X32.072 Y141.899 E77.19203
G1 X33.867 Y140.931 E77.25986
G0 F6000 X33.991 Y141.319
G1 F1200 X35.282 Y141.151 E77.30316
G1 X145.047 Y141.13 E80.95396
G1 X146.696 Y141.319 E81.00916
G1 X148.377 Y142.22 E81.0726
G1 X151.357 Y145.2 E81.21277
G1 X152.258 Y146.881 E81.2762
G1 X152.447 Y148.53 E81.33141
G1 X152.411 Y205.044 E83.21107
G1 X152.242 Y206.209 E83.25022
G1 X151.351 Y207.866 E83.3128
G1 X148.377 Y210.84 E83.45269
G1 X146.696 Y211.741 E83.51612
G1 X145.047 Y211.93 E83.57133
G1 X47.933 Y211.894 E86.80135
G1 X46.768 Y211.725 E86.84051
G1 X45.111 Y210.834 E86.90308
G1 X17.737 Y183.46 E88.19067
G1 X16.836 Y181.779 E88.2541
G1 X16.647 Y180.128 E88.30937
G1 X16.683 Y159.616 E88.99161
G1 X16.852 Y158.451 E89.03076
G1 X17.743 Y156.794 E89.09334
G1 X32.314 Y142.223 E89.77871
G1 X33.991 Y141.319 E89.84208
G0 F6000 X34.115 Y141.707
G1 F1200 X35.334 Y141.548 E89.88296
G1 X145.047 Y141.53 E93.53203
G1 X146.573 Y141.707 E93.58313
G1 X148.136 Y142.545 E93.64211
G1 X151.032 Y145.441 E93.77833
G1 X151.87 Y147.004 E93.83732
G1 X152.047 Y148.53 E93.88841
G1 X152.015 Y204.987 E95.76618
G1 X151.856 Y206.083 E95.80302
G1 X151.028 Y207.623 E95.86117
G1 X148.136 Y210.515 E95.9972
G1 X146.573 Y211.353 E96.05619
G1 X145.047 Y211.53 E96.10728
G1 X47.99 Y211.498 E99.33541
G1 X46.894 Y211.339 E99.37225
G1 X45.354 Y210.511 E99.4304
G1 X18.062 Y183.219 E100.71413
G1 X17.224 Y181.656 E100.77312
G1 X17.047 Y180.129 E100.82425
G1 X17.079 Y159.673 E101.50462
G1 X17.238 Y158.577 E101.54145
G1 X18.066 Y157.037 E101.59961
G1 X32.556 Y142.547 E102.28117
G1 X34.115 Y141.707 E102.34007
G0 F6000 X34.239 Y142.095
G1 F1200 X35.386 Y141.945 E102.37855
G1 X145.047 Y141.93 E106.02589
G1 X146.452 Y142.095 E106.07294
G1 X147.893 Y142.868 E106.12733
G1 X150.709 Y145.684 E106.25978
G1 X151.482 Y147.125 E106.31417
G1 X151.647 Y148.53 E106.36122
G1 X151.619 Y204.93 E108.2371
G1 X151.47 Y205.957 E108.27161
G1 X150.705 Y207.38 E108.32535
G1 X147.893 Y210.192 E108.45761
G1 X146.452 Y210.965 E108.512
G1 X145.047 Y211.13 E108.55905
G1 X48.047 Y211.102 E111.78529
G1 X47.02 Y210.953 E111.8198
G1 X45.597 Y210.188 E111.87354
G1 X18.385 Y182.976 E113.15351
G1 X17.612 Y181.535 E113.20789
G1 X17.447 Y180.13 E113.25495
G1 X17.475 Y159.73 E113.93345
G1 X17.624 Y158.703 E113.96797
G1 X18.389 Y157.28 E114.0217
G1 X32.798 Y142.871 E114.69946
G1 X34.239 Y142.095 E114.7539
G0 F6000 X34.363 Y142.483
G1 F1200 X35.438 Y142.342 E114.78996
G1 X145.047 Y142.33 E118.43557
G1 X146.328 Y142.483 E118.47848
G1 X147.652 Y143.193 E118.52844
G1 X150.384 Y145.925 E118.65695
G1 X151.094 Y147.249 E118.70692
G1 X151.247 Y148.53 E118.74983
G1 X151.223 Y204.873 E120.6238
G1 X151.084 Y205.831 E120.656
G1 X150.382 Y207.137 E120.70531
G1 X147.652 Y209.867 E120.83373
G1 X146.328 Y210.577 E120.88369
G1 X145.047 Y210.73 E120.9266
G1 X48.104 Y210.706 E124.15094
G1 X47.146 Y210.567 E124.18314
G1 X45.84 Y209.865 E124.23245
G1 X18.71 Y182.735 E125.50856
G1 X18 Y181.411 E125.55853
G1 X17.847 Y180.13 E125.60144
G1 X17.871 Y159.787 E126.27805
G1 X18.01 Y158.829 E126.31025
G1 X18.712 Y157.523 E126.35957
G1 X33.04 Y143.195 E127.03351
G1 X34.363 Y142.483 E127.08348
G0 F6000 X34.486 Y142.871
G1 F1200 X35.49 Y142.739 E127.11716
G1 X145.047 Y142.73 E130.76104
G1 X146.207 Y142.871 E130.79991
G1 X147.409 Y143.516 E130.84528
G1 X150.061 Y146.168 E130.97002
G1 X150.706 Y147.37 E131.01539
G1 X150.847 Y148.53 E131.05426
G1 X150.827 Y204.816 E132.92634
G1 X150.698 Y205.705 E132.95622
G1 X150.059 Y206.894 E133.00111
G1 X147.409 Y209.544 E133.12576
G1 X146.207 Y210.189 E133.17113
G1 X145.047 Y210.33 E133.21
G1 X48.161 Y210.31 E136.43244
G1 X47.272 Y210.181 E136.46232
G1 X46.083 Y209.542 E136.50721
G1 X19.033 Y182.492 E137.77956
G1 X18.388 Y181.29 E137.82493
G1 X18.247 Y180.13 E137.8638
G1 X18.267 Y159.844 E138.53851
G1 X18.396 Y158.955 E138.56839
G1 X19.035 Y157.766 E138.61329
G1 X33.283 Y143.518 E139.28347
G1 X34.486 Y142.871 E139.3289
G0 F6000 X34.609 Y143.259
G1 F1200 X35.542 Y143.136 E139.3602
G1 X145.047 Y143.13 E143.00235
G1 X146.085 Y143.259 E143.03714
G1 X147.166 Y143.839 E143.07794
G1 X149.738 Y146.411 E143.19892
G1 X150.318 Y147.492 E143.23972
G1 X150.447 Y148.53 E143.27451
G1 X150.431 Y204.759 E145.1447
G1 X150.312 Y205.579 E145.17226
G1 X149.736 Y206.651 E145.21273
G1 X147.166 Y209.221 E145.33362
G1 X146.085 Y209.801 E145.37442
G1 X145.047 Y209.93 E145.40921
G1 X48.218 Y209.914 E148.62976
G1 X47.398 Y209.795 E148.65731
G1 X46.326 Y209.219 E148.69779
G1 X19.356 Y182.249 E149.96638
G1 X18.776 Y181.168 E150.00718
G1 X18.647 Y180.13 E150.04197
G1 X18.663 Y159.901 E150.71479
G1 X18.782 Y159.081 E150.74235
G1 X19.358 Y158.009 E150.78282
G1 X33.526 Y143.841 E151.44924
G1 X34.609 Y143.259 E151.49014
G0 F6000 X34.732 Y143.647
G1 F1200 X35.594 Y143.533 E151.51906
G1 X145.047 Y143.53 E155.15948
G1 X145.961 Y143.647 E155.19012
G1 X146.925 Y144.164 E155.22651
G1 X149.413 Y146.652 E155.34354
G1 X149.93 Y147.616 E155.37992
G1 X150.047 Y148.53 E155.41057
G1 X150.035 Y204.702 E157.27885
G1 X149.926 Y205.453 E157.30409
G1 X149.413 Y206.408 E157.34015
G1 X146.925 Y208.896 E157.45718
G1 X145.961 Y209.413 E157.49356
G1 X145.047 Y209.53 E157.52421
G1 X48.275 Y209.518 E160.74286
G1 X47.524 Y209.409 E160.7681
G1 X46.569 Y208.896 E160.80415
G1 X19.681 Y182.008 E162.06888
G1 X19.164 Y181.044 E162.10527
G1 X19.047 Y180.13 E162.13591
G1 X19.059 Y159.958 E162.80684
G1 X19.168 Y159.207 E162.83208
G1 X19.681 Y158.252 E162.86813
G1 X33.769 Y144.164 E163.53079
G1 X34.732 Y143.647 E163.56714
G0 F6000 X34.854 Y144.035
G1 F1200 X35.647 Y143.93 E163.59375
G1 X145.047 Y143.93 E167.23241
G1 X145.84 Y144.035 E167.25901
G1 X146.682 Y144.487 E167.2908
G1 X149.09 Y146.895 E167.40406
G1 X149.542 Y147.737 E167.43585
G1 X149.647 Y148.53 E167.46245
G1 X149.639 Y204.645 E169.32885
G1 X149.54 Y205.327 E169.35177
G1 X149.09 Y206.165 E169.3834
G1 X146.682 Y208.573 E169.49667
G1 X145.84 Y209.025 E169.52845
G1 X145.047 Y209.13 E169.55506
G1 X48.332 Y209.122 E172.77181
G1 X47.65 Y209.023 E172.79473
G1 X46.812 Y208.573 E172.82637
G1 X20.004 Y181.765 E174.08734
G1 X19.552 Y180.923 E174.11912
G1 X19.447 Y180.13 E174.14573
G1 X19.455 Y160.015 E174.81476
G1 X19.554 Y159.333 E174.83768
G1 X20.004 Y158.495 E174.86931
G1 X34.012 Y144.487 E175.52821
G1 X34.854 Y144.035 E175.55999
G0 F6000 X34.978 Y144.422
G1 F1200 X35.647 Y144.33 E175.58245
G1 X145.047 Y144.33 E179.22111
G1 X145.716 Y144.422 E179.24357
G1 X146.439 Y144.81 E179.27086
G1 X148.767 Y147.138 E179.38036
G1 X149.155 Y147.861 E179.40766
G1 X149.247 Y148.53 E179.43012
G1 X149.243 Y204.588 E181.29461
G1 X149.154 Y205.201 E181.31521
G1 X148.767 Y205.922 E181.34243
G1 X146.439 Y208.25 E181.45193
G1 X145.716 Y208.638 E181.47922
G1 X145.047 Y208.73 E181.50168
G1 X48.389 Y208.726 E184.71654
G1 X47.776 Y208.637 E184.73715
G1 X47.055 Y208.25 E184.76436
G1 X20.327 Y181.522 E186.02156
G1 X19.939 Y180.799 E186.04886
G1 X19.847 Y180.13 E186.07132
G1 X19.851 Y160.072 E186.73845
G1 X19.94 Y159.459 E186.75905
G1 X20.327 Y158.738 E186.78627
G1 X34.255 Y144.81 E187.4414
G1 X34.978 Y144.422 E187.46869
G0 F6000 X35.104 Y144.809
G1 F1200 X35.647 Y144.73 E187.48694
G1 X145.047 Y144.73 E191.1256
G1 X145.59 Y144.809 E191.14385
G1 X146.198 Y145.135 E191.16679
G1 X148.442 Y147.379 E191.27234
G1 X148.768 Y147.987 E191.29529
G1 X148.847 Y148.53 E191.31354
G1 X148.847 Y204.53 E193.17611
G1 X148.768 Y205.073 E193.19436
G1 X148.442 Y205.681 E193.2173
G1 X146.198 Y207.925 E193.32286
G1 X145.59 Y208.251 E193.3458
G1 X145.047 Y208.33 E193.36405
G1 X48.447 Y208.33 E196.57698
G1 X47.904 Y208.251 E196.59523
G1 X47.296 Y207.925 E196.61818
G1 X20.652 Y181.281 E197.87143
G1 X20.326 Y180.673 E197.89437
G1 X20.247 Y180.13 E197.91262
G1 X20.247 Y160.13 E198.57783
G1 X20.326 Y159.587 E198.59608
G1 X20.652 Y158.979 E198.61902
G1 X34.496 Y145.135 E199.2702
G1 X35.104 Y144.809 E199.29315
G0 F6000 X35.233 Y145.194
G1 F1200 X35.647 Y145.13 E199.30708
G1 X145.047 Y145.13 E202.94574
G1 X145.461 Y145.194 E202.95967
G1 X145.957 Y145.46 E202.97839
G1 X148.117 Y147.62 E203.07999
G1 X148.383 Y148.116 E203.09871
G1 X148.447 Y148.53 E203.11265
G1 X148.447 Y204.53 E204.97521
G1 X148.383 Y204.944 E204.98915
G1 X148.117 Y205.44 E205.00787
G1 X145.957 Y207.6 E205.10947
G1 X145.461 Y207.866 E205.12819
G1 X145.047 Y207.93 E205.14212
G1 X48.447 Y207.93 E208.35505
G1 X48.033 Y207.866 E208.36898
G1 X47.537 Y207.6 E208.3877
G1 X20.977 Y181.04 E209.637
G1 X20.711 Y180.544 E209.65572
G1 X20.647 Y180.13 E209.66965
G1 X20.647 Y160.13 E210.33486
G1 X20.711 Y159.716 E210.34879
G1 X20.977 Y159.22 E210.36751
G1 X34.737 Y145.46 E211.01474
G1 X35.233 Y145.194 E211.03346
G0 F6000 X35.362 Y145.578
G1 F1200 X34.98 Y145.783 E211.04788
G1 X21.3 Y159.463 E211.69134
G1 X21.095 Y159.845 E211.70576
G1 X21.047 Y160.13 E211.71537
G1 X21.047 Y180.13 E212.38058
G1 X21.095 Y180.415 E212.39019
G1 X21.3 Y180.797 E212.40461
G1 X47.78 Y207.277 E213.65015
G1 X48.162 Y207.482 E213.66457
G1 X48.447 Y207.53 E213.67418
G1 X145.047 Y207.53 E216.88711
G1 X145.332 Y207.482 E216.89672
G1 X145.714 Y207.277 E216.91114
G1 X147.794 Y205.197 E217.00898
G1 X147.999 Y204.815 E217.0234
G1 X148.047 Y204.53 E217.03301
G1 X148.047 Y148.53 E218.89558
G1 X147.999 Y148.245 E218.90519
G1 X147.794 Y147.863 E218.91961
G1 X145.714 Y145.783 E219.01745
G1 X145.332 Y145.578 E219.03186
G1 X145.047 Y145.53 E219.04148
G1 X35.647 Y145.53 E222.68014
G1 X35.362 Y145.578 E222.68975
G0 F6000 X35.647 Y146.33
G1 F1200 X145.047 Y146.33 E226.32841
G1 X145.188 Y146.389 E226.33349
G1 X147.188 Y148.389 E226.42756
G1 X147.247 Y148.53 E226.43265
G1 X147.247 Y204.53 E228.29522
G1 X147.188 Y204.671 E228.3003
G1 X145.188 Y206.671 E228.39437
G1 X145.047 Y206.73 E228.39946
G1 X48.447 Y206.73 E231.61239
G1 X48.306 Y206.671 E231.61747
G1 X21.906 Y180.271 E232.85924
G1 X21.847 Y180.13 E232.86433
G1 X21.847 Y160.13 E233.52953
G1 X21.906 Y159.989 E233.53462
G1 X35.506 Y146.389 E234.17432
G1 X35.647 Y146.33 E234.1794
G0 F6000 X35.493 Y145.961
G1 F1200 X35.647 Y145.93 E234.18463
G1 X145.047 Y145.93 E237.82328
G1 X145.201 Y145.961 E237.82851
G1 X145.471 Y146.106 E237.8387
G1 X147.471 Y148.106 E237.93278
