;FLAVOR:Marlin
;TIME:19396
;Filament used: 13.3466m
;Layer height: 0.2
;MINX:42.104
;MINY:2.699
;MINZ:0.2
;MAXX:187.095
;MAXY:78.299
;MAXZ:29
;TARGET_MACHINE.NAME:Creality Ender-3 Pro
;Generated with Cura_SteamEngine 5.8.1
M82 ;absolute extrusion mode
; Ender 3 Custom Start G-code
G92 E0 ; Reset Extruder
G28 ; Home all axes
G1 Z5.0 F3000 ; Move Z Axis up a bit during heating to not damage bed
M104 S175 ; Start heating up the nozzle most of the way
M190 S60 ; Start heating the bed, wait until target temperature reached
M109 S200 ; Finish heating the nozzle
G1 Z2.0 F3000 ; Move Z Axis up little to prevent scratching of Heat Bed
G1 X0.1 Y20 Z0.3 F5000.0 ; Move to start position
G1 X0.1 Y200.0 Z0.3 F1500.0 E15 ; Draw the first line
G1 X0.4 Y200.0 Z0.3 F5000.0 ; Move to side a little
G1 X0.4 Y20 Z0.3 F1500.0 E30 ; Draw the second line
G92 E0 ; Reset Extruder
G1 Z2.0 F3000 ; Move Z Axis up little to prevent scratching of Heat Bed
G1 X5 Y20 Z0.3 F5000.0 ; Move over to prevent blob squish
G92 E0
G92 E0
G1 F1500 E-6.5
;LAYER_COUNT:145
;LAYER:0
M107
G0 F6000 X46.792 Y10.064 Z0.2
;TYPE:SKIRT
G1 F1500 E0
G1 F1200 X48.061 Y7.705 E0.08909
G1 X51.518 Y4.248 E0.2517
G1 X53.903 Y2.96 E0.34185
G1 X55.63 Y2.738 E0.39977
G1 X152.903 Y2.699 E3.63508
G1 X155.052 Y2.93 E3.70697
G1 X155.453 Y3.046 E3.72085
G1 X157.679 Y4.239 E3.80485
G1 X185.563 Y32.123 E5.11643
G1 X186.702 Y34.248 E5.19662
G1 X186.874 Y34.747 E5.21417
G1 X187.095 Y36.723 E5.28031
G1 X187.043 Y57.755 E5.97984
G1 X186.814 Y59.334 E6.0329
G1 X185.545 Y61.693 E6.122
G1 X170.479 Y76.759 E6.83065
G1 X168.288 Y77.933 E6.91333
G1 X167.893 Y78.064 E6.92717
G1 X165.703 Y78.299 E7.00043
G1 X55.43 Y78.238 E10.66812
G1 X53.861 Y78.008 E10.72087
G1 X51.521 Y76.753 E10.80918
G1 X48.052 Y73.284 E10.97235
G1 X46.764 Y70.899 E11.06251
G1 X46.542 Y69.172 E11.12042
G1 X46.503 Y47.53 E11.84024
G1 X44.805 Y46.057 E11.915
G1 X43.562 Y43.793 E12.00091
G1 X42.648 Y41.843 E12.07253
G1 X42.104 Y39.58 E12.14995
G1 X42.11 Y35.115 E12.29845
G1 X42.958 Y32.479 E12.39055
G1 X44.297 Y29.597 E12.49625
G1 X45.618 Y28.157 E12.56124
G1 X46.509 Y27.394 E12.60026
G1 X46.563 Y11.643 E13.12414
G1 X46.792 Y10.064 E13.17721
G0 F6000 X47.178 Y10.19
G1 F1200 X48.384 Y7.948 E13.26188
G1 X51.76 Y4.572 E13.42068
G1 X54.027 Y3.348 E13.50637
G1 X55.681 Y3.135 E13.56183
G1 X152.903 Y3.099 E16.79545
G1 X155.009 Y3.328 E16.86591
G1 X155.299 Y3.418 E16.87601
G1 X157.438 Y4.564 E16.95672
G1 X185.238 Y32.364 E18.26435
G1 X186.349 Y34.437 E18.34257
G1 X186.48 Y34.83 E18.35635
G1 X186.697 Y36.768 E18.42121
G1 X186.647 Y57.698 E19.11735
G1 X186.428 Y59.208 E19.1681
G1 X185.222 Y61.45 E19.25277
G1 X170.238 Y76.434 E19.95757
G1 X168.099 Y77.58 E20.03828
G1 X167.809 Y77.67 E20.04838
G1 X165.703 Y77.899 E20.11884
G1 X55.488 Y77.842 E23.78461
G1 X53.986 Y77.622 E23.8351
G1 X51.764 Y76.43 E23.91896
G1 X48.376 Y73.042 E24.07832
G1 X47.152 Y70.775 E24.16401
G1 X46.939 Y69.121 E24.21948
G1 X46.903 Y47.348 E24.94365
G1 X45.123 Y45.803 E25.02205
G1 X43.913 Y43.6 E25.10564
G1 X43.028 Y41.711 E25.17503
G1 X42.504 Y39.532 E25.24957
G1 X42.51 Y35.178 E25.39438
G1 X43.321 Y32.648 E25.48275
G1 X44.635 Y29.82 E25.58646
G1 X45.878 Y28.461 E25.64772
G1 X46.908 Y27.579 E25.69282
G1 X46.959 Y11.7 E26.22096
G1 X47.178 Y10.19 E26.27171
G0 F6000 X47.564 Y10.316
G1 F1200 X48.707 Y8.191 E26.35196
G1 X52.002 Y4.896 E26.50695
G1 X54.151 Y3.736 E26.58817
G1 X55.732 Y3.532 E26.64119
G1 X152.903 Y3.499 E29.87311
G1 X154.965 Y3.726 E29.94211
G1 X155.11 Y3.771 E29.94716
G1 X157.197 Y4.889 E30.02591
G1 X184.913 Y32.605 E31.32958
G1 X185.996 Y34.626 E31.40584
G1 X186.086 Y34.914 E31.41588
G1 X186.299 Y36.813 E31.47944
G1 X186.251 Y57.641 E32.17218
G1 X186.042 Y59.082 E32.22061
G1 X184.899 Y61.207 E32.30086
G1 X169.997 Y76.109 E33.00181
G1 X167.91 Y77.227 E33.08055
G1 X167.765 Y77.272 E33.0856
G1 X165.703 Y77.499 E33.1546
G1 X55.546 Y77.446 E36.81844
G1 X54.114 Y77.236 E36.86658
G1 X52.005 Y76.105 E36.94617
G1 X48.7 Y72.8 E37.10163
G1 X47.54 Y70.651 E37.18285
G1 X47.336 Y69.07 E37.23587
G1 X47.303 Y47.166 E37.9644
G1 X45.441 Y45.549 E38.04643
G1 X44.264 Y43.407 E38.12772
G1 X43.407 Y41.578 E38.1949
G1 X42.904 Y39.485 E38.26649
G1 X42.91 Y35.241 E38.40765
G1 X43.684 Y32.817 E38.49228
G1 X44.972 Y30.045 E38.59395
G1 X46.14 Y28.764 E38.6516
G1 X47.125 Y27.913 E38.6949
G1 X47.307 Y27.808 E38.70189
G1 X47.355 Y11.757 E39.23575
G1 X47.564 Y10.316 E39.28418
G0 F6000 X47.95 Y10.442
G1 F1200 X49.03 Y8.434 E39.36001
G1 X52.244 Y5.22 E39.51119
G1 X54.275 Y4.124 E39.58795
G1 X55.783 Y3.929 E39.63852
G1 X152.903 Y3.899 E42.86875
G1 X154.921 Y4.124 E42.93628
G1 X156.956 Y5.214 E43.01306
G1 X184.588 Y32.846 E44.31279
G1 X185.643 Y34.815 E44.38708
G1 X185.688 Y34.959 E44.3921
G1 X185.901 Y36.858 E44.45566
G1 X185.855 Y57.584 E45.14501
G1 X185.656 Y58.956 E45.19112
G1 X184.576 Y60.964 E45.26695
G1 X169.756 Y75.784 E45.96404
G1 X167.721 Y76.874 E46.04082
G1 X165.703 Y77.099 E46.10836
G1 X55.604 Y77.05 E49.77027
G1 X54.239 Y76.85 E49.81615
G1 X52.248 Y75.782 E49.8913
G1 X49.024 Y72.558 E50.04295
G1 X47.928 Y70.527 E50.1197
G1 X47.733 Y69.019 E50.17028
G1 X47.703 Y46.94 E50.90463
G1 X47.553 Y46.855 E50.91036
G1 X45.759 Y45.295 E50.98944
G1 X44.615 Y43.214 E51.06842
G1 X43.787 Y41.446 E51.13335
G1 X43.304 Y39.437 E51.20208
G1 X43.31 Y35.303 E51.33957
G1 X44.047 Y32.986 E51.42044
G1 X45.309 Y30.27 E51.52005
G1 X46.436 Y29.034 E51.57569
G1 X47.386 Y28.216 E51.61738
G1 X47.706 Y28.056 E51.62928
G1 X47.751 Y11.814 E52.1695
G1 X47.95 Y10.442 E52.21561
G0 F6000 X48.336 Y10.568
G1 F1200 X49.353 Y8.677 E52.28702
G1 X52.486 Y5.544 E52.43439
G1 X54.399 Y4.512 E52.50668
G1 X55.834 Y4.326 E52.55481
G1 X152.903 Y4.299 E55.78334
G1 X154.798 Y4.512 E55.84676
G1 X156.715 Y5.539 E55.91909
G1 X184.263 Y33.087 E57.21487
G1 X185.29 Y35.004 E57.2872
G1 X185.503 Y36.903 E57.35076
G1 X185.459 Y57.527 E58.03672
G1 X185.27 Y58.83 E58.08051
G1 X184.253 Y60.721 E58.15192
G1 X169.515 Y75.459 E58.84515
G1 X167.598 Y76.486 E58.91749
G1 X165.703 Y76.699 E58.98091
G1 X55.662 Y76.654 E62.64089
G1 X54.367 Y76.464 E62.68442
G1 X52.489 Y75.457 E62.7553
G1 X49.348 Y72.316 E62.90304
G1 X48.316 Y70.403 E62.97534
G1 X48.13 Y68.968 E63.02346
G1 X48.103 Y46.679 E63.7648
G1 X47.815 Y46.553 E63.77525
G1 X46.075 Y45.04 E63.85195
G1 X44.977 Y43.044 E63.92771
G1 X44.167 Y41.314 E63.99125
G1 X43.704 Y39.389 E64.0571
G1 X43.71 Y35.365 E64.19094
G1 X44.41 Y33.155 E64.26804
G1 X45.646 Y30.495 E64.3656
G1 X46.732 Y29.304 E64.41921
G1 X47.646 Y28.52 E64.45926
G1 X48.105 Y28.315 E64.47598
G1 X48.147 Y11.871 E65.02291
G1 X48.336 Y10.568 E65.0667
G0 F6000 X48.722 Y10.694
G1 F1200 X49.676 Y8.92 E65.1337
G1 X52.728 Y5.868 E65.27725
G1 X54.523 Y4.9 E65.34508
G1 X55.886 Y4.723 E65.3908
G1 X152.903 Y4.699 E68.6176
G1 X154.675 Y4.9 E68.67691
G1 X156.474 Y5.864 E68.7448
G1 X183.938 Y33.328 E70.03662
G1 X184.902 Y35.127 E70.1045
G1 X185.103 Y36.902 E70.16392
G1 X185.063 Y57.47 E70.84801
G1 X184.884 Y58.704 E70.88948
G1 X183.93 Y60.478 E70.95648
G1 X169.274 Y75.134 E71.64585
G1 X167.475 Y76.098 E71.71374
G1 X165.703 Y76.299 E71.77305
G1 X55.72 Y76.258 E75.4311
G1 X54.492 Y76.078 E75.47238
G1 X52.732 Y75.134 E75.53881
G1 X49.672 Y72.074 E75.68274
G1 X48.704 Y70.279 E75.75057
G1 X48.527 Y68.916 E75.79628
G1 X48.503 Y46.418 E76.54457
G1 X48.031 Y46.211 E76.56171
G1 X46.391 Y44.785 E76.634
G1 X45.339 Y42.874 E76.70655
G1 X44.547 Y41.182 E76.76869
G1 X44.104 Y39.341 E76.83167
G1 X44.11 Y35.425 E76.96191
G1 X44.773 Y33.324 E77.03519
G1 X45.983 Y30.72 E77.13069
G1 X47.028 Y29.574 E77.18228
G1 X47.863 Y28.861 E77.2188
G1 X48.504 Y28.575 E77.24214
G1 X48.543 Y11.928 E77.79582
G1 X48.722 Y10.694 E77.8373
G0 F6000 X49.108 Y10.82
G1 F1200 X49.999 Y9.163 E77.89987
G1 X52.97 Y6.192 E78.03962
G1 X54.647 Y5.288 E78.10298
G1 X55.938 Y5.12 E78.14628
G1 X152.903 Y5.099 E81.37135
G1 X154.552 Y5.288 E81.42656
G1 X156.233 Y6.189 E81.48999
G1 X183.613 Y33.569 E82.77786
G1 X184.514 Y35.25 E82.8413
G1 X184.703 Y36.901 E82.89657
G1 X184.667 Y57.413 E83.5788
G1 X184.498 Y58.578 E83.61796
G1 X183.607 Y60.235 E83.68053
G1 X169.033 Y74.809 E84.36605
G1 X167.352 Y75.71 E84.42948
G1 X165.703 Y75.899 E84.48469
G1 X55.778 Y75.862 E88.14081
G1 X54.617 Y75.692 E88.17984
G1 X52.975 Y74.811 E88.24181
G1 X49.996 Y71.832 E88.38194
G1 X49.092 Y70.155 E88.4453
G1 X48.924 Y68.864 E88.4886
G1 X48.903 Y46.157 E89.24384
G1 X48.25 Y45.871 E89.26755
G1 X46.706 Y44.528 E89.33561
G1 X45.689 Y42.681 E89.40574
G1 X44.927 Y41.052 E89.46556
G1 X44.504 Y39.293 E89.52573
G1 X44.51 Y35.488 E89.65228
G1 X45.136 Y33.493 E89.72183
G1 X46.321 Y30.943 E89.81535
G1 X47.288 Y29.878 E89.8632
G1 X48.08 Y29.202 E89.89783
G1 X48.903 Y28.834 E89.92781
G1 X48.939 Y11.985 E90.48822
G1 X49.108 Y10.82 E90.52737
G0 F6000 X49.494 Y10.946
G1 F1200 X50.322 Y9.406 E90.58552
G1 X53.212 Y6.516 E90.72146
G1 X54.771 Y5.676 E90.78036
G1 X55.99 Y5.517 E90.82125
G1 X152.903 Y5.499 E94.04459
G1 X154.429 Y5.676 E94.09568
G1 X155.992 Y6.514 E94.15467
G1 X183.288 Y33.81 E95.43859
G1 X184.126 Y35.373 E95.49758
G1 X184.303 Y36.9 E95.5487
G1 X184.271 Y57.356 E96.22907
G1 X184.112 Y58.452 E96.26591
G1 X183.284 Y59.992 E96.32406
G1 X168.792 Y74.484 E97.00572
G1 X167.229 Y75.322 E97.06471
G1 X165.703 Y75.499 E97.1158
G1 X55.836 Y75.466 E100.77
G1 X54.745 Y75.306 E100.80667
G1 X53.216 Y74.486 E100.86438
G1 X50.32 Y71.59 E101.0006
G1 X49.48 Y70.031 E101.0595
G1 X49.321 Y68.812 E101.10038
G1 X49.303 Y45.896 E101.86257
G1 X48.468 Y45.53 E101.8929
G1 X47.021 Y44.271 E101.95669
G1 X46.051 Y42.511 E102.02353
G1 X45.306 Y40.919 E102.08199
G1 X44.904 Y39.246 E102.13922
G1 X44.91 Y35.55 E102.26215
G1 X45.499 Y33.662 E102.32793
G1 X46.659 Y31.166 E102.41947
G1 X47.548 Y30.182 E102.46358
G1 X48.297 Y29.543 E102.49633
G1 X49.303 Y29.093 E102.53298
G1 X49.335 Y12.042 E103.1001
G1 X49.494 Y10.946 E103.13694
G0 F6000 X49.88 Y11.072
G1 F1200 X50.645 Y9.649 E103.19067
G1 X53.454 Y6.84 E103.3228
G1 X54.895 Y6.064 E103.37723
G1 X56.042 Y5.914 E103.41571
G1 X152.903 Y5.899 E106.63732
G1 X154.308 Y6.064 E106.68437
G1 X155.749 Y6.837 E106.73876
G1 X182.965 Y34.053 E108.01891
G1 X183.738 Y35.494 E108.0733
G1 X183.903 Y36.899 E108.12035
G1 X183.875 Y57.299 E108.79886
G1 X183.726 Y58.326 E108.83338
G1 X182.961 Y59.749 E108.88711
G1 X168.549 Y74.161 E109.56501
G1 X167.108 Y74.934 E109.6194
G1 X165.703 Y75.099 E109.66645
G1 X55.894 Y75.07 E113.31871
G1 X54.87 Y74.92 E113.35313
G1 X53.459 Y74.163 E113.40639
G1 X50.644 Y71.348 E113.5388
G1 X49.868 Y69.907 E113.59323
G1 X49.718 Y68.76 E113.63171
G1 X49.703 Y45.635 E114.40085
G1 X48.686 Y45.189 E114.43778
G1 X47.336 Y44.014 E114.49731
G1 X46.413 Y42.341 E114.56086
G1 X45.685 Y40.786 E114.61797
G1 X45.304 Y39.199 E114.67225
G1 X45.31 Y35.611 E114.79159
G1 X45.862 Y33.831 E114.85357
G1 X46.997 Y31.389 E114.94314
G1 X47.808 Y30.486 E114.98351
G1 X48.514 Y29.884 E115.01437
G1 X49.703 Y29.352 E115.05769
G1 X49.731 Y12.099 E115.63153
G1 X49.88 Y11.072 E115.66605
G0 F6000 X50.266 Y11.198
G1 F1200 X50.968 Y9.892 E115.71536
G1 X53.696 Y7.164 E115.84368
G1 X55.019 Y6.452 E115.89365
G1 X56.094 Y6.311 E115.92971
G1 X152.903 Y6.299 E119.14959
G1 X154.184 Y6.452 E119.1925
G1 X155.508 Y7.162 E119.24247
G1 X182.64 Y34.294 E120.51867
G1 X183.35 Y35.618 E120.56864
G1 X183.503 Y36.899 E120.61155
G1 X183.479 Y57.242 E121.28816
G1 X183.34 Y58.2 E121.32036
G1 X182.638 Y59.506 E121.36968
G1 X168.308 Y73.836 E122.04371
G1 X166.984 Y74.546 E122.09368
G1 X165.703 Y74.699 E122.13659
G1 X55.952 Y74.674 E125.78693
G1 X54.998 Y74.534 E125.819
G1 X53.7 Y73.838 E125.86798
G1 X50.968 Y71.106 E125.99649
G1 X50.256 Y69.783 E126.04646
G1 X50.115 Y68.708 E126.08252
G1 X50.103 Y45.327 E126.86017
G1 X49.871 Y45.272 E126.8681
G1 X48.905 Y44.849 E126.90318
G1 X47.651 Y43.757 E126.95848
G1 X46.775 Y42.171 E127.01875
G1 X46.064 Y40.653 E127.0745
G1 X45.704 Y39.152 E127.12584
G1 X45.71 Y35.671 E127.24162
G1 X46.225 Y34 E127.29977
G1 X47.335 Y31.611 E127.38739
G1 X48.106 Y30.753 E127.42576
G1 X48.729 Y30.226 E127.4529
G1 X49.793 Y29.75 E127.49167
G1 X50.103 Y29.675 E127.50227
G1 X50.127 Y12.156 E128.08496
G1 X50.266 Y11.198 E128.11716
G0 F6000 X50.652 Y11.324
G1 F1200 X51.291 Y10.135 E128.16205
G1 X53.939 Y7.487 E128.28661
G1 X55.142 Y6.84 E128.33204
G1 X56.146 Y6.708 E128.36572
G1 X152.903 Y6.699 E131.58387
G1 X154.063 Y6.84 E131.62273
G1 X155.265 Y7.485 E131.6681
G1 X182.317 Y34.537 E132.94055
G1 X182.962 Y35.739 E132.98592
G1 X183.103 Y36.899 E133.02478
G1 X183.083 Y57.185 E133.6995
G1 X182.954 Y58.074 E133.72938
G1 X182.315 Y59.263 E133.77427
G1 X168.065 Y73.513 E134.44455
G1 X166.863 Y74.158 E134.48992
G1 X165.703 Y74.299 E134.52879
G1 X56.01 Y74.278 E138.17719
G1 X55.123 Y74.148 E138.20701
G1 X53.943 Y73.515 E138.25154
G1 X51.291 Y70.863 E138.37629
G1 X50.644 Y69.66 E138.42172
G1 X50.512 Y68.656 E138.4554
G1 X50.503 Y44.999 E139.24223
G1 X50.031 Y44.906 E139.25823
G1 X49.124 Y44.509 E139.29116
G1 X47.966 Y43.5 E139.34225
G1 X47.125 Y41.978 E139.40009
G1 X46.444 Y40.522 E139.45355
G1 X46.104 Y39.105 E139.50202
G1 X46.11 Y35.73 E139.61427
G1 X46.588 Y34.169 E139.66857
G1 X47.674 Y31.831 E139.75431
G1 X48.364 Y31.058 E139.78877
G1 X48.943 Y30.568 E139.814
G1 X49.956 Y30.115 E139.85091
G1 X50.503 Y29.999 E139.86951
G1 X50.523 Y12.213 E140.46107
G1 X50.652 Y11.324 E140.49095
G0 F6000 X51.038 Y11.45
G1 F1200 X51.614 Y10.378 E140.53142
G1 X54.182 Y7.81 E140.65222
G1 X55.265 Y7.228 E140.69311
G1 X56.198 Y7.105 E140.72441
G1 X152.903 Y7.099 E143.94083
G1 X153.941 Y7.228 E143.97562
G1 X155.022 Y7.808 E144.01642
G1 X181.994 Y34.78 E145.2851
G1 X182.574 Y35.861 E145.3259
G1 X182.703 Y36.899 E145.36069
G1 X182.687 Y57.128 E146.03351
G1 X182.568 Y57.948 E146.06107
G1 X181.992 Y59.02 E146.10155
G1 X167.822 Y73.19 E146.76806
G1 X166.741 Y73.77 E146.80886
G1 X165.703 Y73.899 E146.84365
G1 X56.068 Y73.882 E150.49013
G1 X55.251 Y73.762 E150.51759
G1 X54.184 Y73.19 E150.55786
G1 X51.614 Y70.62 E150.67874
G1 X51.032 Y69.537 E150.71964
G1 X50.909 Y68.604 E150.75094
G1 X50.903 Y44.669 E151.54702
G1 X50.147 Y44.521 E151.57264
G1 X49.343 Y44.169 E151.60183
G1 X48.282 Y43.244 E151.64865
G1 X47.475 Y41.784 E151.70413
G1 X46.824 Y40.391 E151.75527
G1 X46.504 Y39.058 E151.80087
G1 X46.51 Y35.791 E151.90953
G1 X46.951 Y34.337 E151.96007
G1 X48.012 Y32.052 E152.04386
G1 X48.623 Y31.363 E152.07449
G1 X49.159 Y30.909 E152.09785
G1 X50.08 Y30.498 E152.1314
G1 X50.903 Y30.322 E152.15939
G1 X50.919 Y12.27 E152.7598
G1 X51.038 Y11.45 E152.78736
G0 F6000 X51.424 Y11.576
G1 F1200 X51.937 Y10.621 E152.82342
G1 X54.425 Y8.133 E152.94044
G1 X55.388 Y7.616 E152.9768
G1 X56.25 Y7.502 E153.00572
G1 X152.903 Y7.499 E156.22041
G1 X153.817 Y7.616 E156.25106
G1 X154.781 Y8.133 E156.28744
G1 X181.669 Y35.021 E157.55217
G1 X182.186 Y35.985 E157.58855
G1 X182.303 Y36.899 E157.6192
G1 X182.291 Y57.071 E158.29012
G1 X182.182 Y57.822 E158.31536
G1 X181.669 Y58.777 E158.35142
G1 X167.581 Y72.865 E159.01407
G1 X166.617 Y73.382 E159.05046
G1 X165.703 Y73.499 E159.08111
G1 X56.126 Y73.486 E162.72565
G1 X55.376 Y73.376 E162.75086
G1 X54.427 Y72.867 E162.78668
G1 X51.937 Y70.377 E162.9038
G1 X51.42 Y69.414 E162.94016
G1 X51.306 Y68.552 E162.96908
G1 X51.303 Y44.305 E163.77553
G1 X51.131 Y44.306 E163.78126
G1 X50.264 Y44.136 E163.81064
G1 X49.559 Y43.827 E163.83624
G1 X48.599 Y42.99 E163.8786
G1 X47.825 Y41.59 E163.93181
G1 X47.204 Y40.261 E163.9806
G1 X46.904 Y39.011 E164.02336
G1 X46.91 Y35.85 E164.12849
G1 X47.314 Y34.505 E164.1752
G1 X48.351 Y32.272 E164.25709
G1 X48.882 Y31.668 E164.28384
G1 X49.375 Y31.25 E164.30534
G1 X50.202 Y30.881 E164.33546
G1 X50.952 Y30.716 E164.361
