;FLAVOR:Marlin
;TIME:18938
;Filament used: 13.1475m
;Layer height: 0.2
;MINX:41.2
;MINY:3.014
;MINZ:0.2
;MAXX:181.792
;MAXY:78.614
;MAXZ:29
;TARGET_MACHINE.NAME:Creality Ender-3 Pro
;Generated with Cura_SteamEngine 5.8.1
M82 ;absolute extrusion mode
; Ender 3 Custom Start G-code
G92 E0 ; Reset Extruder
G28 ; Home all axes
G1 Z5.0 F3000 ; Move Z Axis up a bit during heating to not damage bed
M104 S175 ; Start heating up the nozzle most of the way
M190 S60 ; Start heating the bed, wait until target temperature reached
M109 S200 ; Finish heating the nozzle
G1 Z2.0 F3000 ; Move Z Axis up little to prevent scratching of Heat Bed
G1 X0.1 Y20 Z0.3 F5000.0 ; Move to start position
G1 X0.1 Y200.0 Z0.3 F1500.0 E15 ; Draw the first line
G1 X0.4 Y200.0 Z0.3 F5000.0 ; Move to side a little
G1 X0.4 Y20 Z0.3 F1500.0 E30 ; Draw the second line
G92 E0 ; Reset Extruder
G1 Z2.0 F3000 ; Move Z Axis up little to prevent scratching of Heat Bed
G1 X5 Y20 Z0.3 F5000.0 ; Move over to prevent blob squish
G92 E0
G92 E0
G1 F1500 E-6.5
;LAYER_COUNT:145
;LAYER:0
M107
G0 F6000 X41.489 Y10.379 Z0.2
;TYPE:SKIRT
G1 F1500 E0
G1 F1200 X42.758 Y8.02 E0.08909
G1 X46.215 Y4.563 E0.2517
G1 X48.6 Y3.275 E0.34185
G1 X50.327 Y3.053 E0.39977
G1 X147.6 Y3.014 E3.63508
G1 X149.749 Y3.245 E3.70697
G1 X150.15 Y3.361 E3.72085
G1 X152.376 Y4.554 E3.80485
G1 X180.26 Y32.438 E5.11643
G1 X181.399 Y34.563 E5.19662
G1 X181.571 Y35.062 E5.21417
G1 X181.792 Y37.038 E5.28031
G1 X181.74 Y58.07 E5.97984
G1 X181.511 Y59.649 E6.0329
G1 X180.242 Y62.008 E6.122
G1 X165.176 Y77.074 E6.83065
G1 X162.985 Y78.248 E6.91333
G1 X162.59 Y78.379 E6.92717
G1 X160.4 Y78.614 E7.00043
G1 X50.144 Y78.554 E10.66756
G1 X48.565 Y78.325 E10.72063
G1 X46.206 Y77.056 E10.80972
G1 X42.74 Y73.59 E10.97275
G1 X41.566 Y71.399 E11.05542
G1 X41.435 Y71.004 E11.06926
G1 X41.2 Y68.814 E11.14252
G1 X41.26 Y11.958 E13.03356
G1 X41.489 Y10.379 E13.08663
G0 F6000 X41.875 Y10.505
G1 F1200 X43.081 Y8.263 E13.1713
G1 X46.457 Y4.887 E13.3301
G1 X48.724 Y3.663 E13.41579
G1 X50.378 Y3.45 E13.47125
G1 X147.6 Y3.414 E16.70487
G1 X149.706 Y3.643 E16.77533
G1 X149.996 Y3.733 E16.78543
G1 X152.135 Y4.879 E16.86614
G1 X179.935 Y32.679 E18.17377
G1 X181.046 Y34.752 E18.25199
G1 X181.177 Y35.145 E18.26577
G1 X181.394 Y37.083 E18.33063
G1 X181.344 Y58.013 E19.02677
G1 X181.125 Y59.523 E19.07752
G1 X179.919 Y61.765 E19.16219
G1 X164.935 Y76.749 E19.86699
G1 X162.796 Y77.895 E19.9477
G1 X162.506 Y77.985 E19.9578
G1 X160.4 Y78.214 E20.02826
G1 X50.201 Y78.158 E23.69349
G1 X48.691 Y77.939 E23.74424
G1 X46.449 Y76.733 E23.82892
G1 X43.065 Y73.349 E23.98809
G1 X41.919 Y71.21 E24.0688
G1 X41.829 Y70.92 E24.0789
G1 X41.6 Y68.814 E24.14936
G1 X41.656 Y12.015 E26.0385
G1 X41.875 Y10.505 E26.08925
G0 F6000 X42.261 Y10.631
G1 F1200 X43.404 Y8.506 E26.1695
G1 X46.699 Y5.211 E26.32449
G1 X48.848 Y4.051 E26.40571
G1 X50.429 Y3.847 E26.45873
G1 X147.6 Y3.814 E29.69065
G1 X149.662 Y4.041 E29.75965
G1 X149.807 Y4.086 E29.7647
G1 X151.894 Y5.204 E29.84345
G1 X179.61 Y32.92 E31.14712
G1 X180.693 Y34.941 E31.22338
G1 X180.783 Y35.229 E31.23342
G1 X180.996 Y37.128 E31.29698
G1 X180.948 Y57.956 E31.98972
G1 X180.739 Y59.397 E32.03815
G1 X179.596 Y61.522 E32.1184
G1 X164.694 Y76.424 E32.81935
G1 X162.607 Y77.542 E32.89809
G1 X162.462 Y77.587 E32.90314
G1 X160.4 Y77.814 E32.97214
G1 X50.258 Y77.762 E36.63548
G1 X48.817 Y77.553 E36.68391
G1 X46.692 Y76.41 E36.76416
G1 X43.39 Y73.108 E36.91948
G1 X42.272 Y71.021 E36.99822
G1 X42.227 Y70.876 E37.00327
G1 X42 Y68.814 E37.07227
G1 X42.052 Y12.072 E38.95952
G1 X42.261 Y10.631 E39.00795
G0 F6000 X42.647 Y10.757
G1 F1200 X43.727 Y8.749 E39.08378
G1 X46.941 Y5.535 E39.23496
G1 X48.972 Y4.439 E39.31172
G1 X50.48 Y4.244 E39.36229
G1 X147.6 Y4.214 E42.59252
G1 X149.618 Y4.439 E42.66005
G1 X151.653 Y5.529 E42.73683
G1 X179.285 Y33.161 E44.03656
G1 X180.34 Y35.13 E44.11085
G1 X180.385 Y35.274 E44.11587
G1 X180.598 Y37.173 E44.17943
G1 X180.552 Y57.899 E44.86878
G1 X180.353 Y59.271 E44.91489
G1 X179.273 Y61.279 E44.99072
G1 X164.453 Y76.099 E45.68781
G1 X162.418 Y77.189 E45.76459
G1 X160.4 Y77.414 E45.83213
G1 X50.315 Y77.366 E49.49357
G1 X48.943 Y77.167 E49.53968
G1 X46.935 Y76.087 E49.61551
G1 X43.715 Y72.867 E49.76697
G1 X42.625 Y70.832 E49.84376
G1 X42.4 Y68.814 E49.91129
G1 X42.448 Y12.129 E51.79664
G1 X42.647 Y10.757 E51.84275
G0 F6000 X43.033 Y10.883
G1 F1200 X44.05 Y8.992 E51.91417
G1 X47.183 Y5.859 E52.06153
G1 X49.096 Y4.827 E52.13383
G1 X50.531 Y4.641 E52.18196
G1 X147.6 Y4.614 E55.41048
G1 X149.495 Y4.827 E55.47391
G1 X151.412 Y5.854 E55.54624
G1 X178.96 Y33.402 E56.84201
G1 X179.987 Y35.319 E56.91435
G1 X180.2 Y37.218 E56.97791
G1 X180.156 Y57.842 E57.66386
G1 X179.967 Y59.145 E57.70766
G1 X178.95 Y61.036 E57.77907
G1 X164.212 Y75.774 E58.4723
G1 X162.295 Y76.801 E58.54463
G1 X160.4 Y77.014 E58.60806
G1 X50.372 Y76.97 E62.2676
G1 X49.069 Y76.781 E62.3114
G1 X47.178 Y75.764 E62.38281
G1 X44.04 Y72.626 E62.53041
G1 X43.013 Y70.709 E62.60274
G1 X42.8 Y68.814 E62.66617
G1 X42.844 Y12.186 E64.54962
G1 X43.033 Y10.883 E64.59342
G0 F6000 X43.419 Y11.009
G1 F1200 X44.373 Y9.235 E64.66041
G1 X47.425 Y6.183 E64.80397
G1 X49.22 Y5.215 E64.8718
G1 X50.583 Y5.038 E64.91751
G1 X147.6 Y5.014 E68.14431
G1 X149.372 Y5.215 E68.20362
G1 X151.171 Y6.179 E68.27151
G1 X178.635 Y33.643 E69.56333
G1 X179.599 Y35.442 E69.63121
G1 X179.8 Y37.217 E69.69063
G1 X179.76 Y57.785 E70.37472
G1 X179.581 Y59.019 E70.4162
G1 X178.627 Y60.793 E70.48319
G1 X163.971 Y75.449 E71.17256
G1 X162.172 Y76.413 E71.24045
G1 X160.4 Y76.614 E71.29976
G1 X50.429 Y76.574 E74.95741
G1 X49.195 Y76.395 E74.99889
G1 X47.421 Y75.441 E75.06588
G1 X44.365 Y72.385 E75.20963
G1 X43.401 Y70.586 E75.27751
G1 X43.2 Y68.814 E75.33682
G1 X43.24 Y12.243 E77.21838
G1 X43.419 Y11.009 E77.25986
G0 F6000 X43.805 Y11.135
G1 F1200 X44.696 Y9.478 E77.32243
G1 X47.667 Y6.507 E77.46218
G1 X49.344 Y5.603 E77.52554
G1 X50.635 Y5.435 E77.56884
G1 X147.6 Y5.414 E80.79391
G1 X149.249 Y5.603 E80.84912
G1 X150.93 Y6.504 E80.91255
G1 X178.31 Y33.884 E82.20042
G1 X179.211 Y35.565 E82.26386
G1 X179.4 Y37.216 E82.31913
G1 X179.364 Y57.728 E83.00136
G1 X179.195 Y58.893 E83.04052
G1 X178.304 Y60.55 E83.10309
G1 X163.73 Y75.124 E83.78861
G1 X162.049 Y76.025 E83.85204
G1 X160.4 Y76.214 E83.90725
G1 X50.486 Y76.178 E87.563
G1 X49.321 Y76.009 E87.60216
G1 X47.664 Y75.118 E87.66473
G1 X44.69 Y72.144 E87.80462
G1 X43.789 Y70.463 E87.86805
G1 X43.6 Y68.814 E87.92326
G1 X43.636 Y12.3 E89.80292
G1 X43.805 Y11.135 E89.84208
G0 F6000 X44.191 Y11.261
G1 F1200 X45.019 Y9.721 E89.90023
G1 X47.909 Y6.831 E90.03617
G1 X49.468 Y5.991 E90.09507
G1 X50.687 Y5.832 E90.13596
G1 X147.6 Y5.814 E93.35929
G1 X149.126 Y5.991 E93.41039
G1 X150.689 Y6.829 E93.46938
G1 X177.985 Y34.125 E94.7533
G1 X178.823 Y35.688 E94.81228
G1 X179 Y37.215 E94.86341
G1 X178.968 Y57.671 E95.54378
G1 X178.809 Y58.767 E95.58062
G1 X177.981 Y60.307 E95.63877
G1 X163.489 Y74.799 E96.32043
G1 X161.926 Y75.637 E96.37942
G1 X160.4 Y75.814 E96.43051
G1 X50.543 Y75.782 E100.08437
G1 X49.447 Y75.623 E100.1212
G1 X47.907 Y74.795 E100.17936
G1 X45.015 Y71.903 E100.31539
G1 X44.177 Y70.34 E100.37438
G1 X44 Y68.814 E100.42547
G1 X44.032 Y12.357 E102.30324
G1 X44.191 Y11.261 E102.34007
G0 F6000 X44.577 Y11.387
G1 F1200 X45.342 Y9.964 E102.39381
G1 X48.151 Y7.155 E102.52593
G1 X49.592 Y6.379 E102.58037
G1 X50.739 Y6.229 E102.61884
G1 X147.6 Y6.214 E105.84045
G1 X149.005 Y6.379 E105.88751
G1 X150.446 Y7.152 E105.94189
G1 X177.662 Y34.368 E107.22205
G1 X178.435 Y35.809 E107.27644
G1 X178.6 Y37.214 E107.32349
G1 X178.572 Y57.614 E108.002
G1 X178.423 Y58.641 E108.03651
G1 X177.658 Y60.064 E108.09025
G1 X163.246 Y74.476 E108.76815
G1 X161.805 Y75.249 E108.82253
G1 X160.4 Y75.414 E108.86959
G1 X50.6 Y75.386 E112.52155
G1 X49.573 Y75.237 E112.55606
G1 X48.15 Y74.472 E112.6098
G1 X45.338 Y71.66 E112.74207
G1 X44.565 Y70.219 E112.79646
G1 X44.4 Y68.814 E112.84351
G1 X44.428 Y12.414 E114.71938
G1 X44.577 Y11.387 E114.7539
G0 F6000 X44.963 Y11.513
G1 F1200 X45.665 Y10.207 E114.80321
G1 X48.393 Y7.479 E114.93153
G1 X49.716 Y6.767 E114.9815
G1 X50.791 Y6.626 E115.01756
G1 X147.6 Y6.614 E118.23744
G1 X148.881 Y6.767 E118.28035
G1 X150.205 Y7.477 E118.33032
G1 X177.337 Y34.609 E119.60652
G1 X178.047 Y35.933 E119.65649
G1 X178.2 Y37.214 E119.6994
G1 X178.176 Y57.557 E120.37601
G1 X178.037 Y58.515 E120.40821
G1 X177.335 Y59.821 E120.45752
G1 X163.005 Y74.151 E121.13156
G1 X161.681 Y74.861 E121.18153
G1 X160.4 Y75.014 E121.22444
G1 X50.657 Y74.99 E124.87451
G1 X49.699 Y74.851 E124.90671
G1 X48.393 Y74.149 E124.95602
G1 X45.663 Y71.419 E125.08443
G1 X44.953 Y70.095 E125.1344
G1 X44.8 Y68.814 E125.17731
G1 X44.824 Y12.471 E127.05128
G1 X44.963 Y11.513 E127.08348
G0 F6000 X45.349 Y11.639
G1 F1200 X45.988 Y10.45 E127.12838
G1 X48.636 Y7.802 E127.25293
G1 X49.839 Y7.155 E127.29836
G1 X50.843 Y7.023 E127.33204
G1 X147.6 Y7.014 E130.55019
G1 X148.76 Y7.155 E130.58906
G1 X149.962 Y7.8 E130.63443
G1 X177.014 Y34.852 E131.90687
G1 X177.659 Y36.054 E131.95224
G1 X177.8 Y37.214 E131.99111
G1 X177.78 Y57.5 E132.66583
G1 X177.651 Y58.389 E132.6957
G1 X177.012 Y59.578 E132.7406
G1 X162.762 Y73.828 E133.41088
G1 X161.56 Y74.473 E133.45625
G1 X160.4 Y74.614 E133.49511
G1 X50.714 Y74.594 E137.14328
G1 X49.825 Y74.465 E137.17316
G1 X48.636 Y73.826 E137.21806
G1 X45.986 Y71.176 E137.3427
G1 X45.341 Y69.974 E137.38808
G1 X45.2 Y68.814 E137.42694
G1 X45.22 Y12.528 E139.29902
G1 X45.349 Y11.639 E139.3289
G0 F6000 X45.735 Y11.765
G1 F1200 X46.311 Y10.693 E139.36938
G1 X48.879 Y8.125 E139.49017
G1 X49.962 Y7.543 E139.53106
G1 X50.895 Y7.42 E139.56236
G1 X147.6 Y7.414 E142.77878
G1 X148.638 Y7.543 E142.81357
G1 X149.719 Y8.123 E142.85437
G1 X176.691 Y35.095 E144.12305
G1 X177.271 Y36.176 E144.16386
G1 X177.4 Y37.214 E144.19864
G1 X177.384 Y57.443 E144.87146
G1 X177.265 Y58.263 E144.89902
G1 X176.689 Y59.335 E144.9395
G1 X162.519 Y73.505 E145.60601
G1 X161.438 Y74.085 E145.64681
G1 X160.4 Y74.214 E145.6816
G1 X50.771 Y74.198 E149.32788
G1 X49.951 Y74.079 E149.35544
G1 X48.879 Y73.503 E149.39591
G1 X46.309 Y70.933 E149.5168
G1 X45.729 Y69.852 E149.5576
G1 X45.6 Y68.814 E149.59239
G1 X45.616 Y12.585 E151.46258
G1 X45.735 Y11.765 E151.49013
G0 F6000 X46.121 Y11.891
G1 F1200 X46.634 Y10.936 E151.52619
G1 X49.122 Y8.448 E151.64322
G1 X50.085 Y7.931 E151.67957
G1 X50.947 Y7.817 E151.70849
G1 X147.6 Y7.814 E154.92318
G1 X148.514 Y7.931 E154.95383
G1 X149.478 Y8.448 E154.99021
G1 X176.366 Y35.336 E156.25494
G1 X176.883 Y36.3 E156.29133
G1 X177 Y37.214 E156.32197
G1 X176.988 Y57.386 E156.9929
G1 X176.879 Y58.137 E157.01814
G1 X176.366 Y59.092 E157.05419
G1 X162.278 Y73.18 E157.71685
G1 X161.314 Y73.697 E157.75323
G1 X160.4 Y73.814 E157.78388
G1 X50.828 Y73.802 E161.42826
G1 X50.077 Y73.693 E161.4535
G1 X49.122 Y73.18 E161.48956
G1 X46.634 Y70.692 E161.60658
G1 X46.117 Y69.728 E161.64297
G1 X46 Y68.814 E161.67362
G1 X46.012 Y12.642 E163.5419
G1 X46.121 Y11.891 E163.56714
G0 F6000 X46.507 Y12.017
G1 F1200 X46.957 Y11.179 E163.59878
G1 X49.365 Y8.771 E163.71204
G1 X50.207 Y8.319 E163.74383
G1 X51 Y8.214 E163.77044
G1 X147.6 Y8.214 E166.98336
G1 X148.393 Y8.319 E167.00997
G1 X149.235 Y8.771 E167.04176
G1 X176.043 Y35.579 E168.30272
G1 X176.495 Y36.421 E168.33451
G1 X176.6 Y37.214 E168.36111
G1 X176.592 Y57.329 E169.03014
G1 X176.493 Y58.011 E169.05306
G1 X176.043 Y58.849 E169.0847
G1 X162.035 Y72.857 E169.74359
G1 X161.193 Y73.309 E169.77538
G1 X160.4 Y73.414 E169.80198
G1 X50.885 Y73.406 E173.44446
G1 X50.203 Y73.307 E173.46739
G1 X49.365 Y72.857 E173.49902
G1 X46.957 Y70.449 E173.61229
G1 X46.505 Y69.607 E173.64407
G1 X46.4 Y68.814 E173.67068
G1 X46.408 Y12.699 E175.53707
G1 X46.507 Y12.017 E175.55999
G0 F6000 X46.893 Y12.143
G1 F1200 X47.28 Y11.422 E175.58721
G1 X49.608 Y9.094 E175.69671
G1 X50.331 Y8.706 E175.724
G1 X51 Y8.614 E175.74646
G1 X147.6 Y8.614 E178.95939
G1 X148.269 Y8.706 E178.98185
G1 X148.992 Y9.094 E179.00914
G1 X175.72 Y35.822 E180.26635
G1 X176.108 Y36.545 E180.29364
G1 X176.2 Y37.214 E180.3161
G1 X176.196 Y57.272 E180.98323
G1 X176.107 Y57.885 E181.00383
G1 X175.72 Y58.606 E181.03105
G1 X161.792 Y72.534 E181.68618
G1 X161.069 Y72.922 E181.71347
G1 X160.4 Y73.014 E181.73593
G1 X50.942 Y73.01 E185.37652
G1 X50.329 Y72.921 E185.39712
G1 X49.608 Y72.534 E185.42434
G1 X47.28 Y70.206 E185.53384
G1 X46.892 Y69.483 E185.56113
G1 X46.8 Y68.814 E185.58359
G1 X46.804 Y12.756 E187.44809
G1 X46.893 Y12.143 E187.46869
G0 F6000 X47.279 Y12.271
G1 F1200 X47.605 Y11.663 E187.49163
G1 X49.849 Y9.419 E187.59718
G1 X50.457 Y9.093 E187.62013
G1 X51 Y9.014 E187.63838
G1 X147.6 Y9.014 E190.85131
G1 X148.143 Y9.093 E190.86956
G1 X148.751 Y9.419 E190.89251
G1 X175.395 Y36.063 E192.14576
G1 X175.721 Y36.671 E192.1687
G1 X175.8 Y37.214 E192.18695
G1 X175.8 Y57.214 E192.85216
G1 X175.721 Y57.757 E192.87041
G1 X175.395 Y58.365 E192.89335
G1 X161.551 Y72.209 E193.54453
G1 X160.943 Y72.535 E193.56748
G1 X160.4 Y72.614 E193.58573
G1 X51 Y72.614 E197.22439
G1 X50.457 Y72.535 E197.24264
G1 X49.849 Y72.209 E197.26558
G1 X47.605 Y69.965 E197.37113
G1 X47.279 Y69.357 E197.39408
G1 X47.2 Y68.814 E197.41233
G1 X47.2 Y12.814 E199.2749
G1 X47.279 Y12.271 E199.29315
G0 F6000 X47.664 Y12.4
G1 F1200 X47.93 Y11.904 E199.31187
G1 X50.09 Y9.744 E199.41347
G1 X50.586 Y9.478 E199.43219
G1 X51 Y9.414 E199.44612
G1 X147.6 Y9.414 E202.65905
G1 X148.014 Y9.478 E202.67298
G1 X148.51 Y9.744 E202.6917
G1 X175.07 Y36.304 E203.941
G1 X175.336 Y36.8 E203.95972
G1 X175.4 Y37.214 E203.97366
G1 X175.4 Y57.214 E204.63886
G1 X175.336 Y57.628 E204.65279
G1 X175.07 Y58.124 E204.67151
G1 X161.31 Y71.884 E205.31874
G1 X160.814 Y72.15 E205.33746
G1 X160.4 Y72.214 E205.35139
G1 X51 Y72.214 E208.99005
G1 X50.586 Y72.15 E209.00398
G1 X50.09 Y71.884 E209.0227
G1 X47.93 Y69.724 E209.1243
G1 X47.664 Y69.228 E209.14302
G1 X47.6 Y68.814 E209.15696
G1 X47.6 Y12.814 E211.01952
G1 X47.664 Y12.4 E211.03346
G0 F6000 X48.048 Y12.529
G1 F1200 X48 Y12.814 E211.04307
G1 X48 Y68.814 E212.90564
G1 X48.048 Y69.099 E212.91525
G1 X48.253 Y69.481 E212.92967
G1 X50.333 Y71.561 E213.02751
G1 X50.715 Y71.766 E213.04193
G1 X51 Y71.814 E213.05154
G1 X160.4 Y71.814 E216.6902
G1 X160.685 Y71.766 E216.69981
G1 X161.067 Y71.561 E216.71423
G1 X174.747 Y57.881 E217.35769
G1 X174.952 Y57.499 E217.37211
G1 X175 Y57.214 E217.38173
G1 X175 Y37.214 E218.04693
G1 X174.952 Y36.929 E218.05654
G1 X174.747 Y36.547 E218.07096
G1 X148.267 Y10.067 E219.3165
G1 X147.885 Y9.862 E219.33092
G1 X147.6 Y9.814 E219.34053
G1 X51 Y9.814 E222.55346
G1 X50.715 Y9.862 E222.56307
G1 X50.333 Y10.067 E222.57749
G1 X48.253 Y12.147 E222.67533
G1 X48.048 Y12.529 E222.68975
G0 F6000 X48.8 Y12.814
G1 F1200 X48.859 Y12.673 E222.69483
G1 X50.859 Y10.673 E222.78891
G1 X51 Y10.614 E222.79399
G1 X147.6 Y10.614 E226.00692
G1 X147.741 Y10.673 E226.012
G1 X174.141 Y37.073 E227.25378
G1 X174.2 Y37.214 E227.25886
G1 X174.2 Y57.214 E227.92406
G1 X174.141 Y57.355 E227.92915
G1 X160.541 Y70.955 E228.56885
G1 X160.4 Y71.014 E228.57393
G1 X51 Y71.014 E232.21259
G1 X50.859 Y70.955 E232.21768
G1 X48.859 Y68.955 E232.31175
G1 X48.8 Y68.814 E232.31683
G1 X48.8 Y12.814 E234.1794
G0 F6000 X48.431 Y12.66
G1 F1200 X48.576 Y12.39 E234.18959
G1 X50.576 Y10.39 E234.28367
G1 X50.846 Y10.245 E234.29386
G1 X51 Y10.214 E234.29909
G1 X147.6 Y10.214 E237.51202
G1 X147.754 Y10.245 E237.51724
G1 X148.024 Y10.39 E237.52743
G1 X174.424 Y36.79 E238.76921
G1 X174.569 Y37.06 E238.7794
G1 X174.6 Y37.214 E238.78463
G1 X174.6 Y57.214 E239.44983
G1 X174.569 Y57.368 E239.45505
G1 X174.424 Y57.638 E239.46525
