;FLAVOR:Marlin
;TIME:26556
;Filament used: 18.6568m
;Layer height: 0.2
;MINX:32.2
;MINY:39.55
;MINZ:0.2
;MAXX:187.8
;MAXY:180.442
;MAXZ:29
;TARGET_MACHINE.NAME:Creality Ender-3 Pro
;Generated with Cura_SteamEngine 5.8.1
M82 ;absolute extrusion mode
; Ender 3 Custom Start G-code
G92 E0 ; Reset Extruder
G28 ; Home all axes
G1 Z5.0 F3000 ; Move Z Axis up a bit during heating to not damage bed
M104 S175 ; Start heating up the nozzle most of the way
M190 S60 ; Start heating the bed, wait until target temperature reached
M109 S200 ; Finish heating the nozzle
G1 Z2.0 F3000 ; Move Z Axis up little to prevent scratching of Heat Bed
G1 X0.1 Y20 Z0.3 F5000.0 ; Move to start position
G1 X0.1 Y200.0 Z0.3 F1500.0 E15 ; Draw the first line
G1 X0.4 Y200.0 Z0.3 F5000.0 ; Move to side a little
G1 X0.4 Y20 Z0.3 F1500.0 E30 ; Draw the second line
G92 E0 ; Reset Extruder
G1 Z2.0 F3000 ; Move Z Axis up little to prevent scratching of Heat Bed
G1 X5 Y20 Z0.3 F5000.0 ; Move over to prevent blob squish
G92 E0
G92 E0
G1 F1500 E-6.5
;LAYER_COUNT:145
;LAYER:0
M107
G0 F6000 X37.215 Y41.399 Z0.2
;TYPE:SKIRT
G1 F1500 E0
G1 F1200 X39.6 Y40.111 E0.09015
G1 X41.327 Y39.889 E0.14807
G1 X98 Y39.85 E2.03302
G1 X100.149 Y40.081 E2.10491
G1 X100.55 Y40.197 E2.11879
G1 X102.776 Y41.39 E2.20279
G1 X106.26 Y44.874 E2.36667
G1 X107.434 Y47.065 E2.44934
G1 X107.565 Y47.46 E2.46318
G1 X107.8 Y49.65 E2.53644
G1 X107.74 Y147.106 E5.77784
G1 X107.511 Y148.685 E5.83091
G1 X106.242 Y151.044 E5.92
G1 X78.376 Y178.91 E7.23073
G1 X76.251 Y180.049 E7.31092
G1 X75.752 Y180.221 E7.32848
G1 X73.776 Y180.442 E7.39461
G1 X52.744 Y180.39 E8.09414
G1 X51.165 Y180.161 E8.14721
G1 X48.806 Y178.892 E8.2363
G1 X33.74 Y163.826 E8.94496
G1 X32.566 Y161.635 E9.02763
G1 X32.435 Y161.24 E9.04147
G1 X32.2 Y159.05 E9.11473
G1 X32.26 Y48.794 E12.78186
G1 X32.489 Y47.215 E12.83493
G1 X33.758 Y44.856 E12.92402
G1 X37.215 Y41.399 E13.08663
G0 F6000 X37.457 Y41.723
G1 F1200 X39.724 Y40.499 E13.17232
G1 X41.378 Y40.286 E13.22778
G1 X98 Y40.25 E15.11104
G1 X100.106 Y40.479 E15.1815
G1 X100.396 Y40.569 E15.1916
G1 X102.535 Y41.715 E15.27231
G1 X105.935 Y45.115 E15.43223
G1 X107.081 Y47.254 E15.51294
G1 X107.171 Y47.544 E15.52304
G1 X107.4 Y49.65 E15.5935
G1 X107.344 Y147.049 E18.83301
G1 X107.125 Y148.559 E18.88376
G1 X105.919 Y150.801 E18.96843
G1 X78.135 Y178.585 E20.2753
G1 X76.062 Y179.696 E20.35353
G1 X75.669 Y179.827 E20.36731
G1 X73.731 Y180.044 E20.43217
G1 X52.801 Y179.994 E21.1283
G1 X51.291 Y179.775 E21.17905
G1 X49.049 Y178.569 E21.26373
G1 X34.065 Y163.585 E21.96853
G1 X32.919 Y161.446 E22.04924
G1 X32.829 Y161.156 E22.05934
G1 X32.6 Y159.05 E22.1298
G1 X32.656 Y48.851 E25.79503
G1 X32.875 Y47.341 E25.84578
G1 X34.081 Y45.099 E25.93045
G1 X37.457 Y41.723 E26.08925
G0 F6000 X37.699 Y42.047
G1 F1200 X39.848 Y40.887 E26.17047
G1 X41.429 Y40.683 E26.22349
G1 X98 Y40.65 E28.10505
G1 X100.062 Y40.877 E28.17405
G1 X100.207 Y40.922 E28.1791
G1 X102.294 Y42.04 E28.25784
G1 X105.61 Y45.356 E28.41382
G1 X106.728 Y47.443 E28.49257
G1 X106.773 Y47.588 E28.49762
G1 X107 Y49.65 E28.56661
G1 X106.948 Y146.992 E31.80422
G1 X106.739 Y148.433 E31.85265
G1 X105.596 Y150.558 E31.9329
G1 X77.894 Y178.26 E33.23592
G1 X75.873 Y179.343 E33.31218
G1 X75.585 Y179.433 E33.32222
G1 X73.686 Y179.646 E33.38578
G1 X52.858 Y179.598 E34.07852
G1 X51.417 Y179.389 E34.12695
G1 X49.292 Y178.246 E34.2072
G1 X34.39 Y163.344 E34.90815
G1 X33.272 Y161.257 E34.98689
G1 X33.227 Y161.112 E34.99194
G1 X33 Y159.05 E35.06094
G1 X33.052 Y48.908 E38.72428
G1 X33.261 Y47.467 E38.77271
G1 X34.404 Y45.342 E38.85296
G1 X37.699 Y42.047 E39.00795
G0 F6000 X37.941 Y42.371
G1 F1200 X39.972 Y41.275 E39.08471
G1 X41.48 Y41.08 E39.13528
G1 X98 Y41.05 E41.01514
G1 X100.018 Y41.275 E41.08268
G1 X102.053 Y42.365 E41.15946
G1 X105.285 Y45.597 E41.31148
G1 X106.375 Y47.632 E41.38827
G1 X106.6 Y49.65 E41.4558
G1 X106.552 Y146.935 E44.69151
G1 X106.353 Y148.307 E44.73762
G1 X105.273 Y150.315 E44.81346
G1 X77.653 Y177.935 E46.11262
G1 X75.684 Y178.99 E46.18691
G1 X75.54 Y179.035 E46.19193
G1 X73.641 Y179.248 E46.25549
G1 X52.915 Y179.202 E46.94484
G1 X51.543 Y179.003 E46.99095
G1 X49.535 Y177.923 E47.06678
G1 X34.715 Y163.103 E47.76387
G1 X33.625 Y161.068 E47.84065
G1 X33.4 Y159.05 E47.90819
G1 X33.448 Y48.965 E51.56963
G1 X33.647 Y47.593 E51.61574
G1 X34.727 Y45.585 E51.69158
G1 X37.941 Y42.371 E51.84275
G0 F6000 X38.183 Y42.695
G1 F1200 X40.096 Y41.663 E51.91505
G1 X41.531 Y41.477 E51.96317
G1 X98 Y41.45 E53.84134
G1 X99.895 Y41.663 E53.90477
G1 X101.812 Y42.69 E53.9771
G1 X104.96 Y45.838 E54.12517
G1 X105.987 Y47.755 E54.1975
G1 X106.2 Y49.65 E54.26093
G1 X106.156 Y146.878 E57.49475
G1 X105.967 Y148.181 E57.53854
G1 X104.95 Y150.072 E57.60995
G1 X77.412 Y177.61 E58.90525
G1 X75.495 Y178.637 E58.97759
G1 X73.596 Y178.85 E59.04114
G1 X52.972 Y178.806 E59.7271
G1 X51.669 Y178.617 E59.77089
G1 X49.778 Y177.6 E59.84231
G1 X35.04 Y162.862 E60.53554
G1 X34.013 Y160.945 E60.60787
G1 X33.8 Y159.05 E60.6713
G1 X33.844 Y49.022 E64.33084
G1 X34.033 Y47.719 E64.37463
G1 X35.05 Y45.828 E64.44605
G1 X38.183 Y42.695 E64.59341
G0 F6000 X38.425 Y43.019
G1 F1200 X40.22 Y42.051 E64.66124
G1 X41.583 Y41.874 E64.70696
G1 X98 Y41.85 E66.5834
G1 X99.772 Y42.051 E66.64271
G1 X101.571 Y43.015 E66.7106
G1 X104.635 Y46.079 E66.85472
G1 X105.599 Y47.878 E66.9226
G1 X105.8 Y49.65 E66.98192
G1 X105.76 Y146.821 E70.21384
G1 X105.581 Y148.055 E70.25531
G1 X104.627 Y149.829 E70.3223
G1 X77.171 Y177.285 E71.61375
G1 X75.372 Y178.249 E71.68163
G1 X73.597 Y178.45 E71.74105
G1 X53.029 Y178.41 E72.42514
G1 X51.795 Y178.231 E72.46662
G1 X50.021 Y177.277 E72.53361
G1 X35.365 Y162.621 E73.22298
G1 X34.401 Y160.822 E73.29087
G1 X34.2 Y159.05 E73.35018
G1 X34.24 Y49.079 E77.00783
G1 X34.419 Y47.845 E77.0493
G1 X35.373 Y46.071 E77.1163
G1 X38.425 Y43.019 E77.25986
G0 F6000 X38.667 Y43.343
G1 F1200 X40.344 Y42.439 E77.32322
G1 X41.635 Y42.271 E77.36652
G1 X98 Y42.25 E79.24123
G1 X99.649 Y42.439 E79.29643
G1 X101.33 Y43.34 E79.35987
G1 X104.31 Y46.32 E79.50004
G1 X105.211 Y48.001 E79.56347
G1 X105.4 Y49.65 E79.61868
G1 X105.364 Y146.764 E82.8487
G1 X105.195 Y147.929 E82.88786
G1 X104.304 Y149.586 E82.95043
G1 X76.93 Y176.96 E84.23802
G1 X75.249 Y177.861 E84.30146
G1 X73.598 Y178.05 E84.35673
G1 X53.086 Y178.014 E85.03896
G1 X51.921 Y177.845 E85.07811
G1 X50.264 Y176.954 E85.14069
G1 X35.69 Y162.38 E85.82621
G1 X34.789 Y160.699 E85.88964
G1 X34.6 Y159.05 E85.94485
G1 X34.636 Y49.136 E89.6006
G1 X34.805 Y47.971 E89.63975
G1 X35.696 Y46.314 E89.70233
G1 X38.667 Y43.343 E89.84207
G0 F6000 X38.909 Y43.667
G1 F1200 X40.468 Y42.827 E89.90097
G1 X41.687 Y42.668 E89.94186
G1 X98 Y42.65 E91.81484
G1 X99.526 Y42.827 E91.86594
G1 X101.089 Y43.665 E91.92492
G1 X103.985 Y46.561 E92.06114
G1 X104.823 Y48.124 E92.12013
G1 X105 Y49.65 E92.17122
G1 X104.968 Y146.707 E95.39935
G1 X104.809 Y147.803 E95.43619
G1 X103.981 Y149.343 E95.49434
G1 X76.689 Y176.635 E96.77807
G1 X75.126 Y177.473 E96.83706
G1 X73.599 Y177.65 E96.88819
G1 X53.143 Y177.618 E97.56856
G1 X52.047 Y177.459 E97.60539
G1 X50.507 Y176.631 E97.66355
G1 X36.015 Y162.139 E98.34521
G1 X35.177 Y160.576 E98.40419
G1 X35 Y159.05 E98.45529
G1 X35.032 Y49.193 E102.10915
G1 X35.191 Y48.097 E102.14598
G1 X36.019 Y46.557 E102.20414
G1 X38.909 Y43.667 E102.34007
G0 F6000 X39.151 Y43.991
G1 F1200 X40.592 Y43.215 E102.39451
G1 X41.739 Y43.065 E102.43298
G1 X98 Y43.05 E104.30423
G1 X99.405 Y43.215 E104.35128
G1 X100.846 Y43.988 E104.40567
G1 X103.662 Y46.804 E104.53813
G1 X104.435 Y48.245 E104.59251
G1 X104.6 Y49.65 E104.63957
G1 X104.572 Y146.65 E107.8658
G1 X104.423 Y147.677 E107.90032
G1 X103.658 Y149.1 E107.95405
G1 X76.446 Y176.312 E109.23402
G1 X75.005 Y177.085 E109.28841
G1 X73.6 Y177.25 E109.33546
G1 X53.2 Y177.222 E110.01397
G1 X52.173 Y177.073 E110.04848
G1 X50.75 Y176.308 E110.10222
G1 X36.338 Y161.896 E110.78011
G1 X35.565 Y160.455 E110.8345
G1 X35.4 Y159.05 E110.88155
G1 X35.428 Y49.25 E114.53352
G1 X35.577 Y48.223 E114.56803
G1 X36.342 Y46.8 E114.62177
G1 X39.151 Y43.991 E114.75389
G0 F6000 X39.393 Y44.315
G1 F1200 X40.716 Y43.603 E114.80386
G1 X41.791 Y43.462 E114.83993
G1 X98 Y43.45 E116.70944
G1 X99.281 Y43.603 E116.75235
G1 X100.605 Y44.313 E116.80232
G1 X103.337 Y47.045 E116.93083
G1 X104.047 Y48.369 E116.9808
G1 X104.2 Y49.65 E117.0237
G1 X104.176 Y146.593 E120.24804
G1 X104.037 Y147.551 E120.28024
G1 X103.335 Y148.857 E120.32955
G1 X76.205 Y175.987 E121.60567
G1 X74.881 Y176.697 E121.65563
G1 X73.6 Y176.85 E121.69854
G1 X53.257 Y176.826 E122.37516
G1 X52.299 Y176.687 E122.40735
G1 X50.993 Y175.985 E122.45667
G1 X36.663 Y161.655 E123.13071
G1 X35.953 Y160.331 E123.18068
G1 X35.8 Y159.05 E123.22358
G1 X35.824 Y49.307 E126.87365
G1 X35.963 Y48.349 E126.90585
G1 X36.665 Y47.043 E126.95516
G1 X39.393 Y44.315 E127.08348
G0 F6000 X39.636 Y44.638
G1 F1200 X40.839 Y43.991 E127.12891
G1 X41.843 Y43.859 E127.16259
G1 X98 Y43.85 E129.03038
G1 X99.16 Y43.991 E129.06925
G1 X100.362 Y44.636 E129.11462
G1 X103.014 Y47.288 E129.23936
G1 X103.659 Y48.49 E129.28473
G1 X103.8 Y49.65 E129.3236
G1 X103.78 Y146.536 E132.54604
G1 X103.651 Y147.425 E132.57592
G1 X103.012 Y148.614 E132.62081
G1 X75.962 Y175.664 E133.89316
G1 X74.76 Y176.309 E133.93853
G1 X73.6 Y176.45 E133.9774
G1 X53.314 Y176.43 E134.65211
G1 X52.425 Y176.301 E134.68199
G1 X51.236 Y175.662 E134.72689
G1 X36.986 Y161.412 E135.39716
G1 X36.341 Y160.21 E135.44253
G1 X36.2 Y159.05 E135.4814
G1 X36.22 Y49.364 E139.12957
G1 X36.349 Y48.475 E139.15945
G1 X36.988 Y47.286 E139.20434
G1 X39.636 Y44.638 E139.3289
G0 F6000 X39.879 Y44.961
G1 F1200 X40.962 Y44.379 E139.36979
G1 X41.895 Y44.256 E139.40109
G1 X98 Y44.25 E141.26715
G1 X99.038 Y44.379 E141.30194
G1 X100.119 Y44.959 E141.34274
G1 X102.691 Y47.531 E141.46372
G1 X103.271 Y48.612 E141.50452
G1 X103.4 Y49.65 E141.53931
G1 X103.384 Y146.479 E144.75986
G1 X103.265 Y147.299 E144.78742
G1 X102.689 Y148.371 E144.82789
G1 X75.719 Y175.341 E146.09648
G1 X74.638 Y175.921 E146.13728
G1 X73.6 Y176.05 E146.17207
G1 X53.371 Y176.034 E146.84489
G1 X52.551 Y175.915 E146.87245
G1 X51.479 Y175.339 E146.91293
G1 X37.309 Y161.169 E147.57944
G1 X36.729 Y160.088 E147.62024
G1 X36.6 Y159.05 E147.65503
G1 X36.616 Y49.421 E151.30131
G1 X36.735 Y48.601 E151.32887
G1 X37.311 Y47.529 E151.36934
G1 X39.879 Y44.961 E151.49013
G0 F6000 X40.122 Y45.284
G1 F1200 X41.085 Y44.767 E151.52649
G1 X41.947 Y44.653 E151.55541
G1 X98 Y44.65 E153.41974
G1 X98.914 Y44.767 E153.45038
G1 X99.878 Y45.284 E153.48677
G1 X102.366 Y47.772 E153.6038
G1 X102.883 Y48.736 E153.64018
G1 X103 Y49.65 E153.67083
G1 X102.988 Y146.422 E156.88948
G1 X102.879 Y147.173 E156.91472
G1 X102.366 Y148.128 E156.95077
G1 X75.478 Y175.016 E158.2155
G1 X74.514 Y175.533 E158.25188
G1 X73.6 Y175.65 E158.28253
G1 X53.428 Y175.638 E158.95346
G1 X52.677 Y175.529 E158.9787
G1 X51.722 Y175.016 E159.01475
G1 X37.634 Y160.928 E159.67741
G1 X37.117 Y159.964 E159.71379
G1 X37 Y159.05 E159.74444
G1 X37.012 Y49.478 E163.38882
G1 X37.121 Y48.727 E163.41406
G1 X37.634 Y47.772 E163.45011
G1 X40.122 Y45.284 E163.56714
G0 F6000 X40.365 Y45.607
G1 F1200 X41.207 Y45.155 E163.59893
G1 X42 Y45.05 E163.62553
G1 X98 Y45.05 E165.4881
G1 X98.793 Y45.155 E165.51471
G1 X99.635 Y45.607 E165.54649
G1 X102.043 Y48.015 E165.65976
G1 X102.495 Y48.857 E165.69154
G1 X102.6 Y49.65 E165.71815
G1 X102.592 Y146.365 E168.9349
G1 X102.493 Y147.047 E168.95782
G1 X102.043 Y147.885 E168.98946
G1 X75.235 Y174.693 E170.25042
G1 X74.393 Y175.145 E170.28221
G1 X73.6 Y175.25 E170.30881
G1 X53.485 Y175.242 E170.97784
G1 X52.803 Y175.143 E171.00076
G1 X51.965 Y174.693 E171.0324
G1 X37.957 Y160.685 E171.69129
G1 X37.505 Y159.843 E171.72308
G1 X37.4 Y159.05 E171.74968
G1 X37.408 Y49.535 E175.39217
G1 X37.507 Y48.853 E175.41509
G1 X37.957 Y48.015 E175.44672
G1 X40.365 Y45.607 E175.55999
G0 F6000 X40.608 Y45.93
G1 F1200 X41.331 Y45.542 E175.58728
G1 X42 Y45.45 E175.60974
G1 X98 Y45.45 E177.47231
G1 X98.669 Y45.542 E177.49477
G1 X99.392 Y45.93 E177.52206
G1 X101.72 Y48.258 E177.63156
G1 X102.108 Y48.981 E177.65885
G1 X102.2 Y49.65 E177.68131
G1 X102.196 Y146.308 E180.89617
G1 X102.107 Y146.921 E180.91677
G1 X101.72 Y147.642 E180.94399
G1 X74.992 Y174.37 E182.20119
G1 X74.269 Y174.758 E182.22848
G1 X73.6 Y174.85 E182.25095
G1 X53.542 Y174.846 E182.91808
G1 X52.929 Y174.757 E182.93868
G1 X52.208 Y174.37 E182.9659
G1 X38.28 Y160.442 E183.62103
G1 X37.892 Y159.719 E183.64832
G1 X37.8 Y159.05 E183.67078
G1 X37.804 Y49.592 E187.31137
G1 X37.893 Y48.979 E187.33197
G1 X38.28 Y48.258 E187.35918
G1 X40.608 Y45.93 E187.46869
G0 F6000 X40.849 Y46.255
G1 F1200 X41.457 Y45.929 E187.49163
G1 X42 Y45.85 E187.50988
G1 X98 Y45.85 E189.37245
G1 X98.543 Y45.929 E189.3907
G1 X99.151 Y46.255 E189.41365
G1 X101.395 Y48.499 E189.5192
G1 X101.721 Y49.107 E189.54214
G1 X101.8 Y49.65 E189.56039
G1 X101.8 Y146.25 E192.77332
G1 X101.721 Y146.793 E192.79157
G1 X101.395 Y147.401 E192.81452
G1 X74.751 Y174.045 E194.06777
G1 X74.143 Y174.371 E194.09072
G1 X73.6 Y174.45 E194.10897
G1 X53.6 Y174.45 E194.77417
G1 X53.057 Y174.371 E194.79242
G1 X52.449 Y174.045 E194.81537
G1 X38.605 Y160.201 E195.46654
G1 X38.279 Y159.593 E195.48949
G1 X38.2 Y159.05 E195.50774
G1 X38.2 Y49.65 E199.1464
G1 X38.279 Y49.107 E199.16465
G1 X38.605 Y48.499 E199.1876
G1 X40.849 Y46.255 E199.29315
G0 F6000 X41.09 Y46.58
G1 F1200 X41.586 Y46.314 E199.31187
G1 X42 Y46.25 E199.3258
G1 X98 Y46.25 E201.18837
G1 X98.414 Y46.314 E201.2023
G1 X98.91 Y46.58 E201.22102
G1 X101.07 Y48.74 E201.32262
G1 X101.336 Y49.236 E201.34134
G1 X101.4 Y49.65 E201.35527
G1 X101.4 Y146.25 E204.5682
G1 X101.336 Y146.664 E204.58213
G1 X101.07 Y147.16 E204.60085
G1 X74.51 Y173.72 E205.85016
G1 X74.014 Y173.986 E205.86887
G1 X73.6 Y174.05 E205.88281
G1 X53.6 Y174.05 E206.54801
G1 X53.186 Y173.986 E206.56194
G1 X52.69 Y173.72 E206.58066
G1 X38.93 Y159.96 E207.22789
G1 X38.664 Y159.464 E207.24661
G1 X38.6 Y159.05 E207.26054
G1 X38.6 Y49.65 E210.8992
G1 X38.664 Y49.236 E210.91314
G1 X38.93 Y48.74 E210.93186
G1 X41.09 Y46.58 E211.03346
G0 F6000 X41.333 Y46.903
G1 F1200 X41.715 Y46.698 E211.04788
G1 X42 Y46.65 E211.05749
G1 X98 Y46.65 E212.92006
G1 X98.285 Y46.698 E212.92967
G1 X98.667 Y46.903 E212.94409
G1 X100.747 Y48.983 E213.04192
G1 X100.952 Y49.365 E213.05634
G1 X101 Y49.65 E213.06596
G1 X101 Y146.25 E216.27889
G1 X100.952 Y146.535 E216.2885
G1 X100.747 Y146.917 E216.30292
G1 X74.267 Y173.397 E217.54846
G1 X73.885 Y173.602 E217.56287
G1 X73.6 Y173.65 E217.57249
G1 X53.6 Y173.65 E218.23769
G1 X53.315 Y173.602 E218.2473
G1 X52.933 Y173.397 E218.26172
G1 X39.253 Y159.717 E218.90519
G1 X39.048 Y159.335 E218.91961
G1 X39 Y159.05 E218.92922
G1 X39 Y49.65 E222.56788
G1 X39.048 Y49.365 E222.57749
G1 X39.253 Y48.983 E222.59191
G1 X41.333 Y46.903 E222.68975
G0 F6000 X41.859 Y47.509
G1 F1200 X42 Y47.45 E222.69483
G1 X98 Y47.45 E224.5574
G1 X98.141 Y47.509 E224.56248
G1 X100.141 Y49.509 E224.65656
G1 X100.2 Y49.65 E224.66164
G1 X100.2 Y146.25 E227.87457
G1 X100.141 Y146.391 E227.87965
G1 X73.741 Y172.791 E229.12143
G1 X73.6 Y172.85 E229.12651
G1 X53.6 Y172.85 E229.79171
G1 X53.459 Y172.791 E229.7968
G1 X39.859 Y159.191 E230.4365
G1 X39.8 Y159.05 E230.44158
G1 X39.8 Y49.65 E234.08024
G1 X39.859 Y49.509 E234.08533
G1 X41.859 Y47.509 E234.1794
G0 F6000 X41.576 Y47.226
G1 F1200 X41.846 Y47.081 E234.18959
G1 X42 Y47.05 E234.19482
G1 X98 Y47.05 E236.05738
G1 X98.154 Y47.081 E236.06261
G1 X98.424 Y47.226 E236.0728
G1 X100.424 Y49.226 E236.16688
G1 X100.569 Y49.496 E236.17707
G1 X100.6 Y49.65 E236.1823
G1 X100.6 Y146.25 E239.39522
