;FLAVOR:Marlin
;TIME:28430
;Filament used: 20.0072m
;Layer height: 0.2
;MINX:0.222
;MINY:4.422
;MINZ:0.2
;MAXX:220
;MAXY:145.014
;MAXZ:29
;TARGET_MACHINE.NAME:Creality Ender-3 Pro
;Generated with Cura_SteamEngine 5.8.1
M82 ;absolute extrusion mode
; Ender 3 Custom Start G-code
G92 E0 ; Reset Extruder
G28 ; Home all axes
G1 Z5.0 F3000 ; Move Z Axis up a bit during heating to not damage bed
M104 S175 ; Start heating up the nozzle most of the way
M190 S60 ; Start heating the bed, wait until target temperature reached
M109 S200 ; Finish heating the nozzle
G1 Z2.0 F3000 ; Move Z Axis up little to prevent scratching of Heat Bed
G1 X0.1 Y20 Z0.3 F5000.0 ; Move to start position
G1 X0.1 Y200.0 Z0.3 F1500.0 E15 ; Draw the first line
G1 X0.4 Y200.0 Z0.3 F5000.0 ; Move to side a little
G1 X0.4 Y20 Z0.3 F1500.0 E30 ; Draw the second line
G92 E0 ; Reset Extruder
G1 Z2.0 F3000 ; Move Z Axis up little to prevent scratching of Heat Bed
G1 X5 Y20 Z0.3 F5000.0 ; Move over to prevent blob squish
G92 E0
G92 E0
G1 F1500 E-6.5
;LAYER_COUNT:145
;LAYER:0
M107
G0 F6000 X5.237 Y6.914 Z0.2
;TYPE:SKIRT
G1 F1500 E0
G1 F1200 X7.622 Y5.626 E0.09015
G1 X9.349 Y5.404 E0.14807
G1 X106.622 Y5.365 E3.38338
G1 X108.771 Y5.596 E3.45527
G1 X109.172 Y5.712 E3.46915
G1 X111.398 Y6.905 E3.55315
G1 X139.282 Y34.789 E4.86473
G1 X140.421 Y36.914 E4.94492
G1 X140.593 Y37.413 E4.96247
G1 X140.814 Y39.389 E5.02861
G1 X140.762 Y60.421 E5.72814
G1 X140.533 Y62 E5.7812
G1 X139.264 Y64.359 E5.8703
G1 X124.198 Y79.425 E6.57895
G1 X122.007 Y80.599 E6.66163
G1 X121.612 Y80.73 E6.67547
G1 X119.422 Y80.965 E6.74873
G1 X9.166 Y80.905 E10.41586
G1 X7.587 Y80.676 E10.46893
G1 X5.228 Y79.407 E10.55802
G1 X1.762 Y75.941 E10.72105
G1 X0.588 Y73.75 E10.80372
G1 X0.457 Y73.355 E10.81757
G1 X0.222 Y71.165 E10.89082
G1 X0.282 Y14.309 E12.78186
G1 X0.511 Y12.73 E12.83493
G1 X1.78 Y10.371 E12.92402
G1 X5.237 Y6.914 E13.08663
G0 F6000 X5.479 Y7.238
G1 F1200 X7.746 Y6.014 E13.17232
G1 X9.4 Y5.801 E13.22778
G1 X106.622 Y5.765 E16.4614
G1 X108.728 Y5.994 E16.53186
G1 X109.018 Y6.084 E16.54196
G1 X111.157 Y7.23 E16.62267
G1 X138.957 Y35.03 E17.9303
G1 X140.068 Y37.103 E18.00852
G1 X140.199 Y37.496 E18.0223
G1 X140.416 Y39.434 E18.08716
G1 X140.366 Y60.364 E18.7833
G1 X140.147 Y61.874 E18.83405
G1 X138.941 Y64.116 E18.91872
G1 X123.957 Y79.1 E19.62352
G1 X121.818 Y80.246 E19.70423
G1 X121.528 Y80.336 E19.71433
G1 X119.422 Y80.565 E19.78479
G1 X9.223 Y80.509 E23.45002
G1 X7.713 Y80.29 E23.50077
G1 X5.471 Y79.084 E23.58545
G1 X2.087 Y75.7 E23.74462
G1 X0.941 Y73.561 E23.82533
G1 X0.851 Y73.271 E23.83543
G1 X0.622 Y71.165 E23.90589
G1 X0.678 Y14.366 E25.79503
G1 X0.897 Y12.856 E25.84578
G1 X2.103 Y10.614 E25.93045
G1 X5.479 Y7.238 E26.08925
G0 F6000 X5.721 Y7.562
G1 F1200 X7.87 Y6.402 E26.17047
G1 X9.451 Y6.198 E26.22349
G1 X106.622 Y6.165 E29.45541
G1 X108.684 Y6.392 E29.52441
G1 X108.829 Y6.437 E29.52946
G1 X110.916 Y7.555 E29.60821
G1 X138.632 Y35.271 E30.91188
G1 X139.715 Y37.292 E30.98814
G1 X139.805 Y37.58 E30.99818
G1 X140.018 Y39.479 E31.06174
G1 X139.97 Y60.307 E31.75448
G1 X139.761 Y61.748 E31.80291
G1 X138.618 Y63.873 E31.88316
G1 X123.716 Y78.775 E32.58411
G1 X121.629 Y79.893 E32.66285
G1 X121.484 Y79.938 E32.6679
G1 X119.422 Y80.165 E32.7369
G1 X9.28 Y80.113 E36.40024
G1 X7.839 Y79.904 E36.44867
G1 X5.714 Y78.761 E36.52892
G1 X2.412 Y75.459 E36.68424
G1 X1.294 Y73.372 E36.76298
G1 X1.249 Y73.227 E36.76803
G1 X1.022 Y71.165 E36.83703
G1 X1.074 Y14.423 E38.72428
G1 X1.283 Y12.982 E38.77271
G1 X2.426 Y10.857 E38.85296
G1 X5.721 Y7.562 E39.00795
G0 F6000 X5.963 Y7.886
G1 F1200 X7.994 Y6.79 E39.08471
G1 X9.502 Y6.595 E39.13528
G1 X106.622 Y6.565 E42.3655
G1 X108.64 Y6.79 E42.43304
G1 X110.675 Y7.88 E42.50982
G1 X138.307 Y35.512 E43.80955
G1 X139.362 Y37.481 E43.88384
G1 X139.407 Y37.625 E43.88886
G1 X139.62 Y39.524 E43.95242
G1 X139.574 Y60.25 E44.64177
G1 X139.375 Y61.622 E44.68788
G1 X138.295 Y63.63 E44.76371
G1 X123.475 Y78.45 E45.4608
G1 X121.44 Y79.54 E45.53758
G1 X119.422 Y79.765 E45.60512
G1 X9.337 Y79.717 E49.26656
G1 X7.965 Y79.518 E49.31267
G1 X5.957 Y78.438 E49.3885
G1 X2.737 Y75.218 E49.53996
G1 X1.647 Y73.183 E49.61675
G1 X1.422 Y71.165 E49.68428
G1 X1.47 Y14.48 E51.56963
G1 X1.669 Y13.108 E51.61574
G1 X2.749 Y11.1 E51.69158
G1 X5.963 Y7.886 E51.84275
G0 F6000 X6.205 Y8.21
G1 F1200 X8.118 Y7.178 E51.91505
G1 X9.553 Y6.992 E51.96317
G1 X106.622 Y6.965 E55.1917
G1 X108.517 Y7.178 E55.25513
G1 X110.434 Y8.205 E55.32746
G1 X137.982 Y35.753 E56.62323
G1 X139.009 Y37.67 E56.69557
G1 X139.222 Y39.569 E56.75912
G1 X139.178 Y60.193 E57.44508
G1 X138.989 Y61.496 E57.48887
G1 X137.972 Y63.387 E57.56029
G1 X123.234 Y78.125 E58.25352
G1 X121.317 Y79.152 E58.32585
G1 X119.422 Y79.365 E58.38928
G1 X9.394 Y79.321 E62.04882
G1 X8.091 Y79.132 E62.09261
G1 X6.2 Y78.115 E62.16403
G1 X3.062 Y74.977 E62.31163
G1 X2.035 Y73.06 E62.38396
G1 X1.822 Y71.165 E62.44739
G1 X1.866 Y14.537 E64.33084
G1 X2.055 Y13.234 E64.37464
G1 X3.072 Y11.343 E64.44605
G1 X6.205 Y8.21 E64.59342
G0 F6000 X6.447 Y8.534
G1 F1200 X8.242 Y7.566 E64.66125
G1 X9.605 Y7.389 E64.70696
G1 X106.622 Y7.365 E67.93376
G1 X108.394 Y7.566 E67.99307
G1 X110.193 Y8.53 E68.06096
G1 X137.657 Y35.994 E69.35278
G1 X138.621 Y37.793 E69.42066
G1 X138.822 Y39.568 E69.48008
G1 X138.782 Y60.136 E70.16417
G1 X138.603 Y61.37 E70.20565
G1 X137.649 Y63.144 E70.27264
G1 X122.993 Y77.8 E70.96201
G1 X121.194 Y78.764 E71.0299
G1 X119.422 Y78.965 E71.08921
G1 X9.451 Y78.925 E74.74686
G1 X8.217 Y78.746 E74.78834
G1 X6.443 Y77.792 E74.85533
G1 X3.387 Y74.736 E74.99907
G1 X2.423 Y72.937 E75.06696
G1 X2.222 Y71.165 E75.12627
G1 X2.262 Y14.594 E77.00783
G1 X2.441 Y13.36 E77.04931
G1 X3.395 Y11.586 E77.1163
G1 X6.447 Y8.534 E77.25986
G0 F6000 X6.689 Y8.858
G1 F1200 X8.366 Y7.954 E77.32322
G1 X9.657 Y7.786 E77.36652
G1 X106.622 Y7.765 E80.59159
G1 X108.271 Y7.954 E80.6468
G1 X109.952 Y8.855 E80.71023
G1 X137.332 Y36.235 E81.9981
G1 X138.233 Y37.916 E82.06154
G1 X138.422 Y39.567 E82.11681
G1 X138.386 Y60.079 E82.79904
G1 X138.217 Y61.244 E82.8382
G1 X137.326 Y62.901 E82.90077
G1 X122.752 Y77.475 E83.58629
G1 X121.071 Y78.376 E83.64972
G1 X119.422 Y78.565 E83.70493
G1 X9.508 Y78.529 E87.36068
G1 X8.343 Y78.36 E87.39984
G1 X6.686 Y77.469 E87.46241
G1 X3.712 Y74.495 E87.6023
G1 X2.811 Y72.814 E87.66573
G1 X2.622 Y71.165 E87.72094
G1 X2.658 Y14.651 E89.6006
G1 X2.827 Y13.486 E89.63975
G1 X3.718 Y11.829 E89.70233
G1 X6.689 Y8.858 E89.84208
G0 F6000 X6.931 Y9.182
G1 F1200 X8.49 Y8.342 E89.90098
G1 X9.709 Y8.183 E89.94186
G1 X106.622 Y8.165 E93.1652
G1 X108.148 Y8.342 E93.2163
G1 X109.711 Y9.18 E93.27528
G1 X137.007 Y36.476 E94.5592
G1 X137.845 Y38.039 E94.61819
G1 X138.022 Y39.566 E94.66932
G1 X137.99 Y60.022 E95.34969
G1 X137.831 Y61.118 E95.38652
G1 X137.003 Y62.658 E95.44468
G1 X122.511 Y77.15 E96.12634
G1 X120.948 Y77.988 E96.18532
G1 X119.422 Y78.165 E96.23642
G1 X9.565 Y78.133 E99.89028
G1 X8.469 Y77.974 E99.92711
G1 X6.929 Y77.146 E99.98527
G1 X4.037 Y74.254 E100.1213
G1 X3.199 Y72.691 E100.18028
G1 X3.022 Y71.165 E100.23138
G1 X3.054 Y14.708 E102.10915
G1 X3.213 Y13.612 E102.14598
G1 X4.041 Y12.072 E102.20414
G1 X6.931 Y9.182 E102.34007
G0 F6000 X7.173 Y9.506
G1 F1200 X8.614 Y8.73 E102.39451
G1 X9.761 Y8.58 E102.43298
G1 X106.622 Y8.565 E105.65459
G1 X108.027 Y8.73 E105.70164
G1 X109.468 Y9.503 E105.75603
G1 X136.684 Y36.719 E107.03619
G1 X137.457 Y38.16 E107.09058
G1 X137.622 Y39.565 E107.13763
G1 X137.594 Y59.965 E107.81614
G1 X137.445 Y60.992 E107.85065
G1 X136.68 Y62.415 E107.90439
G1 X122.268 Y76.827 E108.58228
G1 X120.827 Y77.6 E108.63667
G1 X119.422 Y77.765 E108.68372
G1 X9.622 Y77.737 E112.33569
G1 X8.595 Y77.588 E112.3702
G1 X7.172 Y76.823 E112.42394
G1 X4.36 Y74.011 E112.55621
G1 X3.587 Y72.57 E112.61059
G1 X3.422 Y71.165 E112.65765
G1 X3.45 Y14.765 E114.53352
G1 X3.599 Y13.738 E114.56803
G1 X4.364 Y12.315 E114.62177
G1 X7.173 Y9.506 E114.7539
G0 F6000 X7.415 Y9.83
G1 F1200 X8.738 Y9.118 E114.80387
G1 X9.813 Y8.977 E114.83993
G1 X106.622 Y8.965 E118.05981
G1 X107.903 Y9.118 E118.10272
G1 X109.227 Y9.828 E118.15268
G1 X136.359 Y36.96 E119.42889
G1 X137.069 Y38.284 E119.47886
G1 X137.222 Y39.565 E119.52177
G1 X137.198 Y59.908 E120.19838
G1 X137.059 Y60.866 E120.23058
G1 X136.357 Y62.172 E120.27989
G1 X122.027 Y76.502 E120.95393
G1 X120.703 Y77.212 E121.0039
G1 X119.422 Y77.365 E121.04681
G1 X9.679 Y77.341 E124.69688
G1 X8.721 Y77.202 E124.72907
G1 X7.415 Y76.5 E124.77839
G1 X4.685 Y73.77 E124.9068
G1 X3.975 Y72.446 E124.95677
G1 X3.822 Y71.165 E124.99968
G1 X3.846 Y14.822 E126.87365
G1 X3.985 Y13.864 E126.90585
G1 X4.687 Y12.558 E126.95516
G1 X7.415 Y9.83 E127.08348
G0 F6000 X7.658 Y10.153
G1 F1200 X8.861 Y9.506 E127.12891
G1 X9.865 Y9.374 E127.16259
G1 X106.622 Y9.365 E130.38074
G1 X107.782 Y9.506 E130.41961
G1 X108.984 Y10.151 E130.46498
G1 X136.036 Y37.203 E131.73742
G1 X136.681 Y38.405 E131.7828
G1 X136.822 Y39.565 E131.82166
G1 X136.802 Y59.851 E132.49638
G1 X136.673 Y60.74 E132.52625
G1 X136.034 Y61.929 E132.57115
G1 X121.784 Y76.179 E133.24143
G1 X120.582 Y76.824 E133.2868
G1 X119.422 Y76.965 E133.32566
G1 X9.736 Y76.945 E136.97383
G1 X8.847 Y76.816 E137.00371
G1 X7.658 Y76.177 E137.04861
G1 X5.008 Y73.527 E137.17326
G1 X4.363 Y72.325 E137.21863
G1 X4.222 Y71.165 E137.25749
G1 X4.242 Y14.879 E139.12957
G1 X4.371 Y13.99 E139.15945
G1 X5.01 Y12.801 E139.20435
G1 X7.658 Y10.153 E139.3289
G0 F6000 X7.901 Y10.476
G1 F1200 X8.984 Y9.894 E139.36979
G1 X9.917 Y9.771 E139.40109
G1 X106.622 Y9.765 E142.61751
G1 X107.66 Y9.894 E142.6523
G1 X108.741 Y10.474 E142.69311
G1 X135.713 Y37.446 E143.96179
G1 X136.293 Y38.527 E144.00259
G1 X136.422 Y39.565 E144.03738
G1 X136.406 Y59.794 E144.7102
G1 X136.287 Y60.614 E144.73776
G1 X135.711 Y61.686 E144.77823
G1 X121.541 Y75.856 E145.44475
G1 X120.46 Y76.436 E145.48555
G1 X119.422 Y76.565 E145.52034
G1 X9.793 Y76.549 E149.16661
G1 X8.973 Y76.43 E149.19417
G1 X7.901 Y75.854 E149.23465
G1 X5.331 Y73.284 E149.35553
G1 X4.751 Y72.203 E149.39634
G1 X4.622 Y71.165 E149.43113
G1 X4.638 Y14.936 E151.30131
G1 X4.757 Y14.116 E151.32887
G1 X5.333 Y13.044 E151.36934
G1 X7.901 Y10.476 E151.49013
G0 F6000 X8.144 Y10.799
G1 F1200 X9.107 Y10.282 E151.52649
G1 X9.969 Y10.168 E151.55541
G1 X106.622 Y10.165 E154.7701
G1 X107.536 Y10.282 E154.80075
G1 X108.5 Y10.799 E154.83713
G1 X135.388 Y37.687 E156.10186
G1 X135.905 Y38.651 E156.13824
G1 X136.022 Y39.565 E156.16889
G1 X136.01 Y59.737 E156.83981
G1 X135.901 Y60.488 E156.86505
G1 X135.388 Y61.443 E156.90111
G1 X121.3 Y75.531 E157.56377
G1 X120.336 Y76.048 E157.60015
G1 X119.422 Y76.165 E157.6308
G1 X9.85 Y76.153 E161.27518
G1 X9.099 Y76.044 E161.30042
G1 X8.144 Y75.531 E161.33647
G1 X5.656 Y73.043 E161.4535
G1 X5.139 Y72.079 E161.48988
G1 X5.022 Y71.165 E161.52053
G1 X5.034 Y14.993 E163.38882
G1 X5.143 Y14.242 E163.41406
G1 X5.656 Y13.287 E163.45012
G1 X8.144 Y10.799 E163.56714
G0 F6000 X8.387 Y11.122
G1 F1200 X9.229 Y10.67 E163.59893
G1 X10.022 Y10.565 E163.62553
G1 X106.622 Y10.565 E166.83846
G1 X107.415 Y10.67 E166.86507
G1 X108.257 Y11.122 E166.89685
G1 X135.065 Y37.93 E168.15782
G1 X135.517 Y38.772 E168.1896
G1 X135.622 Y39.565 E168.21621
G1 X135.614 Y59.68 E168.88524
G1 X135.515 Y60.362 E168.90816
G1 X135.065 Y61.2 E168.9398
G1 X121.057 Y75.208 E169.59869
G1 X120.215 Y75.66 E169.63047
G1 X119.422 Y75.765 E169.65708
G1 X9.907 Y75.757 E173.29956
G1 X9.225 Y75.658 E173.32248
G1 X8.387 Y75.208 E173.35412
G1 X5.979 Y72.8 E173.46739
G1 X5.527 Y71.958 E173.49917
G1 X5.422 Y71.165 E173.52578
G1 X5.43 Y15.05 E175.39217
G1 X5.529 Y14.368 E175.41509
G1 X5.979 Y13.53 E175.44673
G1 X8.387 Y11.122 E175.55999
G0 F6000 X8.63 Y11.445
G1 F1200 X9.353 Y11.057 E175.58728
G1 X10.022 Y10.965 E175.60974
G1 X106.622 Y10.965 E178.82267
G1 X107.291 Y11.057 E178.84513
G1 X108.014 Y11.445 E178.87242
G1 X134.742 Y38.173 E180.12963
G1 X135.13 Y38.896 E180.15692
G1 X135.222 Y39.565 E180.17938
G1 X135.218 Y59.623 E180.84651
G1 X135.129 Y60.236 E180.86711
G1 X134.742 Y60.957 E180.89433
G1 X120.814 Y74.885 E181.54946
G1 X120.091 Y75.273 E181.57675
G1 X119.422 Y75.365 E181.59921
G1 X9.964 Y75.361 E185.2398
G1 X9.351 Y75.272 E185.2604
G1 X8.63 Y74.885 E185.28762
G1 X6.302 Y72.557 E185.39712
G1 X5.914 Y71.834 E185.42441
G1 X5.822 Y71.165 E185.44687
G1 X5.826 Y15.107 E187.31137
G1 X5.915 Y14.494 E187.33197
G1 X6.302 Y13.773 E187.35919
G1 X8.63 Y11.445 E187.46869
G0 F6000 X8.871 Y11.77
G1 F1200 X9.479 Y11.444 E187.49163
G1 X10.022 Y11.365 E187.50988
G1 X106.622 Y11.365 E190.72281
G1 X107.165 Y11.444 E190.74106
G1 X107.773 Y11.77 E190.76401
G1 X134.417 Y38.414 E192.01726
G1 X134.743 Y39.022 E192.04021
G1 X134.822 Y39.565 E192.05846
G1 X134.822 Y59.565 E192.72366
G1 X134.743 Y60.108 E192.74191
G1 X134.417 Y60.716 E192.76486
G1 X120.573 Y74.56 E193.41604
G1 X119.965 Y74.886 E193.43898
G1 X119.422 Y74.965 E193.45723
G1 X10.022 Y74.965 E197.09589
G1 X9.479 Y74.886 E197.11414
G1 X8.871 Y74.56 E197.13709
G1 X6.627 Y72.316 E197.24264
G1 X6.301 Y71.708 E197.26558
G1 X6.222 Y71.165 E197.28383
G1 X6.222 Y15.165 E199.1464
G1 X6.301 Y14.622 E199.16465
G1 X6.627 Y14.014 E199.1876
G1 X8.871 Y11.77 E199.29315
G0 F6000 X9.112 Y12.095
G1 F1200 X9.608 Y11.829 E199.31187
G1 X10.022 Y11.765 E199.3258
G1 X106.622 Y11.765 E202.53873
G1 X107.036 Y11.829 E202.55266
G1 X107.532 Y12.095 E202.57138
G1 X134.092 Y38.655 E203.82068
G1 X134.358 Y39.151 E203.8394
G1 X134.422 Y39.565 E203.85334
G1 X134.422 Y59.565 E204.51854
G1 X134.358 Y59.979 E204.53247
G1 X134.092 Y60.475 E204.55119
G1 X120.332 Y74.235 E205.19842
G1 X119.836 Y74.501 E205.21714
G1 X119.422 Y74.565 E205.23107
G1 X10.022 Y74.565 E208.86973
G1 X9.608 Y74.501 E208.88367
G1 X9.112 Y74.235 E208.90238
G1 X6.952 Y72.075 E209.00398
G1 X6.686 Y71.579 E209.0227
G1 X6.622 Y71.165 E209.03664
G1 X6.622 Y15.165 E210.8992
G1 X6.686 Y14.751 E210.91314
G1 X6.952 Y14.255 E210.93186
G1 X9.112 Y12.095 E211.03346
G0 F6000 X9.355 Y12.418
G1 F1200 X9.737 Y12.213 E211.04788
G1 X10.022 Y12.165 E211.05749
G1 X106.622 Y12.165 E214.27042
G1 X106.907 Y12.213 E214.28003
G1 X107.289 Y12.418 E214.29445
G1 X133.769 Y38.898 E215.53999
G1 X133.974 Y39.28 E215.55441
G1 X134.022 Y39.565 E215.56402
G1 X134.022 Y59.565 E216.22922
G1 X133.974 Y59.85 E216.23884
G1 X133.769 Y60.232 E216.25326
G1 X120.089 Y73.912 E216.89672
G1 X119.707 Y74.117 E216.91114
G1 X119.422 Y74.165 E216.92075
G1 X10.022 Y74.165 E220.55941
G1 X9.737 Y74.117 E220.56902
G1 X9.355 Y73.912 E220.58344
G1 X7.275 Y71.832 E220.68128
G1 X7.07 Y71.45 E220.6957
G1 X7.022 Y71.165 E220.70531
G1 X7.022 Y15.165 E222.56788
G1 X7.07 Y14.88 E222.57749
G1 X7.275 Y14.498 E222.59191
G1 X9.355 Y12.418 E222.68975
G0 F6000 X9.881 Y13.024
G1 F1200 X10.022 Y12.965 E222.69483
G1 X106.622 Y12.965 E225.90776
G1 X106.763 Y13.024 E225.91284
G1 X133.163 Y39.424 E227.15462
G1 X133.222 Y39.565 E227.1597
G1 X133.222 Y59.565 E227.82491
G1 X133.163 Y59.706 E227.82999
G1 X119.563 Y73.306 E228.46969
G1 X119.422 Y73.365 E228.47478
G1 X10.022 Y73.365 E232.11343
G1 X9.881 Y73.306 E232.11852
G1 X7.881 Y71.306 E232.21259
G1 X7.822 Y71.165 E232.21768
G1 X7.822 Y15.165 E234.08024
G1 X7.881 Y15.024 E234.08533
G1 X9.881 Y13.024 E234.1794
G0 F6000 X9.598 Y12.741
G1 F1200 X9.868 Y12.596 E234.18959
G1 X10.022 Y12.565 E234.19482
G1 X106.622 Y12.565 E237.40775
G1 X106.776 Y12.596 E237.41297
G1 X107.046 Y12.741 E237.42317
G1 X133.446 Y39.141 E238.66494
G1 X133.591 Y39.411 E238.67513
G1 X133.622 Y39.565 E238.68036
G1 X133.622 Y59.565 E239.34556
G1 X133.591 Y59.719 E239.35079
G1 X133.446 Y59.989 E239.36098
G1 X119.846 Y73.589 E240.00068
