;FLAVOR:Marlin
;TIME:27216
;Filament used: 18.9211m
;Layer height: 0.2
;MINX:38.208
;MINY:0.323
;MINZ:0.2
;MAXX:178.8
;MAXY:220
;MAXZ:29
;TARGET_MACHINE.NAME:Creality Ender-3 Pro
;Generated with Cura_SteamEngine 5.8.1
M82 ;absolute extrusion mode
; Ender 3 Custom Start G-code
G92 E0 ; Reset Extruder
G28 ; Home all axes
G1 Z5.0 F3000 ; Move Z Axis up a bit during heating to not damage bed
M104 S175 ; Start heating up the nozzle most of the way
M190 S60 ; Start heating the bed, wait until target temperature reached
M109 S200 ; Finish heating the nozzle
G1 Z2.0 F3000 ; Move Z Axis up little to prevent scratching of Heat Bed
G1 X0.1 Y20 Z0.3 F5000.0 ; Move to start position
G1 X0.1 Y200.0 Z0.3 F1500.0 E15 ; Draw the first line
G1 X0.4 Y200.0 Z0.3 F5000.0 ; Move to side a little
G1 X0.4 Y20 Z0.3 F1500.0 E30 ; Draw the second line
G92 E0 ; Reset Extruder
G1 Z2.0 F3000 ; Move Z Axis up little to prevent scratching of Heat Bed
G1 X5 Y20 Z0.3 F5000.0 ; Move over to prevent blob squish
G92 E0
G92 E0
G1 F1500 E-6.5
;LAYER_COUNT:145
;LAYER:0
M107
G0 F6000 X102.318 Y9.267 Z0.2
;TYPE:SKIRT
G1 F1500 E0
G1 F1200 X102.547 Y7.688 E0.05307
G1 X103.816 Y5.329 E0.14216
G1 X107.273 Y1.872 E0.30477
G1 X109.658 Y0.584 E0.39492
G1 X111.385 Y0.362 E0.45283
G1 X168.058 Y0.323 E2.33779
G1 X170.207 Y0.554 E2.40967
G1 X170.608 Y0.67 E2.42356
G1 X172.834 Y1.863 E2.50756
G1 X176.318 Y5.347 E2.67143
G1 X177.492 Y7.538 E2.75411
G1 X177.623 Y7.933 E2.76795
G1 X177.858 Y10.123 E2.84121
G1 X177.798 Y107.579 E6.08261
G1 X177.569 Y109.158 E6.13568
G1 X176.3 Y111.517 E6.22477
G1 X148.434 Y139.383 E7.5355
G1 X146.309 Y140.522 E7.61569
G1 X145.81 Y140.694 E7.63324
G1 X143.696 Y140.921 E7.70396
G1 X122.785 Y140.862 E8.39947
G1 X121.216 Y140.632 E8.45221
G1 X118.876 Y139.377 E8.54052
G1 X103.798 Y124.299 E9.24975
G1 X102.624 Y122.108 E9.33242
G1 X102.493 Y121.713 E9.34626
G1 X102.258 Y119.523 E9.41952
G1 X102.318 Y9.267 E13.08665
G0 F6000 X102.714 Y9.324
G1 F1200 X102.933 Y7.814 E13.1374
G1 X104.139 Y5.572 E13.22207
G1 X107.515 Y2.196 E13.38087
G1 X109.782 Y0.972 E13.46656
G1 X111.436 Y0.759 E13.52203
G1 X168.058 Y0.723 E15.40528
G1 X170.164 Y0.952 E15.47574
G1 X170.454 Y1.042 E15.48584
G1 X172.593 Y2.188 E15.56655
G1 X175.993 Y5.588 E15.72648
G1 X177.139 Y7.727 E15.80719
G1 X177.229 Y8.017 E15.81729
G1 X177.458 Y10.123 E15.88774
G1 X177.402 Y107.522 E19.12725
G1 X177.183 Y109.032 E19.178
G1 X175.977 Y111.274 E19.26267
G1 X148.193 Y139.058 E20.56954
G1 X146.12 Y140.169 E20.64777
G1 X145.727 Y140.3 E20.66155
G1 X143.697 Y140.521 E20.72947
G1 X122.843 Y140.466 E21.42307
G1 X121.341 Y140.246 E21.47356
G1 X119.119 Y139.054 E21.55743
G1 X104.123 Y124.058 E22.2628
G1 X102.977 Y121.919 E22.34351
G1 X102.887 Y121.629 E22.35361
G1 X102.658 Y119.523 E22.42407
G1 X102.714 Y9.324 E26.0893
G0 F6000 X103.11 Y9.381
G1 F1200 X103.319 Y7.94 E26.13773
G1 X104.462 Y5.815 E26.21798
G1 X107.757 Y2.52 E26.37297
G1 X109.906 Y1.36 E26.45419
G1 X111.487 Y1.156 E26.50721
G1 X168.058 Y1.123 E28.38877
G1 X170.12 Y1.35 E28.45777
G1 X170.265 Y1.395 E28.46282
G1 X172.352 Y2.513 E28.54157
G1 X175.668 Y5.829 E28.69754
G1 X176.786 Y7.916 E28.77629
G1 X176.831 Y8.061 E28.78134
G1 X177.058 Y10.123 E28.85033
G1 X177.006 Y107.465 E32.08794
G1 X176.797 Y108.906 E32.13637
G1 X175.654 Y111.031 E32.21662
G1 X147.952 Y138.733 E33.51964
G1 X145.931 Y139.816 E33.5959
G1 X145.643 Y139.906 E33.60594
G1 X143.698 Y140.121 E33.67102
G1 X122.901 Y140.07 E34.36274
G1 X121.469 Y139.86 E34.41088
G1 X119.36 Y138.729 E34.49047
G1 X104.448 Y123.817 E35.19189
G1 X103.33 Y121.73 E35.27063
G1 X103.285 Y121.585 E35.27568
G1 X103.058 Y119.523 E35.34468
G1 X103.11 Y9.381 E39.00802
G0 F6000 X103.506 Y9.438
G1 F1200 X103.705 Y8.066 E39.05413
G1 X104.785 Y6.058 E39.12996
G1 X107.999 Y2.844 E39.28114
G1 X110.03 Y1.748 E39.3579
G1 X111.538 Y1.553 E39.40847
G1 X168.058 Y1.523 E41.28833
G1 X170.076 Y1.748 E41.35587
G1 X172.111 Y2.838 E41.43265
G1 X175.343 Y6.07 E41.58467
G1 X176.433 Y8.105 E41.66146
G1 X176.658 Y10.123 E41.72899
G1 X176.61 Y107.408 E44.9647
G1 X176.411 Y108.78 E45.01081
G1 X175.331 Y110.788 E45.08665
G1 X147.711 Y138.408 E46.38581
G1 X145.742 Y139.463 E46.46011
G1 X145.598 Y139.508 E46.46512
G1 X143.699 Y139.721 E46.52868
G1 X122.959 Y139.674 E47.2185
G1 X121.594 Y139.474 E47.26438
G1 X119.603 Y138.406 E47.33953
G1 X104.773 Y123.576 E48.03709
G1 X103.683 Y121.541 E48.11387
G1 X103.458 Y119.523 E48.1814
G1 X103.506 Y9.438 E51.84285
G0 F6000 X103.902 Y9.495
G1 F1200 X104.091 Y8.192 E51.88664
G1 X105.108 Y6.301 E51.95805
G1 X108.241 Y3.168 E52.10542
G1 X110.154 Y2.136 E52.17771
G1 X111.589 Y1.95 E52.22584
G1 X168.058 Y1.923 E54.10401
G1 X169.953 Y2.136 E54.16743
G1 X171.87 Y3.163 E54.23976
G1 X175.018 Y6.311 E54.38784
G1 X176.045 Y8.228 E54.46017
G1 X176.258 Y10.123 E54.52359
G1 X176.214 Y107.351 E57.75741
G1 X176.025 Y108.654 E57.8012
G1 X175.008 Y110.545 E57.87262
G1 X147.47 Y138.083 E59.16792
G1 X145.553 Y139.11 E59.24025
G1 X143.654 Y139.323 E59.30381
G1 X123.017 Y139.278 E59.9902
G1 X121.722 Y139.088 E60.03373
G1 X119.844 Y138.081 E60.10461
G1 X105.098 Y123.335 E60.79822
G1 X104.071 Y121.418 E60.87055
G1 X103.858 Y119.523 E60.93397
G1 X103.902 Y9.495 E64.59352
G0 F6000 X104.298 Y9.552
G1 F1200 X104.477 Y8.318 E64.63499
G1 X105.431 Y6.544 E64.70199
G1 X108.483 Y3.492 E64.84554
G1 X110.278 Y2.524 E64.91337
G1 X111.641 Y2.347 E64.95909
G1 X168.058 Y2.323 E66.83553
G1 X169.83 Y2.524 E66.89484
G1 X171.629 Y3.488 E66.96272
G1 X174.693 Y6.552 E67.10685
G1 X175.657 Y8.351 E67.17473
G1 X175.858 Y10.123 E67.23404
G1 X175.818 Y107.294 E70.46597
G1 X175.639 Y108.528 E70.50744
G1 X174.685 Y110.302 E70.57443
G1 X147.229 Y137.758 E71.86588
G1 X145.43 Y138.722 E71.93376
G1 X143.655 Y138.923 E71.99318
G1 X123.075 Y138.882 E72.67767
G1 X121.847 Y138.702 E72.71895
G1 X120.087 Y137.758 E72.78538
G1 X105.423 Y123.094 E73.47513
G1 X104.459 Y121.295 E73.54301
G1 X104.258 Y119.523 E73.60233
G1 X104.298 Y9.552 E77.25998
G0 F6000 X104.694 Y9.609
G1 F1200 X104.863 Y8.444 E77.29913
G1 X105.754 Y6.787 E77.3617
G1 X108.725 Y3.816 E77.50145
G1 X110.402 Y2.912 E77.56482
G1 X111.693 Y2.744 E77.60812
G1 X168.058 Y2.723 E79.48283
G1 X169.707 Y2.912 E79.53803
G1 X171.388 Y3.813 E79.60147
G1 X174.368 Y6.793 E79.74164
G1 X175.269 Y8.474 E79.80507
G1 X175.458 Y10.123 E79.86028
G1 X175.422 Y107.237 E83.0903
G1 X175.253 Y108.402 E83.12945
G1 X174.362 Y110.059 E83.19203
G1 X146.988 Y137.433 E84.47962
G1 X145.307 Y138.334 E84.54305
G1 X143.656 Y138.523 E84.59832
G1 X123.133 Y138.486 E85.28092
G1 X121.972 Y138.316 E85.31995
G1 X120.33 Y137.435 E85.38193
G1 X105.748 Y122.853 E86.06782
G1 X104.847 Y121.172 E86.13125
G1 X104.658 Y119.523 E86.18646
G1 X104.694 Y9.609 E89.84221
G0 F6000 X105.09 Y9.666
G1 F1200 X105.249 Y8.57 E89.87905
G1 X106.077 Y7.03 E89.9372
G1 X108.967 Y4.14 E90.07314
G1 X110.526 Y3.3 E90.13204
G1 X111.745 Y3.141 E90.17293
G1 X168.058 Y3.123 E92.04591
G1 X169.584 Y3.3 E92.097
G1 X171.147 Y4.138 E92.15599
G1 X174.043 Y7.034 E92.29221
G1 X174.881 Y8.597 E92.35119
G1 X175.058 Y10.123 E92.40229
G1 X175.026 Y107.18 E95.63042
G1 X174.867 Y108.276 E95.66725
G1 X174.039 Y109.816 E95.72541
G1 X146.747 Y137.108 E97.00914
G1 X145.184 Y137.946 E97.06812
G1 X143.657 Y138.123 E97.11925
G1 X123.191 Y138.09 E97.79996
G1 X122.1 Y137.93 E97.83663
G1 X120.571 Y137.11 E97.89434
G1 X106.073 Y122.612 E98.57628
G1 X105.235 Y121.049 E98.63526
G1 X105.058 Y119.523 E98.68636
G1 X105.09 Y9.666 E102.34022
G0 F6000 X105.486 Y9.723
G1 F1200 X105.635 Y8.696 E102.37473
G1 X106.4 Y7.273 E102.42847
G1 X109.209 Y4.464 E102.5606
G1 X110.65 Y3.688 E102.61503
G1 X111.797 Y3.538 E102.65351
G1 X168.058 Y3.523 E104.52475
G1 X169.463 Y3.688 E104.57181
G1 X170.904 Y4.461 E104.62619
G1 X173.72 Y7.277 E104.75865
G1 X174.493 Y8.718 E104.81304
G1 X174.658 Y10.123 E104.86009
G1 X174.63 Y107.123 E108.08632
G1 X174.481 Y108.15 E108.12084
G1 X173.716 Y109.573 E108.17457
G1 X146.504 Y136.785 E109.45454
G1 X145.063 Y137.558 E109.50893
G1 X143.658 Y137.723 E109.55598
G1 X123.249 Y137.694 E110.23479
G1 X122.225 Y137.544 E110.26921
G1 X120.814 Y136.787 E110.32247
G1 X106.396 Y122.369 E111.00065
G1 X105.623 Y120.928 E111.05504
G1 X105.458 Y119.523 E111.10209
G1 X105.486 Y9.723 E114.75405
G0 F6000 X105.882 Y9.78
G1 F1200 X106.021 Y8.822 E114.78625
G1 X106.723 Y7.516 E114.83556
G1 X109.451 Y4.788 E114.96388
G1 X110.774 Y4.076 E115.01385
G1 X111.849 Y3.935 E115.04991
G1 X168.058 Y3.923 E116.91943
G1 X169.339 Y4.076 E116.96234
G1 X170.663 Y4.786 E117.01231
G1 X173.395 Y7.518 E117.14081
G1 X174.105 Y8.842 E117.19078
G1 X174.258 Y10.123 E117.23369
G1 X174.234 Y107.066 E120.45803
G1 X174.095 Y108.024 E120.49022
G1 X173.393 Y109.33 E120.53954
G1 X146.263 Y136.46 E121.81565
G1 X144.939 Y137.17 E121.86562
G1 X143.658 Y137.323 E121.90853
G1 X123.307 Y137.298 E122.58541
G1 X122.353 Y137.158 E122.61748
G1 X121.055 Y136.462 E122.66646
G1 X106.721 Y122.128 E123.34069
G1 X106.011 Y120.804 E123.39066
G1 X105.858 Y119.523 E123.43357
G1 X105.882 Y9.78 E127.08364
G0 F6000 X106.278 Y9.837
G1 F1200 X106.407 Y8.948 E127.11351
G1 X107.046 Y7.759 E127.15841
G1 X109.694 Y5.111 E127.28296
G1 X110.897 Y4.464 E127.32839
G1 X111.901 Y4.332 E127.36207
G1 X168.058 Y4.323 E129.22986
G1 X169.218 Y4.464 E129.26873
G1 X170.42 Y5.109 E129.3141
G1 X173.072 Y7.761 E129.43884
G1 X173.717 Y8.963 E129.48421
G1 X173.858 Y10.123 E129.52308
G1 X173.838 Y107.009 E132.74552
G1 X173.709 Y107.898 E132.7754
G1 X173.07 Y109.087 E132.82029
G1 X146.02 Y136.137 E134.09264
G1 X144.818 Y136.782 E134.13801
G1 X143.658 Y136.923 E134.17688
G1 X123.365 Y136.902 E134.85183
G1 X122.478 Y136.772 E134.88165
G1 X121.298 Y136.139 E134.92618
G1 X107.044 Y121.885 E135.59665
G1 X106.399 Y120.683 E135.64202
G1 X106.258 Y119.523 E135.68088
G1 X106.278 Y9.837 E139.32905
G0 F6000 X106.674 Y9.894
G1 F1200 X106.793 Y9.074 E139.35661
G1 X107.369 Y8.002 E139.39709
G1 X109.937 Y5.434 E139.51788
G1 X111.02 Y4.852 E139.55877
G1 X111.953 Y4.729 E139.59007
G1 X168.058 Y4.723 E141.45613
G1 X169.096 Y4.852 E141.49092
G1 X170.177 Y5.432 E141.53173
G1 X172.749 Y8.004 E141.6527
G1 X173.329 Y9.085 E141.69351
G1 X173.458 Y10.123 E141.7283
G1 X173.442 Y106.952 E144.94884
G1 X173.323 Y107.772 E144.9764
G1 X172.747 Y108.844 E145.01688
G1 X145.777 Y135.814 E146.28546
G1 X144.696 Y136.394 E146.32627
G1 X143.658 Y136.523 E146.36106
G1 X123.423 Y136.506 E147.03407
G1 X122.606 Y136.386 E147.06154
G1 X121.539 Y135.814 E147.10181
G1 X107.367 Y121.642 E147.76841
G1 X106.787 Y120.561 E147.80922
G1 X106.658 Y119.523 E147.84401
G1 X106.674 Y9.894 E151.49028
G0 F6000 X107.07 Y9.951
G1 F1200 X107.179 Y9.2 E151.51552
G1 X107.692 Y8.245 E151.55158
G1 X110.18 Y5.757 E151.6686
G1 X111.143 Y5.24 E151.70496
G1 X112.005 Y5.126 E151.73388
G1 X168.058 Y5.123 E153.59821
G1 X168.972 Y5.24 E153.62886
G1 X169.936 Y5.757 E153.66524
G1 X172.424 Y8.245 E153.78227
G1 X172.941 Y9.209 E153.81865
G1 X173.058 Y10.123 E153.8493
G1 X173.046 Y106.895 E157.06795
G1 X172.937 Y107.646 E157.09319
G1 X172.424 Y108.601 E157.12924
G1 X145.536 Y135.489 E158.39397
G1 X144.572 Y136.006 E158.43036
G1 X143.658 Y136.123 E158.461
G1 X123.481 Y136.11 E159.13209
G1 X122.731 Y136 E159.1573
G1 X121.782 Y135.491 E159.19312
G1 X107.692 Y121.401 E159.85587
G1 X107.175 Y120.437 E159.89226
G1 X107.058 Y119.523 E159.9229
G1 X107.07 Y9.951 E163.56728
G0 F6000 X107.466 Y10.008
G1 F1200 X107.565 Y9.326 E163.5902
G1 X108.015 Y8.488 E163.62184
G1 X110.423 Y6.08 E163.73511
G1 X111.265 Y5.628 E163.76689
G1 X112.058 Y5.523 E163.7935
G1 X168.058 Y5.523 E165.65606
G1 X168.851 Y5.628 E165.68267
G1 X169.693 Y6.08 E165.71445
G1 X172.101 Y8.488 E165.82772
G1 X172.553 Y9.33 E165.8595
G1 X172.658 Y10.123 E165.88611
G1 X172.65 Y106.838 E169.10286
G1 X172.551 Y107.52 E169.12578
G1 X172.101 Y108.358 E169.15742
G1 X145.293 Y135.166 E170.41839
G1 X144.451 Y135.618 E170.45017
G1 X143.658 Y135.723 E170.47678
G1 X123.539 Y135.714 E171.14594
G1 X122.856 Y135.614 E171.1689
G1 X122.025 Y135.168 E171.20027
G1 X108.015 Y121.158 E171.85925
G1 X107.563 Y120.316 E171.89104
G1 X107.458 Y119.523 E171.91764
G1 X107.466 Y10.008 E175.56013
G0 F6000 X107.862 Y10.065
G1 F1200 X107.951 Y9.452 E175.58073
G1 X108.338 Y8.731 E175.60795
G1 X110.666 Y6.403 E175.71745
G1 X111.389 Y6.015 E175.74474
G1 X112.058 Y5.923 E175.7672
G1 X168.058 Y5.923 E177.62977
G1 X168.727 Y6.015 E177.65223
G1 X169.45 Y6.403 E177.67952
G1 X171.778 Y8.731 E177.78902
G1 X172.166 Y9.454 E177.81631
G1 X172.258 Y10.123 E177.83877
G1 X172.254 Y106.781 E181.05363
G1 X172.165 Y107.394 E181.07423
G1 X171.778 Y108.115 E181.10145
G1 X145.05 Y134.843 E182.35865
G1 X144.327 Y135.231 E182.38594
G1 X143.658 Y135.323 E182.4084
G1 X123.597 Y135.318 E183.07564
G1 X122.984 Y135.228 E183.09624
G1 X122.266 Y134.843 E183.12334
G1 X108.338 Y120.915 E183.77847
G1 X107.95 Y120.192 E183.80576
G1 X107.858 Y119.523 E183.82822
G1 X107.862 Y10.065 E187.46881
G0 F6000 X108.258 Y10.123
G1 F1200 X108.337 Y9.58 E187.48706
G1 X108.663 Y8.972 E187.51001
G1 X110.907 Y6.728 E187.61556
G1 X111.515 Y6.402 E187.6385
G1 X112.058 Y6.323 E187.65675
G1 X168.058 Y6.323 E189.51932
G1 X168.601 Y6.402 E189.53757
G1 X169.209 Y6.728 E189.56052
G1 X171.453 Y8.972 E189.66607
G1 X171.779 Y9.58 E189.68901
G1 X171.858 Y10.123 E189.70726
G1 X171.858 Y106.723 E192.92019
G1 X171.779 Y107.266 E192.93844
G1 X171.453 Y107.874 E192.96139
G1 X144.809 Y134.518 E194.21464
G1 X144.201 Y134.844 E194.23759
G1 X143.658 Y134.923 E194.25584
G1 X123.597 Y134.918 E194.92307
G1 X123.113 Y134.843 E194.93936
G1 X122.507 Y134.518 E194.96223
G1 X108.663 Y120.674 E195.61341
G1 X108.337 Y120.066 E195.63635
G1 X108.258 Y119.523 E195.6546
G1 X108.258 Y10.123 E199.29326
G0 F6000 X108.658 Y10.123
G1 F1200 X108.658 Y119.523 E202.93192
G1 X108.722 Y119.937 E202.94586
G1 X108.988 Y120.433 E202.96457
G1 X122.748 Y134.193 E203.6118
G1 X123.244 Y134.459 E203.63052
G1 X123.658 Y134.523 E203.64446
G1 X143.658 Y134.523 E204.30966
G1 X144.072 Y134.459 E204.32359
G1 X144.568 Y134.193 E204.34231
G1 X171.128 Y107.633 E205.59161
G1 X171.394 Y107.137 E205.61033
G1 X171.458 Y106.723 E205.62427
G1 X171.458 Y10.123 E208.83719
G1 X171.394 Y9.709 E208.85113
G1 X171.128 Y9.213 E208.86985
G1 X168.968 Y7.053 E208.97145
G1 X168.472 Y6.787 E208.99017
G1 X168.058 Y6.723 E209.0041
G1 X112.058 Y6.723 E210.86667
G1 X111.644 Y6.787 E210.8806
G1 X111.148 Y7.053 E210.89932
G1 X108.988 Y9.213 E211.00092
G1 X108.722 Y9.709 E211.01964
G1 X108.658 Y10.123 E211.03357
G0 F6000 X109.058 Y10.123
G1 F1200 X109.106 Y9.838 E211.04319
G1 X109.311 Y9.456 E211.0576
G1 X111.391 Y7.376 E211.15544
G1 X111.773 Y7.171 E211.16986
G1 X112.058 Y7.123 E211.17947
G1 X168.058 Y7.123 E213.04204
G1 X168.343 Y7.171 E213.05165
G1 X168.725 Y7.376 E213.06607
G1 X170.805 Y9.456 E213.16391
G1 X171.01 Y9.838 E213.17833
G1 X171.058 Y10.123 E213.18794
G1 X171.058 Y106.723 E216.40087
G1 X171.01 Y107.008 E216.41048
G1 X170.805 Y107.39 E216.4249
G1 X144.325 Y133.87 E217.67044
G1 X143.943 Y134.075 E217.68486
G1 X143.658 Y134.123 E217.69447
G1 X123.658 Y134.123 E218.35968
G1 X123.373 Y134.075 E218.36929
G1 X122.991 Y133.87 E218.38371
G1 X109.311 Y120.19 E219.02717
G1 X109.106 Y119.808 E219.04159
G1 X109.058 Y119.523 E219.0512
G1 X109.058 Y10.123 E222.68986
G0 F6000 X109.858 Y10.123
G1 F1200 X109.917 Y9.982 E222.69495
G1 X111.917 Y7.982 E222.78902
G1 X112.058 Y7.923 E222.7941
G1 X168.058 Y7.923 E224.65667
G1 X168.199 Y7.982 E224.66176
G1 X170.199 Y9.982 E224.75583
G1 X170.258 Y10.123 E224.76091
G1 X170.258 Y106.723 E227.97384
G1 X170.199 Y106.864 E227.97893
G1 X143.799 Y133.264 E229.2207
G1 X143.658 Y133.323 E229.22579
