;FLAVOR:Marlin
;TIME:758
;Filament used:0.757311m
;Layer height: 0.15
;MINX:77.506
;MINY:9.706
;MINZ:0.24
;MAXX:139.104
;MAXY:48.304
;MAXZ:1.34
                               
;Creality Print GCode Generated by CXEngine:NO_MAGE_VERSION_GIT_HEAD_BRANCH
;CXEngine Release Time:2022-08-30 19:45:28
;Gcode Generated Time:2024-11-06 22:43:04
;----------Machine Config--------------
;Machine Name:Creality Ender-3 Pro
;Machine Height:250
;Machine Width:220
;Machine Depth:220
;Material name:cxsw
;Number of Extruders:1
;ExtruderParams[0] Nozzle Diameter1000
;----------Profile Config---------------
;Engine Version:9c786ab
;Engine Release Time:2022-08-30 19:36:37
;Layer Height:0.15
;Wall Thickness:0.8
;Top/Bottom Thickness:1
;Out Wall Line Width:0.4
;Inner Wall Line Width:0.4
;Inital Layer Height:150
;Wall Line Count:2
;Infill Line Distance:4
;Infill Pattern:grid
;Infill Sparse Density:20
;Infill Wipe Distance:0
;Print Temperature:200
;Bed Temperature:50
;Support Enable:false
;Support Density:30
;Support Angle:60
;Adhesion Type:simpleraft
;machine is belt:false
;machine belt offset:10
;machine belt offset Y:0
;Raft Base Line Spacing:1.6
;Wait Heatup Sync:true
;----------Shell Config----------------
;Outer Wall Wipe Distance:200
;Outer Inset First:false
;Infill Before Walls:false
;Infill Overlap:0.16
;Fill Gaps Between Walls:everywhere
;Minimum Infill Area:1
;Top Surface Skin Layer:0
;Top Layers:4
;Z Seam Alignment:sharpest_corner
;Seam Corner Preference:z_seam_corner_inner
;Z Seam X:110
;Z Seam Y:110
;Horizontal Expansion:0
;Top/Bottom Pattern:zigzag
;Ironing Pattern:zigzag
;Vase Model:false
;----------Support Config----------------
;Support Type:everywhere
;Support Pattern:zigzag
;Support Infill Layer Thickness:0.15
;Minimum Support Area:5
;Enable Support Roof:false
;Support Roof Thickness:0.8
;Support Roof Pattern:lines
;Connect Support Lines:0
;Connect Support ZigZags:1
;Minimum Support X/Y Distance:0.2
;Support Line Distance:1.33
; ---------PrintSpeed & Travel----------
;Enable Print Cool:true
;Avoid Printed Parts Traveling:true
;Enable Retraction:true
;Retraction Distance:8
;Retraction Speed:100
;Retraction Prime Speed:100
;Maximum Retraction Count:100
;Minimum Extrusion Distance Window:1
;Z Hop When Retracted:false
;Z Hop Height:0.2
;Retract Before Outer Wall:true
;Print Speed:50
;Infill Speed:50

;Prime Tower Speed:50
;Travel Speed:120
;Initial Layer Speed:25
;Skirt/Brim Speed:25
;Combing Mode:infill
; --------SpecialModel&Mesh Fixes--------
;Union Overlapping Volum:true
;Remove All Holes:false
;Maximum Travel Resolution:0.6
;Maximum Deviation:0.05
;Maximum Model Angle:0.872665
;IS Mold Print:false
;Make Overhang Printable:false
;Enable Coasting:false
;Coasting Volumes:0.06
;Coasting Speed:0.9
;Raft AirGap:0.25
;Layer0 ZOverLap:0.13
;---------------------End of Head--------------------------
M140 S50
M105
M104 S200
M105
M109 S200
M105
M190 S50
M82 ;absolute extrusion mode
M220 S100 ;Reset Feedrate
M221 S100 ;Reset Flowrate

G28 ;Home

G92 E0 ;Reset Extruder
G1 Z2.0 F3000 ;Move Z Axis up
G1 X10.1 Y20 Z0.28 F5000.0 ;Move to start position
G1 X10.1 Y145.0 Z0.28 F1500.0 E15 ;Draw the first line
G1 X10.4 Y145.0 Z0.28 F5000.0 ;Move to side a little
G1 X10.4 Y20 Z0.28 F1500.0 E30 ;Draw the second line
G92 E0  ;Reset Extruder
G1 E-1.0000 F1800 ;Retract a bit
G1 Z2.0 F3000 ;Move Z Axis up
G1 E0.0000 F1800 

G92 E0
G92 E0
G1 F6000 E-8

;LAYER_COUNT:3

;LAYER:-4
M107
G0 F7200 X78.4 Y17.247 Z0.24
;TYPE:SUPPORT-INTERFACE
G1 F6000 E0
G1 F1200 X78.4 Y40.759 E2.06451
G1 X78.323 Y40.47 E2.09077
G1 X78.186 Y39.683 E2.16092
G1 X78.105 Y38.494 E2.26556
G1 X78.108 Y19.457 E3.93714
G1 X78.153 Y18.608 E4.01179
G1 X78.277 Y17.765 E4.08661
G1 X78.465 Y16.974 E4.158
G1 X78.722 Y16.205 E4.22919
G1 X79.051 Y15.456 E4.30103
G1 X79.462 Y14.707 E4.37604
G1 X79.924 Y14.024 E4.44845
G1 X80 Y13.93 E4.45906
G1 X80 Y44.082 E7.10661
G1 X80.066 Y44.175 E7.11662
G1 X80.602 Y44.8 E7.18892
G1 X81.207 Y45.388 E7.263
G1 X81.6 Y45.706 E7.30739
G1 X81.6 Y12.298 E10.24084
G1 X81.641 Y12.263 E10.24557
G1 X82.301 Y11.793 E10.31672
G1 X82.99 Y11.387 E10.38694
G1 X83.2 Y11.287 E10.40736
G1 X83.2 Y46.73 E13.5195
G1 X83.251 Y46.758 E13.52461
G1 X83.996 Y47.085 E13.59605
G1 X84.769 Y47.344 E13.66763
G1 X84.8 Y47.351 E13.67042
G1 X84.8 Y10.668 E16.89143
G1 X85.342 Y10.524 E16.94068
G1 X86.119 Y10.387 E17.00995
G1 X86.4 Y10.367 E17.03469
G1 X86.4 Y47.657 E20.30901
G1 X87.258 Y47.703 E20.38445
G1 X88 Y47.703 E20.4496
G1 X88 Y10.307 E23.73323
G1 X89.6 Y10.307 E23.87372
G1 X89.6 Y47.703 E27.15734
G1 X91.2 Y47.703 E27.29783
G1 X91.2 Y10.307 E30.58145
G1 X92.8 Y10.307 E30.72194
G1 X92.8 Y47.703 E34.00556
G1 X94.4 Y47.703 E34.14605
G1 X94.4 Y10.307 E37.42968
G1 X96 Y10.307 E37.57017
G1 X96 Y47.703 E40.85379
G1 X97.6 Y47.703 E40.99428
G1 X97.6 Y10.307 E44.2779
G1 X99.2 Y10.307 E44.41839
G1 X99.2 Y47.703 E47.70201
G1 X100.8 Y47.703 E47.8425
G1 X100.8 Y10.307 E51.12612
G1 X102.4 Y10.308 E51.26662
G1 X102.4 Y47.704 E54.55024
G1 X104 Y47.704 E54.69073
G1 X104 Y10.308 E57.97435
G1 X105.6 Y10.308 E58.11484
G1 X105.6 Y47.704 E61.39846
G1 X107.2 Y47.704 E61.53895
G1 X107.2 Y10.308 E64.82257
G1 X108.8 Y10.308 E64.96306
G1 X108.8 Y47.704 E68.24669
G1 X110.4 Y47.704 E68.38718
G1 X110.4 Y10.308 E71.6708
G1 X112 Y10.308 E71.81129
G1 X112 Y47.704 E75.09491
G1 X113.6 Y47.704 E75.2354
G1 X113.6 Y10.308 E78.51902
G1 X115.2 Y10.308 E78.65951
G1 X115.2 Y47.704 E81.94314
G1 X116.8 Y47.705 E82.08363
G1 X116.8 Y10.309 E85.36725
G1 X118.4 Y10.309 E85.50774
G1 X118.4 Y47.705 E88.79136
G1 X120 Y47.705 E88.93185
G1 X120 Y10.309 E92.21547
G1 X121.6 Y10.309 E92.35596
G1 X121.6 Y47.705 E95.63959
G1 X123.2 Y47.705 E95.78008
G1 X123.2 Y10.309 E99.0637
G1 X124.8 Y10.309 E99.20419
G1 X124.8 Y47.705 E102.48781
G1 X126.4 Y47.705 E102.6283
G1 X126.4 Y10.309 E105.91192
G1 X128 Y10.309 E106.05241
G1 X128 Y47.705 E109.33604
G1 X129.299 Y47.706 E109.4501
G1 X129.6 Y47.686 E109.47658
G1 X129.6 Y10.323 E112.75731
G1 X130.21 Y10.355 E112.81094
G1 X131.046 Y10.478 E112.88514
G1 X131.2 Y10.515 E112.89905
G1 X131.2 Y47.5 E116.14658
G1 X131.268 Y47.488 E116.15264
G1 X132.078 Y47.272 E116.22625
G1 X132.8 Y46.997 E116.29409
G1 X132.8 Y11.008 E119.45417
G1 X133.344 Y11.246 E119.50631
G1 X134.104 Y11.663 E119.58243
G1 X134.4 Y11.864 E119.61384
G1 X134.4 Y46.155 E122.62482
G1 X134.97 Y45.748 E122.68632
G1 X135.605 Y45.204 E122.75974
G1 X136.187 Y44.604 E122.83314
G1 X136.692 Y43.981 E122.90356
G1 X137.156 Y43.293 E122.97643
G1 X137.557 Y42.561 E123.04971
G1 X137.6 Y42.464 E123.05903
G1 X137.6 Y15.565 E125.42094
G1 X137.424 Y15.191 E125.45724
G1 X137.022 Y14.507 E125.5269
G1 X136.548 Y13.842 E125.59861
G1 X136.003 Y13.206 E125.67215
G0 F7200 X136 Y13.204
G1 F1200 X136 Y44.797 E128.44623
G0 F600 X136 Y44.797 Z0.47
G0 F7200 X138.532 Y16.909
;TIME_ELAPSED:79.614463

;LAYER:-3
;TYPE:SUPPORT
G1 F1800 X131.891 Y10.269 E129.16463
G1 X131.948 Y10.282 E129.16911
G1 X132.76 Y10.554 E129.23462
G1 X133.532 Y10.892 E129.29908
G1 X134.304 Y11.316 E129.36646
G1 X134.455 Y11.419 E129.38044
G1 X137.403 Y14.366 E129.69932
G1 X137.779 Y15.004 E129.75597
G1 X138.161 Y15.814 E129.82448
G1 X138.454 Y16.614 E129.88965
G1 X138.677 Y17.451 E129.95592
G1 X138.82 Y18.263 E130.01899
G1 X138.845 Y18.637 E130.04766
G1 X130.16 Y9.952 E130.98725
G1 X129.354 Y9.909 E131.04899
G1 X128.702 Y9.908 E131.09887
G1 X138.902 Y20.108 E132.20236
G1 X138.902 Y21.522 E132.31053
G1 X127.288 Y9.908 E133.56699
G1 X125.874 Y9.908 E133.67516
G1 X138.902 Y22.937 E135.08464
G1 X138.902 Y24.351 E135.19281
G1 X124.459 Y9.908 E136.75533
G1 X123.045 Y9.908 E136.8635
G1 X138.902 Y25.765 E138.57898
G1 X138.902 Y27.179 E138.68715
G1 X121.631 Y9.908 E140.55561
G1 X120.217 Y9.908 E140.66378
G1 X138.902 Y28.593 E142.68522
G1 X138.902 Y30.008 E142.79346
G1 X118.802 Y9.907 E144.96804
G1 X117.388 Y9.907 E145.0762
G1 X138.902 Y31.422 E147.40375
G1 X138.902 Y32.836 E147.51192
G1 X115.973 Y9.907 E149.99249
G1 X114.559 Y9.907 E150.10066
G1 X138.902 Y34.25 E152.73421
G1 X138.902 Y35.665 E152.84245
G1 X113.145 Y9.907 E155.62902
G1 X111.731 Y9.907 E155.73719
G1 X138.902 Y37.079 E158.67674
G1 X138.902 Y38.493 E158.78491
G1 X110.317 Y9.907 E161.87743
G1 X108.902 Y9.907 E161.98568
G1 X138.802 Y39.807 E165.22041
G1 X138.727 Y40.318 E165.25991
G1 X138.567 Y40.986 E165.31246
G1 X107.488 Y9.907 E168.67474
G1 X106.073 Y9.907 E168.78299
G1 X138.217 Y42.05 E172.26043
G1 X137.915 Y42.74 E172.31805
G1 X137.765 Y43.013 E172.34188
G1 X104.659 Y9.907 E175.92345
G1 X103.245 Y9.907 E176.03162
G1 X137.233 Y43.895 E179.70861
G1 X137.016 Y44.217 E179.73831
G1 X136.624 Y44.7 E179.7859
G1 X101.831 Y9.907 E183.54997
G1 X100.416 Y9.907 E183.65822
G1 X135.941 Y45.431 E187.50144
G1 X135.881 Y45.494 E187.50809
G1 X135.216 Y46.064 E187.57509
G1 X135.182 Y46.087 E187.57823
G1 X99.002 Y9.907 E191.49236
G1 X97.587 Y9.906 E191.60061
G1 X134.343 Y46.662 E195.57706
G1 X133.807 Y46.98 E195.62473
G1 X133.428 Y47.161 E195.65686
G1 X96.173 Y9.906 E199.68729
G1 X94.759 Y9.906 E199.79546
G1 X132.421 Y47.568 E203.86992
G1 X132.201 Y47.654 E203.88799
G1 X131.36 Y47.878 E203.95457
G1 X131.322 Y47.883 E203.9575
G1 X93.345 Y9.906 E208.06604
G1 X91.93 Y9.906 E208.17429
G1 X130.077 Y48.052 E212.30116
G1 X129.311 Y48.106 E212.35991
G1 X128.715 Y48.105 E212.4055
G1 X90.516 Y9.906 E216.53806
G1 X89.102 Y9.906 E216.64623
G1 X127.301 Y48.105 E220.77878
G1 X125.886 Y48.105 E220.88703
G1 X87.688 Y9.906 E225.01953
G1 X87.299 Y9.906 E225.04929
G1 X86.339 Y9.971 E225.12289
G1 X124.472 Y48.105 E229.24837
G1 X123.058 Y48.105 E229.35653
G1 X85.121 Y10.168 E233.46075
G1 X84.409 Y10.358 E233.51712
G1 X84.034 Y10.495 E233.54766
G1 X121.644 Y48.105 E237.6165
G1 X120.23 Y48.105 E237.72466
G1 X83.044 Y10.919 E241.74763
G1 X82.803 Y11.032 E241.76799
G1 X82.136 Y11.425 E241.82722
G1 X118.815 Y48.105 E245.79539
G1 X117.4 Y48.104 E245.90363
G1 X81.313 Y12.016 E249.80775
G1 X80.729 Y12.518 E249.86667
G1 X80.566 Y12.684 E249.88446
G1 X115.986 Y48.104 E253.71637
G1 X114.572 Y48.104 E253.82454
G1 X79.892 Y13.424 E257.5764
G1 X79.606 Y13.78 E257.61133
G1 X79.293 Y14.239 E257.65383
G1 X113.158 Y48.104 E261.31751
G1 X111.744 Y48.104 E261.42568
G1 X78.77 Y15.131 E264.99292
G1 X78.695 Y15.272 E265.00514
G1 X78.35 Y16.057 E265.07073
G1 X78.331 Y16.106 E265.07475
G1 X110.329 Y48.104 E268.53645
G1 X108.915 Y48.104 E268.64462
G1 X78.001 Y17.19 E271.98905
G1 X77.883 Y17.692 E272.0285
G1 X77.779 Y18.382 E272.08188
G1 X107.5 Y48.103 E275.29724
G1 X106.086 Y48.103 E275.40541
G1 X77.706 Y19.724 E278.47565
G1 X77.706 Y21.138 E278.58382
G1 X104.672 Y48.103 E281.50108
G1 X103.258 Y48.103 E281.60925
G1 X77.706 Y22.552 E284.37353
G1 X77.706 Y23.965 E284.48163
G1 X101.843 Y48.103 E287.09294
G1 X100.429 Y48.103 E287.20111
G1 X77.706 Y25.38 E289.6594
G1 X77.706 Y26.794 E289.76756
G1 X99.015 Y48.103 E292.07288
G1 X97.6 Y48.103 E292.18112
G1 X77.705 Y28.207 E294.33352
G1 X77.705 Y29.622 E294.44176
G1 X96.186 Y48.103 E296.44113
G1 X94.772 Y48.103 E296.5493
G1 X77.704 Y31.035 E298.3958
G1 X77.704 Y32.449 E298.50396
G1 X93.357 Y48.103 E300.19744
G1 X91.943 Y48.103 E300.30561
G1 X77.704 Y33.864 E301.84605
G1 X77.703 Y35.277 E301.95414
G1 X90.529 Y48.103 E303.34172
G1 X89.115 Y48.103 E303.44989
G1 X77.703 Y36.691 E304.6845
G1 X77.703 Y38.105 E304.79267
G1 X87.701 Y48.103 E305.8743
G1 X87.256 Y48.103 E305.90834
G1 X86.353 Y48.055 E305.97752
G1 X86.218 Y48.035 E305.98796
G1 X77.777 Y39.593 E306.9012
G1 X77.788 Y39.732 E306.91187
G1 X77.933 Y40.561 E306.97625
G1 X78.156 Y41.398 E307.04251
G1 X78.449 Y42.198 E307.10768
G1 X78.831 Y43.008 E307.17619
G1 X79.251 Y43.721 E307.2395
G1 X79.682 Y44.327 E307.29638
G1 X81.481 Y46.125 E307.49095
G1 X81.579 Y46.205 E307.50063
G1 X82.306 Y46.696 E307.56774
G1 X83.067 Y47.114 E307.63416
G1 X83.85 Y47.458 E307.69958
G1 X84.417 Y47.648 E307.74533
G1 X78.15 Y41.38 E308.42338
G0 F600 X78.15 Y41.38 Z0.62
G0 F7200 X77.891 Y16.8
;TIME_ELAPSED:162.225379

;LAYER:-2
;TYPE:SUPPORT-INTERFACE
G1 F2400 X138.711 Y16.8 E309.94054
G1 X138.641 Y16.543 E309.94718
G1 X138.589 Y16.4 E309.95098
G1 X78.025 Y16.4 E311.46176
G1 X78.16 Y16 E311.47229
G1 X138.443 Y16 E312.97605
G1 X138.341 Y15.725 E312.98337
G1 X138.283 Y15.6 E312.98681
G1 X78.333 Y15.6 E314.48226
G1 X78.509 Y15.2 E314.49317
G1 X138.094 Y15.2 E315.97952
G1 X137.963 Y14.925 E315.98712
G1 X137.891 Y14.8 E315.99072
G1 X78.725 Y14.8 E317.46662
G1 X78.938 Y14.412 E317.47766
G1 X78.946 Y14.4 E317.47802
G1 X137.656 Y14.4 E318.94255
G1 X137.521 Y14.172 E318.94916
G1 X137.399 Y14 E318.95442
G1 X79.215 Y14 E320.40582
G1 X79.438 Y13.67 E320.41576
G1 X79.494 Y13.6 E320.41799
G1 X137.113 Y13.6 E321.85531
G1 X137.014 Y13.463 E321.85952
G1 X136.79 Y13.2 E321.86814
G1 X79.819 Y13.2 E323.28929
G1 X79.978 Y13.004 E323.29558
G1 X80.176 Y12.8 E323.30267
G1 X136.447 Y12.8 E324.70636
G0 F7200 X136.444 Y12.798
G1 F2400 X136.036 Y12.4 E324.72058
G1 X80.564 Y12.4 E326.10433
G1 X80.597 Y12.367 E326.1055
G1 X81.024 Y12 E326.11954
G1 X135.588 Y12 E327.48065
G1 X135.141 Y11.639 E327.49498
G1 X135.085 Y11.6 E327.49668
G1 X81.537 Y11.6 E328.83244
G1 X81.979 Y11.285 E328.84598
G1 X82.123 Y11.2 E328.85015
G1 X134.492 Y11.2 E330.1565
G1 X134.399 Y11.139 E330.15928
G1 X133.784 Y10.8 E330.17679
G1 X82.824 Y10.8 E331.448
G1 X83.524 Y10.47 E331.4673
G1 X83.713 Y10.4 E331.47233
G1 X132.911 Y10.4 E332.69958
G1 X132.842 Y10.371 E332.70145
G1 X132.011 Y10.092 E332.72331
G1 X131.155 Y9.887 E332.74527
G1 X130.281 Y9.759 E332.7673
G1 X129.363 Y9.709 E332.79024
G1 X87.293 Y9.706 E333.83968
G1 X86.049 Y9.791 E333.87078
G1 X85.197 Y9.941 E333.89236
G1 X84.973 Y10 E333.89814
G1 X131.632 Y10 E335.06205
G0 F7200 X138.906 Y17.6
G1 F2400 X77.7 Y17.6 E336.58884
G1 X77.796 Y17.2 E336.5991
G1 X138.818 Y17.2 E338.1213
G1 X138.87 Y17.398 E338.12641
G1 X138.977 Y18 E338.14166
G1 X77.635 Y18 E339.67185
G1 X77.577 Y18.4 E339.68193
G1 X139.031 Y18.4 E341.2149
G1 X139.059 Y18.8 E341.22491
G1 X77.543 Y18.8 E342.75943
G1 X77.522 Y19.2 E342.76942
G1 X139.087 Y19.2 E344.30517
G1 X139.104 Y19.457 E344.31159
G1 X139.103 Y19.6 E344.31516
G1 X77.508 Y19.6 E345.85165
G1 X77.508 Y20 E345.86163
G1 X139.103 Y20 E347.39812
G1 X139.103 Y20.4 E347.4081
G1 X77.508 Y20.4 E348.9446
G1 X77.508 Y20.8 E348.95457
G1 X139.103 Y20.8 E350.49107
G1 X139.103 Y21.2 E350.50105
G1 X77.508 Y21.2 E352.03754
G1 X77.508 Y21.6 E352.04752
G1 X139.103 Y21.6 E353.58401
G1 X139.103 Y22 E353.59399
G1 X77.508 Y22 E355.13048
G1 X77.508 Y22.4 E355.14046
G1 X139.103 Y22.4 E356.67695
G1 X139.103 Y22.8 E356.68693
G1 X77.508 Y22.8 E358.22343
G1 X77.508 Y23.2 E358.2334
G1 X139.103 Y23.2 E359.7699
G1 X139.103 Y23.6 E359.77988
G1 X77.508 Y23.6 E361.31637
G1 X77.508 Y24 E361.32635
G1 X139.103 Y24 E362.86284
G1 X139.103 Y24.4 E362.87282
G1 X77.508 Y24.4 E364.40931
G1 X77.508 Y24.8 E364.41929
G1 X139.103 Y24.8 E365.95578
G1 X139.103 Y25.2 E365.96576
G1 X77.508 Y25.2 E367.50226
G1 X77.508 Y25.6 E367.51223
G1 X139.103 Y25.6 E369.04873
G1 X139.103 Y26 E369.05871
G1 X77.507 Y26 E370.59522
G1 X77.507 Y26.4 E370.6052
G1 X139.103 Y26.4 E372.14172
G1 X139.103 Y26.8 E372.1517
G1 X77.507 Y26.8 E373.68822
G1 X77.507 Y27.2 E373.6982
G1 X139.103 Y27.2 E375.23471
G1 X139.103 Y27.6 E375.24469
G1 X77.507 Y27.6 E376.78121
G1 X77.507 Y28 E376.79119
G1 X139.103 Y28 E378.32771
G1 X139.103 Y28.4 E378.33769
G1 X77.507 Y28.4 E379.8742
G1 X77.507 Y28.8 E379.88418
G1 X139.103 Y28.8 E381.4207
G1 X139.102 Y29.2 E381.43068
G1 X77.507 Y29.2 E382.96717
G1 X77.507 Y29.6 E382.97715
G1 X139.102 Y29.6 E384.51364
G1 X139.102 Y30 E384.52362
G1 X77.507 Y30 E386.06012
G1 X77.507 Y30.4 E386.07009
