;FLAVOR:Marlin
;TIME:10126
;Filament used:7.08196m
;Layer height: 0.15
;MINX:35.655
;MINY:0.199
;MINZ:0.24
;MAXX:180.256
;MAXY:77.721
;MAXZ:9.89
                              
;Creality Print GCode Generated by CXEngine:NO_MAGE_VERSION_GIT_HEAD_BRANCH
;CXEngine Release Time:2022-08-30 19:45:28
;Gcode Generated Time:2024-10-19 19:00:39
;----------Machine Config--------------
;Machine Name:Creality Ender-3 Pro
;Machine Height:250
;Machine Width:220
;Machine Depth:220
;Material name:cxsw
;Number of Extruders:1
;ExtruderParams[0] Nozzle Diameter1000
;----------Profile Config---------------
;Engine Version:9c786ab
;Engine Release Time:2022-08-30 19:36:37
;Layer Height:0.15
;Wall Thickness:0.8
;Top/Bottom Thickness:1
;Out Wall Line Width:0.4
;Inner Wall Line Width:0.4
;Inital Layer Height:150
;Wall Line Count:2
;Infill Line Distance:4
;Infill Pattern:grid
;Infill Sparse Density:20
;Infill Wipe Distance:0
;Print Temperature:200
;Bed Temperature:50
;Support Enable:false
;Support Density:30
;Support Angle:60
;Adhesion Type:simpleraft
;machine is belt:false
;machine belt offset:10
;machine belt offset Y:0
;Raft Base Line Spacing:1.6
;Wait Heatup Sync:true
;----------Shell Config----------------
;Outer Wall Wipe Distance:200
;Outer Inset First:false
;Infill Before Walls:false
;Infill Overlap:0.16
;Fill Gaps Between Walls:everywhere
;Minimum Infill Area:1
;Top Surface Skin Layer:0
;Top Layers:4
;Z Seam Alignment:sharpest_corner
;Seam Corner Preference:z_seam_corner_inner
;Z Seam X:110
;Z Seam Y:110
;Horizontal Expansion:0
;Top/Bottom Pattern:zigzag
;Ironing Pattern:zigzag
;Vase Model:false
;----------Support Config----------------
;Support Type:everywhere
;Support Pattern:zigzag
;Support Infill Layer Thickness:0.15
;Minimum Support Area:5
;Enable Support Roof:false
;Support Roof Thickness:0.8
;Support Roof Pattern:lines
;Connect Support Lines:0
;Connect Support ZigZags:1
;Minimum Support X/Y Distance:0.2
;Support Line Distance:1.33
; ---------PrintSpeed & Travel----------
;Enable Print Cool:true
;Avoid Printed Parts Traveling:true
;Enable Retraction:true
;Retraction Distance:8
;Retraction Speed:100
;Retraction Prime Speed:100
;Maximum Retraction Count:100
;Minimum Extrusion Distance Window:1
;Z Hop When Retracted:false
;Z Hop Height:0.2
;Retract Before Outer Wall:true
;Print Speed:50
;Infill Speed:50

;Prime Tower Speed:50
;Travel Speed:120
;Initial Layer Speed:25
;Skirt/Brim Speed:25
;Combing Mode:infill
; --------SpecialModel&Mesh Fixes--------
;Union Overlapping Volum:true
;Remove All Holes:false
;Maximum Travel Resolution:0.6
;Maximum Deviation:0.05
;Maximum Model Angle:0.872665
;IS Mold Print:false
;Make Overhang Printable:false
;Enable Coasting:false
;Coasting Volumes:0.06
;Coasting Speed:0.9
;Raft AirGap:0.25
;Layer0 ZOverLap:0.13
;---------------------End of Head--------------------------
M140 S50
M105
M104 S200
M105
M109 S200
M105
M190 S50
M82 ;absolute extrusion mode
M220 S100 ;Reset Feedrate
M221 S100 ;Reset Flowrate

G28 ;Home

G92 E0 ;Reset Extruder
G1 Z2.0 F3000 ;Move Z Axis up
G1 X10.1 Y20 Z0.28 F5000.0 ;Move to start position
G1 X10.1 Y145.0 Z0.28 F1500.0 E15 ;Draw the first line
G1 X10.4 Y145.0 Z0.28 F5000.0 ;Move to side a little
G1 X10.4 Y20 Z0.28 F1500.0 E30 ;Draw the second line
G92 E0  ;Reset Extruder
G1 E-1.0000 F1800 ;Retract a bit
G1 Z2.0 F3000 ;Move Z Axis up
G1 E0.0000 F1800 

G92 E0
G92 E0
G1 F6000 E-8

;LAYER_COUNT:60

;LAYER:-4
M107
G0 F7200 X38.4 Y4.035 Z0.24
;TYPE:SUPPORT-INTERFACE
G1 F6000 E0
G1 F1200 X38.4 Y71.807 E5.95084
G1 X38.328 Y71.727 E5.96029
G1 X37.842 Y71.075 E6.0317
G1 X37.413 Y70.376 E6.10371
G1 X37.052 Y69.652 E6.17475
G1 X36.8 Y69.002 E6.23596
G1 X36.8 Y6.837 E11.69447
G1 X36.873 Y6.619 E11.71465
G1 X37.202 Y5.87 E11.78649
G1 X37.613 Y5.121 E11.8615
G1 X38.075 Y4.438 E11.93391
G1 X38.573 Y3.822 E12.00346
G1 X40 Y2.377 E12.18178
G1 X40 Y73.461 E18.42344
G1 X41.357 Y74.802 E18.59096
G1 X41.6 Y74.998 E18.61837
G1 X41.6 Y0.863 E25.12793
G1 X41.791 Y0.8 E25.14559
G1 X43.2 Y0.8 E25.2693
G1 X43.2 Y76.063 E31.8779
G1 X43.384 Y76.165 E31.89638
G1 X44.149 Y76.5 E31.96971
G1 X44.8 Y76.719 E32.03002
G1 X44.8 Y0.8 E38.69622
G1 X46.4 Y0.8 E38.83671
G1 X46.4 Y77.048 E45.5318
G1 X46.55 Y77.071 E45.54513
G1 X47.407 Y77.117 E45.62048
G1 X48 Y77.117 E45.67255
G1 X48 Y0.8 E52.3737
G1 X49.6 Y0.8 E52.51419
G1 X49.6 Y77.118 E59.21543
G1 X51.2 Y77.119 E59.35592
G1 X51.2 Y0.8 E66.05724
G1 X52.8 Y0.8 E66.19773
G1 X52.8 Y77.119 E72.89906
G1 X54.4 Y77.12 E73.03955
G1 X54.4 Y0.8 E79.74096
G1 X56 Y0.8 E79.88145
G1 X56 Y77.121 E86.58295
G1 X57.6 Y77.121 E86.72344
G1 X57.6 Y0.8 E93.42494
G1 X59.2 Y0.8 E93.56543
G1 X59.2 Y77.121 E100.26693
G1 X60.8 Y77.121 E100.40742
G1 X60.8 Y0.8 E107.10892
G1 X62.4 Y0.8 E107.24941
G1 X62.4 Y77.121 E113.95091
G1 X64 Y77.121 E114.0914
G1 X64 Y0.8 E120.7929
G1 X65.6 Y0.8 E120.93339
G1 X65.6 Y77.121 E127.63489
G1 X67.2 Y77.121 E127.77539
G1 X67.2 Y0.8 E134.47688
G1 X68.8 Y0.8 E134.61738
G1 X68.8 Y77.121 E141.31888
G1 X70.4 Y77.121 E141.45937
G1 X70.4 Y0.8 E148.16087
G1 X72 Y0.8 E148.30136
G1 X72 Y77.121 E155.00286
G1 X73.6 Y77.121 E155.14335
G1 X73.6 Y0.8 E161.84485
G1 X75.2 Y0.8 E161.98534
G1 X75.2 Y77.121 E168.68684
G1 X76.8 Y77.121 E168.82733
G1 X76.8 Y0.8 E175.52883
G1 X78.4 Y0.8 E175.66932
G1 X78.4 Y77.121 E182.37082
G1 X80 Y77.121 E182.51131
G1 X80 Y0.8 E189.21281
G1 X81.6 Y0.8 E189.3533
G1 X81.6 Y77.121 E196.0548
G1 X83.2 Y77.121 E196.19529
G1 X83.2 Y0.8 E202.89679
G1 X84.8 Y0.8 E203.03728
G1 X84.8 Y77.121 E209.73878
G1 X86.4 Y77.121 E209.87927
G1 X86.4 Y0.8 E216.58077
G1 X88 Y0.8 E216.72126
G1 X88 Y77.121 E223.42276
G1 X89.6 Y77.121 E223.56325
G1 X89.6 Y0.8 E230.26475
G1 X91.2 Y0.8 E230.40524
G1 X91.2 Y77.121 E237.10674
G1 X92.8 Y77.121 E237.24723
G1 X92.8 Y0.8 E243.94873
G1 X94.4 Y0.8 E244.08922
G1 X94.4 Y77.121 E250.79072
G1 X96 Y77.121 E250.93121
G1 X96 Y0.8 E257.63271
G1 X97.6 Y0.8 E257.7732
G1 X97.6 Y77.121 E264.4747
G1 X99.2 Y77.121 E264.61519
G1 X99.2 Y0.8 E271.31669
G1 X100.8 Y0.8 E271.45718
G1 X100.8 Y77.121 E278.15868
G1 X102.4 Y77.121 E278.29917
G1 X102.4 Y0.8 E285.00067
G1 X104 Y0.8 E285.14116
G1 X104 Y77.121 E291.84266
G1 X105.6 Y77.121 E291.98315
G1 X105.6 Y0.8 E298.68465
G1 X107.2 Y0.8 E298.82515
G1 X107.2 Y77.121 E305.52664
G1 X108.8 Y77.121 E305.66714
G1 X108.8 Y0.8 E312.36864
G1 X110.4 Y0.8 E312.50913
G1 X110.4 Y77.121 E319.21063
G1 X112 Y77.121 E319.35112
G1 X112 Y0.8 E326.05262
G1 X113.6 Y0.8 E326.19311
G1 X113.6 Y77.121 E332.89461
G1 X115.2 Y77.121 E333.0351
G1 X115.2 Y0.8 E339.7366
G1 X116.8 Y0.8 E339.87709
G1 X116.8 Y77.121 E346.57859
G1 X118.4 Y77.121 E346.71908
G1 X118.4 Y0.8 E353.42058
G1 X120 Y0.8 E353.56107
G1 X120 Y77.121 E360.26257
G1 X121.6 Y77.121 E360.40306
G1 X121.6 Y0.8 E367.10456
G1 X123.2 Y0.8 E367.24505
G1 X123.2 Y77.121 E373.94655
G1 X124.8 Y77.121 E374.08704
G1 X124.8 Y0.8 E380.78854
G1 X126.4 Y0.8 E380.92903
G1 X126.4 Y77.121 E387.63053
G1 X128 Y77.121 E387.77102
G1 X128 Y0.8 E394.47252
G1 X129.6 Y0.8 E394.61301
G1 X129.6 Y77.121 E401.31451
G1 X131.2 Y77.121 E401.455
G1 X131.2 Y0.8 E408.1565
G1 X132.8 Y0.8 E408.29699
G1 X132.8 Y77.121 E414.99849
G1 X134.4 Y77.121 E415.13898
G1 X134.4 Y0.8 E421.84048
G1 X136 Y0.8 E421.98097
G1 X136 Y77.121 E428.68247
G1 X137.6 Y77.121 E428.82296
G1 X137.6 Y0.8 E435.52446
G1 X139.2 Y0.8 E435.66495
G1 X139.2 Y77.121 E442.36645
G1 X140.8 Y77.121 E442.50694
G1 X140.8 Y0.8 E449.20844
G1 X142.4 Y0.8 E449.34893
G1 X142.4 Y77.121 E456.05043
G1 X144 Y77.121 E456.19092
G1 X144 Y0.8 E462.89242
G1 X145.6 Y0.8 E463.03292
G1 X145.6 Y76.979 E469.72195
G1 X146.213 Y76.859 E469.77679
G1 X146.995 Y76.633 E469.84827
G1 X147.2 Y76.554 E469.86756
G1 X147.2 Y0.8 E476.51927
G1 X148.8 Y0.8 E476.65976
G1 X148.8 Y75.788 E483.24422
G1 X149.21 Y75.535 E483.28652
G1 X149.867 Y75.045 E483.35849
G1 X150.4 Y74.569 E483.42123
G1 X150.4 Y0.8 E489.89865
G1 X152 Y0.8 E490.03914
G1 X152 Y72.987 E496.37765
G1 X153.6 Y71.387 E496.57633
G1 X153.6 Y0.8 E502.77435
G1 X155.2 Y0.8 E502.91484
G1 X155.2 Y69.787 E508.97236
G1 X156.8 Y68.187 E509.17105
G1 X156.8 Y0.8 E515.08808
G1 X158.4 Y0.8 E515.22857
G1 X158.4 Y66.587 E521.00511
G1 X160 Y64.987 E521.2038
G1 X160 Y0.8 E526.83985
G1 X161.6 Y0.8 E526.98034
G1 X161.6 Y63.387 E532.4759
G1 X163.2 Y61.787 E532.67459
G1 X163.2 Y1.27 E537.98839
G1 X163.384 Y1.439 E538.01033
G1 X164.8 Y2.855 E538.18616
G1 X164.8 Y60.187 E543.2203
G1 X166.4 Y58.587 E543.41898
G1 X166.4 Y4.455 E548.17214
G1 X168 Y6.055 E548.37082
G1 X168 Y56.987 E552.843
G1 X169.6 Y55.387 E553.04168
G1 X169.6 Y7.655 E557.23287
G1 X171.2 Y9.255 E557.43156
G1 X171.2 Y53.787 E561.34177
G1 X172.8 Y52.187 E561.54045
G1 X172.8 Y10.855 E565.16968
G1 X174.4 Y12.455 E565.36836
G1 X174.4 Y50.587 E568.71661
G1 X176 Y48.987 E568.9153
G1 X176 Y14.055 E571.98256
G1 X176.954 Y15.009 E572.10103
G1 X177.584 Y15.714 E572.18405
G1 X177.6 Y15.736 E572.18643
G1 X177.6 Y47.297 E574.9577
G1 X177.837 Y47.003 E574.99086
G1 X178.299 Y46.32 E575.06327
G1 X178.71 Y45.571 E575.13828
G1 X179.039 Y44.822 E575.21012
G1 X179.295 Y44.054 E575.2812
G1 X179.484 Y43.26 E575.35287
G1 X179.608 Y42.419 E575.42751
G1 X179.653 Y41.57 E575.50216
G1 X179.656 Y21.551 E577.25997
G1 X179.635 Y20.961 E577.3118
G1 X179.552 Y20.177 E577.38103
G1 X179.395 Y19.37 E577.45322
G1 X179.2 Y18.694 E577.515
G1 X179.2 Y44.339 E579.7668
G0 F600 X179.2 Y44.339 Z0.47
G0 F7200 X179.465 Y18.245
;TIME_ELAPSED:338.040783

;LAYER:-3
;TYPE:SUPPORT
G1 F1800 X161.62 Y0.4 E581.69736
G1 X162.707 Y0.4 E581.78051
G1 X163.096 Y0.631 E581.81512
G1 X163.667 Y1.156 E581.87446
G1 X177.244 Y14.733 E583.34329
G1 X177.895 Y15.461 E583.418
G1 X178.403 Y16.144 E583.48311
G1 X178.838 Y16.849 E583.54649
G1 X179.228 Y17.631 E583.61333
G1 X179.547 Y18.453 E583.68078
G1 X179.786 Y19.282 E583.74678
G1 X179.948 Y20.117 E583.81185
G1 X179.95 Y20.144 E583.81392
G1 X160.206 Y0.4 E585.94993
G1 X158.792 Y0.4 E586.05809
G1 X180.054 Y21.662 E588.35832
G1 X180.054 Y23.077 E588.46657
G1 X157.377 Y0.4 E590.91988
G1 X155.963 Y0.4 E591.02805
G1 X180.054 Y24.491 E593.63433
G1 X180.054 Y25.905 E593.7425
G1 X154.549 Y0.4 E596.50176
G1 X153.135 Y0.4 E596.60992
G1 X180.054 Y27.319 E599.52216
G1 X180.054 Y28.733 E599.63032
G1 X151.721 Y0.4 E602.69553
G1 X150.306 Y0.4 E602.80377
G1 X180.054 Y30.147 E606.022
G1 X180.054 Y31.561 E606.13017
G1 X148.892 Y0.4 E609.50138
G1 X147.478 Y0.4 E609.60955
G1 X180.054 Y32.975 E613.13373
G1 X180.054 Y34.39 E613.24197
G1 X146.064 Y0.4 E616.91918
G1 X144.65 Y0.4 E617.02735
G1 X180.053 Y35.803 E620.85742
G1 X180.053 Y37.217 E620.96559
G1 X143.235 Y0.4 E624.94869
G1 X141.821 Y0.4 E625.05686
G1 X180.053 Y38.632 E629.19298
G1 X180.053 Y40.046 E629.30115
G1 X140.407 Y0.4 E633.59025
G1 X138.993 Y0.4 E633.69842
G1 X180.053 Y41.46 E638.14049
G1 X180.053 Y41.57 E638.14891
G1 X180.006 Y42.466 E638.21755
G1 X179.959 Y42.78 E638.24183
G1 X137.578 Y0.4 E642.82677
G1 X136.164 Y0.4 E642.93493
G1 X179.728 Y43.963 E647.64785
G1 X179.682 Y44.157 E647.6631
G1 X179.411 Y44.97 E647.72866
G1 X179.383 Y45.032 E647.73386
G1 X134.75 Y0.4 E652.56243
G1 X133.336 Y0.4 E652.6706
G1 X178.933 Y45.997 E657.60351
G1 X178.646 Y46.52 E657.64914
G1 X178.402 Y46.88 E657.68241
G1 X131.922 Y0.4 E662.71085
G1 X130.507 Y0.4 E662.81909
G1 X177.797 Y47.689 E667.9351
G1 X177.638 Y47.886 E667.95447
G1 X177.22 Y48.333 E668.00129
G1 X177.123 Y48.429 E668.01173
G1 X129.093 Y0.4 E673.2078
G1 X127.679 Y0.4 E673.31596
G1 X176.416 Y49.136 E678.58852
G1 X175.708 Y49.843 E678.66506
G1 X126.265 Y0.4 E684.01405
G1 X124.851 Y0.4 E684.12222
G1 X175.001 Y50.551 E689.54775
G1 X174.294 Y51.258 E689.62423
G1 X123.436 Y0.4 E695.1263
G1 X122.022 Y0.4 E695.23447
G1 X173.587 Y51.965 E700.81303
G1 X172.88 Y52.672 E700.88952
G1 X120.608 Y0.4 E706.54456
G1 X119.194 Y0.4 E706.65273
G1 X172.173 Y53.379 E712.38426
G1 X171.466 Y54.086 E712.46075
G1 X117.779 Y0.4 E718.26882
G1 X116.365 Y0.4 E718.37699
G1 X170.759 Y54.793 E724.26154
G1 X170.052 Y55.5 E724.33803
G1 X114.951 Y0.4 E730.29908
G1 X113.537 Y0.4 E730.40724
G1 X169.345 Y56.207 E736.44478
G1 X168.637 Y56.915 E736.52137
G1 X112.123 Y0.4 E742.63539
G1 X110.708 Y0.4 E742.74363
G1 X167.93 Y57.622 E748.93419
G1 X167.223 Y58.329 E749.01068
G1 X109.294 Y0.4 E755.27773
G1 X107.88 Y0.4 E755.38589
G1 X166.516 Y59.036 E761.72943
G1 X165.809 Y59.743 E761.80591
G1 X106.466 Y0.4 E768.22593
G1 X105.052 Y0.4 E768.3341
G1 X165.102 Y60.45 E774.83061
G1 X164.395 Y61.157 E774.90709
G1 X103.637 Y0.4 E781.48014
G1 X102.223 Y0.4 E781.58831
G1 X163.688 Y61.864 E788.23784
G1 X162.981 Y62.571 E788.31433
G1 X100.809 Y0.4 E795.04035
G1 X99.395 Y0.4 E795.14852
G1 X162.273 Y63.278 E801.95097
G1 X161.566 Y63.986 E802.02751
G1 X97.98 Y0.4 E808.90656
G1 X96.566 Y0.4 E809.01473
G1 X160.859 Y64.693 E815.97027
G1 X160.152 Y65.4 E816.04675
G1 X95.152 Y0.4 E823.07877
G1 X93.738 Y0.4 E823.18694
G1 X159.445 Y66.107 E830.29545
G1 X158.738 Y66.814 E830.37194
G1 X92.324 Y0.4 E837.55693
G1 X90.909 Y0.4 E837.66518
G1 X158.031 Y67.521 E844.92671
G1 X157.324 Y68.228 E845.0032
G1 X89.495 Y0.4 E852.34122
G1 X88.081 Y0.4 E852.44939
G1 X156.617 Y68.935 E859.8639
G1 X155.909 Y69.642 E859.94044
G1 X86.667 Y0.4 E867.43139
G1 X85.253 Y0.4 E867.53955
G1 X155.202 Y70.35 E875.10704
G1 X154.495 Y71.057 E875.18352
G1 X83.838 Y0.4 E882.82755
G1 X82.424 Y0.4 E882.93572
G1 X153.788 Y71.764 E890.65623
G1 X153.081 Y72.471 E890.73271
G1 X81.01 Y0.4 E898.52971
G1 X79.596 Y0.4 E898.63788
G1 X152.374 Y73.178 E906.51136
G1 X151.667 Y73.885 E906.58785
G1 X78.181 Y0.4 E914.53788
G1 X76.767 Y0.4 E914.64604
G1 X150.96 Y74.592 E922.67256
G1 X150.845 Y74.708 E922.68505
G1 X150.219 Y75.265 E922.74915
G1 X75.353 Y0.4 E930.84847
G1 X73.939 Y0.4 E930.95664
G1 X149.415 Y75.876 E939.12201
G1 X148.719 Y76.308 E939.18467
G1 X148.527 Y76.402 E939.20103
G1 X72.525 Y0.4 E947.4233
G1 X71.11 Y0.4 E947.53154
G1 X147.554 Y76.844 E955.80163
G1 X147.128 Y77.011 E955.83664
G1 X146.491 Y77.194 E955.88734
G1 X69.696 Y0.4 E964.19535
G1 X68.282 Y0.4 E964.30351
G1 X145.311 Y77.428 E972.63684
G1 X144.639 Y77.5 E972.68854
G1 X144.019 Y77.521 E972.736
G1 X143.988 Y77.52 E972.73837
G1 X66.868 Y0.4 E981.08159
G1 X65.454 Y0.4 E981.18976
G1 X142.574 Y77.52 E989.53298
G1 X141.16 Y77.52 E989.64115
G1 X64.039 Y0.4 E997.98443
G1 X62.625 Y0.4 E998.0926
G1 X139.746 Y77.52 E1006.43588
G1 X138.332 Y77.52 E1006.54405
G1 X61.211 Y0.4 E1014.88732
G1 X59.797 Y0.4 E1014.99549
G1 X136.917 Y77.52 E1023.33871
G1 X135.503 Y77.52 E1023.44688
G1 X58.382 Y0.4 E1031.79016
G1 X56.968 Y0.4 E1031.89833
G1 X134.089 Y77.52 E1040.24161
G1 X132.675 Y77.52 E1040.34978
G1 X55.554 Y0.4 E1048.69305
G1 X54.14 Y0.4 E1048.80122
G1 X131.26 Y77.52 E1057.14445
G1 X129.846 Y77.52 E1057.25261
G1 X52.726 Y0.4 E1065.59584
G1 X51.311 Y0.4 E1065.70408
G1 X128.432 Y77.52 E1074.04736
G1 X127.018 Y77.52 E1074.15553
G1 X49.897 Y0.4 E1082.49881
G1 X48.483 Y0.4 E1082.60698
G1 X125.604 Y77.52 E1090.95025
G1 X124.189 Y77.52 E1091.0585
G1 X47.069 Y0.4 E1099.40172
G1 X45.655 Y0.4 E1099.50989
G1 X122.775 Y77.52 E1107.85311
G1 X121.361 Y77.52 E1107.96128
G1 X44.24 Y0.4 E1116.30456
G1 X42.826 Y0.4 E1116.41273
G1 X119.947 Y77.52 E1124.75601
G1 X118.533 Y77.52 E1124.86417
G1 X41.491 Y0.479 E1133.19891
G1 X41.338 Y0.53 E1133.21124
G1 X40.701 Y1.103 E1133.27679
G1 X117.118 Y77.52 E1141.54396
G1 X115.704 Y77.52 E1141.65212
G1 X39.995 Y1.811 E1149.8427
G1 X39.292 Y2.522 E1149.91919
G1 X114.29 Y77.52 E1158.03284
G1 X112.876 Y77.52 E1158.14101
G1 X38.589 Y3.234 E1166.17769
G1 X38.274 Y3.555 E1166.2121
G1 X37.924 Y3.983 E1166.25439
G1 X111.461 Y77.52 E1174.20999
G1 X110.047 Y77.52 E1174.31816
